iPhone_P3_TealAmber_Cinema.cube
TITLE "iPhone - Teal+Amber Cinema"
# INPUT:  iPhone H.265 wide color (Display P3 / BT.709 gamma)
# OUTPUT: Rec.709 Gamma 2.4 with TealAmber cinematic grade
# Bakes in: P3-D65 > Rec.709 primary conversion + creative grade
# In DaVinci: apply directly on clip, NO CST node needed
# Works with: iPhone standard H.264/H.265 video (NOT Apple Log)
LUT_3D_SIZE 33
0.000000 0.066254 0.133351
0.000000 0.066260 0.133354
0.000000 0.066282 0.133366
0.000000 0.066321 0.133387
0.000000 0.066388 0.133423
0.000000 0.066499 0.133483
0.000000 0.066669 0.133575
0.000000 0.066916 0.133709
0.000000 0.067264 0.133897
0.000000 0.067736 0.134153
0.000000 0.068359 0.134491
0.000000 0.069161 0.134928
0.033238 0.070172 0.135481
0.081176 0.071423 0.136166
0.119166 0.072941 0.137001
0.153811 0.074755 0.138004
0.000000 0.068614 0.134630
0.102529 0.072216 0.136602
0.176823 0.076187 0.138798
0.232824 0.080410 0.141154
0.280956 0.084823 0.143632
0.324610 0.089386 0.146202
0.365386 0.094069 0.148841
0.404180 0.098853 0.151528
0.441555 0.103720 0.154246
0.477886 0.108659 0.156978
0.513451 0.113643 0.159702
0.548486 0.118596 0.162361
0.583179 0.123431 0.164887
0.617691 0.128041 0.167191
0.652057 0.132486 0.169290
0.686396 0.136651 0.171091
0.720778 0.140468 0.172529
0.000000 0.066874 0.133383
0.000000 0.067033 0.133402
0.000000 0.067238 0.133433
0.000000 0.067441 0.133470
0.000000 0.067678 0.133524
0.000000 0.067953 0.133600
0.000000 0.068264 0.133706
0.000000 0.068609 0.133850
0.000000 0.068985 0.134041
0.000000 0.069387 0.134289
0.000000 0.069811 0.134607
0.000000 0.070250 0.135007
0.032747 0.070698 0.135502
0.079019 0.071351 0.136126
0.117423 0.072861 0.136957
0.152279 0.074666 0.137955
0.000000 0.068472 0.134553
0.098745 0.072064 0.136518
0.174477 0.076033 0.138713
0.231000 0.080256 0.141068
0.279421 0.084672 0.143547
0.323266 0.089238 0.146118
0.364179 0.093925 0.148760
0.403078 0.098713 0.151450
0.440536 0.103584 0.154170
0.476935 0.108527 0.156906
0.512556 0.113517 0.159633
0.547637 0.118477 0.162298
0.582369 0.123321 0.164831
0.616917 0.127938 0.167140
0.651313 0.132393 0.169248
0.685678 0.136567 0.171057
0.720084 0.140394 0.172504
0.000000 0.068857 0.133488
0.000000 0.069076 0.133515
0.000000 0.069481 0.133567
0.000000 0.069885 0.133625
0.000000 0.070357 0.133704
0.000000 0.070908 0.133810
0.000000 0.071538 0.133950
0.000000 0.072243 0.134132
0.000000 0.073020 0.134366
0.000000 0.073864 0.134662
0.000000 0.074770 0.135031
0.005092 0.075731 0.135486
0.053080 0.076741 0.136039
0.092806 0.077789 0.136704
0.126877 0.078868 0.137494
0.000000 0.066906 0.133584
0.000000 0.070501 0.135075
0.109964 0.073878 0.136843
0.175554 0.076833 0.138789
0.229163 0.080103 0.140982
0.277880 0.084521 0.143462
0.321918 0.089090 0.146035
0.362969 0.093781 0.148679
0.401973 0.098573 0.151371
0.439515 0.103448 0.154095
0.475983 0.108395 0.156833
0.511660 0.113390 0.159565
0.546788 0.118357 0.162234
0.581559 0.123209 0.164773
0.616141 0.127835 0.167090
0.650567 0.132299 0.169205
0.684959 0.136483 0.171023
0.719388 0.140321 0.172479
0.000000 0.072157 0.133668
0.000000 0.072337 0.133693
0.000000 0.072926 0.133766
0.000000 0.073513 0.133846
0.000000 0.074200 0.133949
0.000000 0.075003 0.134084
0.000000 0.075921 0.134258
0.000000 0.076949 0.134479
0.000000 0.078085 0.134755
0.000000 0.079322 0.135098
0.000000 0.080653 0.135517
0.023715 0.082071 0.136026
0.069316 0.083568 0.136636
0.105451 0.085133 0.137359
0.137901 0.086755 0.138209
0.000000 0.071418 0.134644
0.070800 0.076607 0.136272
0.144813 0.081256 0.138089
0.198832 0.085331 0.140052
0.245170 0.088864 0.142135
0.287310 0.091900 0.144318
0.326798 0.094482 0.146581
0.364472 0.096645 0.148911
0.400856 0.098431 0.151292
0.438483 0.103311 0.154019
0.475020 0.108262 0.156760
0.510755 0.113263 0.159495
0.545930 0.118236 0.162170
0.580742 0.123097 0.164716
0.615359 0.127731 0.167039
0.649815 0.132204 0.169162
0.684234 0.136398 0.170988
0.718687 0.140247 0.172453
0.000000 0.077555 0.133975
0.000000 0.077575 0.133987
0.000000 0.078353 0.134084
0.000000 0.079129 0.134188
0.000000 0.080036 0.134321
0.000000 0.081095 0.134490
0.000000 0.082304 0.134703
0.000000 0.083660 0.134967
0.000000 0.085156 0.135293
0.000000 0.086786 0.135689
0.000000 0.088540 0.136166
0.045242 0.090411 0.136735
0.085187 0.092387 0.137409
0.118702 0.094457 0.138199
0.000000 0.072995 0.134528
0.037164 0.079901 0.136038
0.120042 0.086139 0.137735
0.174941 0.091669 0.139579
0.221183 0.096541 0.141547
0.262996 0.100817 0.143619
0.302106 0.104557 0.145780
0.339403 0.107816 0.148014
0.375418 0.110636 0.150307
0.410494 0.113055 0.152645
0.444868 0.115101 0.155018
0.478712 0.116798 0.157413
0.512167 0.118144 0.159810
0.545363 0.119101 0.162166
0.579774 0.122964 0.164647
0.614432 0.127608 0.166979
0.648925 0.132092 0.169110
0.683375 0.136297 0.170947
0.717856 0.140159 0.172422
0.000000 0.085712 0.134469
0.000000 0.085457 0.134453
0.000000 0.086380 0.134574
0.000000 0.087336 0.134707
0.000000 0.088453 0.134873
0.000000 0.089757 0.135081
0.000000 0.091246 0.135339
0.000000 0.092913 0.135654
0.000000 0.094752 0.136035
0.000000 0.096754 0.136492
0.021172 0.098908 0.137034
0.065665 0.101205 0.137672
0.000000 0.068192 0.133578
0.000000 0.076867 0.134762
0.021391 0.085163 0.136181
0.103731 0.092672 0.137770
0.157229 0.099385 0.139500
0.202115 0.105365 0.141353
0.242771 0.110686 0.143311
0.280900 0.115418 0.145361
0.317364 0.119623 0.147490
0.352661 0.123353 0.149684
0.387110 0.126651 0.151932
0.420929 0.129555 0.154220
0.454276 0.132096 0.156539
0.487271 0.134292 0.158876
0.520029 0.136132 0.161196
0.552648 0.137588 0.163459
0.585219 0.138602 0.165608
0.617826 0.139096 0.167572
0.650447 0.139131 0.169395
0.683165 0.138581 0.170990
0.716871 0.140054 0.172386
0.000000 0.097029 0.135215
0.000000 0.096733 0.135194
0.000000 0.097378 0.135293
0.000000 0.098492 0.135458
0.000000 0.099792 0.135661
0.000000 0.101309 0.135913
0.000000 0.103041 0.136220
0.000000 0.104980 0.136591
0.000000 0.107118 0.137033
0.000819 0.109445 0.137556
0.045386 0.111950 0.138169
0.000000 0.074962 0.134198
0.000000 0.084665 0.135367
0.022582 0.093679 0.136711
0.095790 0.101884 0.138202
0.145543 0.109307 0.139822
0.187897 0.116008 0.141560
0.226631 0.122055 0.143402
0.263228 0.127512 0.145337
0.298430 0.132437 0.147353
0.332666 0.136880 0.149439
0.366208 0.140885 0.151583
0.399240 0.144490 0.153776
0.431894 0.147726 0.156005
0.464270 0.150619 0.158262
0.496459 0.153176 0.160520
0.528543 0.155384 0.162744
0.560598 0.157216 0.164888
0.592702 0.158620 0.166888
0.624902 0.159552 0.168695
0.657169 0.160063 0.170353
0.689582 0.160043 0.171767
0.722170 0.159425 0.172889
0.000000 0.111675 0.136282
0.000000 0.111346 0.136257
0.000000 0.111523 0.136302
0.000000 0.112760 0.136501
0.000000 0.114205 0.136744
0.000000 0.115892 0.137043
0.000000 0.117818 0.137404
0.000000 0.119974 0.137834
0.000000 0.068182 0.133486
0.000000 0.078001 0.134271
0.000000 0.087989 0.135248
0.000000 0.097490 0.136378
0.032264 0.106356 0.137645
0.093738 0.114558 0.139039
0.138527 0.122114 0.140552
0.177683 0.129059 0.142174
0.214031 0.135435 0.143898
0.248730 0.141283 0.145713
0.282369 0.146645 0.147610
0.315289 0.151559 0.149580
0.347704 0.156059 0.151612
0.379757 0.160178 0.153697
0.411552 0.163942 0.155825
0.443163 0.167377 0.157987
0.474662 0.170493 0.160162
0.506110 0.173289 0.162320
0.537569 0.175754 0.164424
0.569097 0.177856 0.166418
0.600761 0.179542 0.168230
0.632562 0.180817 0.169859
0.664485 0.181697 0.171320
0.696597 0.182092 0.172521
0.728920 0.181948 0.173417
0.000000 0.129616 0.137743
0.000000 0.129265 0.137713
0.000000 0.128913 0.137683
0.000000 0.130129 0.137900
0.000000 0.131679 0.138185
0.000000 0.072557 0.133724
0.000000 0.080856 0.134290
0.000000 0.089594 0.134987
0.000000 0.098391 0.135808
0.000000 0.107033 0.136752
0.000000 0.115390 0.137816
0.042759 0.123384 0.138997
0.093877 0.130972 0.140291
0.134008 0.138133 0.141693
0.170020 0.144864 0.143198
0.203945 0.151171 0.144800
0.236667 0.157066 0.146491
0.268642 0.162565 0.148264
0.300134 0.167688 0.150110
0.331306 0.172454 0.152022
0.362267 0.176884 0.153990
0.393093 0.180996 0.156006
0.423839 0.184807 0.158061
0.454556 0.188327 0.160137
0.485288 0.191559 0.162209
0.516081 0.194498 0.164243
0.546979 0.197124 0.166195
0.578033 0.199404 0.168001
0.609304 0.201281 0.169576
0.640718 0.202823 0.171011
0.672316 0.203984 0.172244
0.704140 0.204700 0.173200
0.736205 0.204927 0.173834
0.000000 0.098401 0.135310
0.000000 0.097676 0.135259
0.000000 0.096949 0.135209
0.000000 0.099078 0.135380
0.000000 0.104628 0.135847
0.000000 0.110712 0.136411
0.000000 0.117179 0.137074
0.000000 0.123886 0.137841
0.000000 0.130708 0.138712
0.000000 0.137537 0.139689
0.047841 0.144286 0.140771
0.092873 0.150888 0.141957
0.129680 0.157292 0.143244
0.163207 0.163464 0.144627
0.195084 0.169378 0.146103
0.226045 0.175021 0.147666
0.256475 0.180387 0.149310
0.286595 0.185473 0.151028
0.316541 0.190283 0.152812
0.346400 0.194823 0.154656
0.376229 0.199100 0.156551
0.406070 0.203123 0.158489
0.435960 0.206895 0.160453
0.465932 0.210416 0.162421
0.496017 0.213684 0.164364
0.526247 0.216685 0.166243
0.556662 0.219395 0.168004
0.587308 0.221776 0.169573
0.618229 0.223778 0.170868
0.649285 0.225519 0.172090
0.680583 0.226888 0.173060
0.712137 0.227850 0.173737
0.743956 0.228367 0.174078
0.000000 0.140638 0.138721
0.000000 0.140048 0.138667
0.000000 0.139457 0.138614
0.000000 0.138976 0.138573
0.000000 0.143002 0.139065
0.000000 0.147486 0.139651
0.000000 0.152340 0.140331
0.000000 0.157475 0.141109
0.000000 0.162804 0.141984
0.044905 0.168250 0.142958
0.088275 0.173742 0.144028
0.123556 0.179220 0.145193
0.155634 0.184636 0.146451
0.186131 0.189949 0.147797
0.215784 0.195128 0.149228
0.244982 0.200150 0.150738
0.273946 0.204999 0.152322
0.302811 0.209663 0.153973
0.331662 0.214134 0.155686
0.360554 0.218410 0.157453
0.389524 0.222489 0.159265
0.418603 0.226367 0.161106
0.447817 0.230041 0.162956
0.477188 0.233505 0.164791
0.506742 0.236748 0.166575
0.536510 0.239751 0.168260
0.566526 0.242484 0.169781
0.596836 0.244903 0.171051
0.627423 0.247006 0.172077
0.658180 0.248865 0.173020
0.689207 0.250384 0.173693
0.720513 0.251531 0.174057
0.752038 0.252372 0.174558
0.000000 0.178938 0.142556
0.000000 0.178441 0.142503
0.000000 0.177944 0.142449
0.000000 0.177441 0.142395
0.000000 0.178945 0.142654
0.000000 0.182373 0.143235
0.000000 0.186138 0.143908
0.000000 0.190182 0.144673
0.031487 0.194446 0.145531
0.078114 0.198873 0.146480
0.114027 0.203409 0.147520
0.145924 0.208007 0.148648
0.175896 0.212622 0.149861
0.204855 0.217219 0.151157
0.233273 0.221765 0.152530
0.261421 0.226235 0.153977
0.289461 0.230609 0.155491
0.317496 0.234870 0.157068
0.345593 0.239006 0.158701
0.373797 0.243007 0.160378
0.402140 0.246863 0.162087
0.430649 0.250567 0.163809
0.459344 0.254109 0.165522
0.488249 0.257476 0.167192
0.517388 0.260650 0.168776
0.546791 0.263609 0.170217
0.576494 0.266317 0.171435
0.606544 0.268726 0.172330
0.636825 0.270896 0.173086
0.667324 0.272828 0.173715
0.698112 0.274450 0.174058
0.729131 0.275818 0.174530
0.760275 0.277061 0.175965
0.000000 0.214719 0.146662
0.000000 0.214287 0.146610
0.000000 0.213854 0.146558
0.000000 0.213417 0.146505
0.000000 0.213190 0.146498
0.000000 0.215904 0.147062
0.000000 0.218916 0.147713
0.007587 0.222188 0.148452
0.059817 0.225680 0.149278
0.099552 0.229351 0.150191
0.132867 0.233160 0.151188
0.163341 0.237070 0.152267
0.192340 0.241044 0.153426
0.220532 0.245051 0.154661
0.248292 0.249063 0.155968
0.275844 0.253056 0.157343
0.303329 0.257007 0.158781
0.330842 0.260900 0.160273
0.358445 0.264718 0.161811
0.386183 0.268449 0.163380
0.414087 0.272079 0.164966
0.442187 0.275595 0.166544
0.470504 0.278984 0.168086
0.499064 0.282228 0.169550
0.527894 0.285305 0.170884
0.557026 0.288186 0.172017
0.586501 0.290833 0.172856
0.616365 0.293194 0.173279
0.646361 0.295413 0.173798
0.676641 0.297383 0.174081
0.707140 0.299165 0.174619
0.737774 0.300851 0.176081
0.768635 0.302298 0.177855
0.000000 0.248896 0.150937
0.000000 0.248511 0.150887
0.000000 0.248126 0.150837
0.000000 0.247737 0.150787
0.000000 0.247276 0.150728
0.000000 0.248502 0.151051
0.000000 0.250977 0.151672
0.027388 0.253689 0.152377
0.077865 0.256610 0.153163
0.115140 0.259710 0.154030
0.147472 0.262959 0.154976
0.177403 0.266328 0.155999
0.206020 0.269788 0.157096
0.233893 0.273314 0.158265
0.261355 0.276879 0.159499
0.288613 0.280464 0.160795
0.315803 0.284046 0.162145
0.343019 0.287609 0.163538
0.370325 0.291136 0.164964
0.397770 0.294612 0.166405
0.425389 0.298021 0.167841
0.453215 0.301348 0.169242
0.481274 0.304575 0.170571
0.509597 0.307681 0.171778
0.538215 0.310641 0.172797
0.567164 0.313423 0.173543
0.596488 0.315983 0.173905
0.626161 0.318312 0.173920
0.655948 0.320533 0.174153
0.685924 0.322638 0.174861
0.716045 0.324668 0.176436
0.746431 0.326460 0.178079
0.777132 0.327913 0.179352
0.000000 0.282037 0.155300
0.000000 0.281688 0.155253
0.000000 0.281339 0.155206
0.000000 0.280986 0.155159
0.000000 0.280569 0.155103
0.000000 0.280472 0.155136
0.000000 0.282552 0.155723
0.042965 0.284846 0.156387
0.090599 0.287335 0.157128
0.127070 0.289998 0.157945
0.159169 0.292811 0.158836
0.189024 0.295752 0.159799
0.217603 0.298799 0.160830
0.245434 0.301929 0.161925
0.272834 0.305123 0.163080
0.300004 0.308361 0.164285
0.327084 0.311625 0.165534
0.354169 0.314897 0.166812
0.381328 0.318161 0.168105
0.408615 0.321402 0.169391
0.436072 0.324601 0.170643
0.463736 0.327743 0.171825
0.491640 0.330807 0.172888
0.519818 0.333770 0.173771
0.548309 0.336602 0.174395
0.577152 0.339269 0.174656
0.606398 0.341726 0.174422
0.635842 0.344065 0.174360
0.665303 0.346414 0.175340
0.694936 0.348686 0.177002
0.724873 0.350720 0.178469
0.755123 0.352470 0.179589
0.785677 0.353902 0.180317
0.000000 0.314510 0.159688
0.000000 0.314190 0.159645
0.000000 0.313869 0.159601
0.000000 0.313546 0.159557
0.000000 0.313163 0.159505
0.000000 0.312709 0.159443
0.000000 0.313814 0.159812
0.053575 0.315791 0.160435
0.100001 0.317947 0.161129
0.136453 0.320269 0.161895
0.168728 0.322738 0.162729
0.198781 0.325337 0.163628
0.227536 0.328049 0.164587
0.255504 0.330855 0.165602
0.282999 0.333739 0.166667
0.310226 0.336684 0.167770
0.337327 0.339674 0.168901
0.364402 0.342691 0.170043
0.391528 0.345722 0.171176
0.418762 0.348748 0.172272
0.446155 0.351754 0.173296
0.473748 0.354720 0.174203
0.501581 0.357624 0.174933
0.529694 0.360442 0.175410
0.558131 0.363143 0.175539
0.586922 0.365699 0.175274
0.616019 0.368143 0.175054
0.645057 0.370638 0.176201
0.674270 0.373040 0.177732
0.703794 0.375230 0.178981
0.733626 0.377182 0.179904
0.763757 0.378866 0.180459
0.794197 0.380231 0.180420
0.000000 0.346566 0.164058
0.000000 0.346269 0.164018
0.000000 0.345972 0.163977
0.000000 0.345672 0.163936
0.000000 0.345317 0.163888
0.000000 0.344896 0.163830
0.000000 0.344895 0.163903
0.060536 0.346624 0.164485
0.107054 0.348520 0.165134
0.143934 0.350571 0.165850
0.176634 0.352765 0.166629
0.207057 0.355089 0.167458
0.236125 0.357528 0.168340
0.264349 0.360067 0.169266
0.292047 0.362693 0.170227
0.319430 0.365390 0.171212
0.346645 0.368144 0.172203
0.373799 0.370941 0.173181
0.400975 0.373764 0.174117
0.428238 0.376599 0.174978
0.455643 0.379427 0.175719
0.483237 0.382229 0.176282
0.511068 0.384982 0.176595
0.539170 0.387666 0.176619
0.567499 0.390308 0.176720
0.596074 0.392902 0.177031
0.624975 0.395379 0.177292
0.653841 0.397827 0.178554
0.683004 0.400101 0.179549
0.712461 0.402178 0.180238
0.742213 0.404024 0.180533
0.772276 0.405589 0.180186
0.802631 0.406845 0.179127
0.014586 0.378377 0.168393
0.014283 0.378100 0.168355
0.013980 0.377822 0.168318
0.013675 0.377542 0.168279
0.013315 0.377211 0.168234
0.012887 0.376817 0.168181
0.012391 0.376360 0.168118
0.064929 0.377424 0.168523
0.112313 0.379113 0.169133
0.149914 0.380946 0.169806
0.183202 0.382918 0.170530
0.214106 0.385018 0.171284
0.243575 0.387233 0.172078
0.272133 0.389552 0.172902
0.300106 0.391961 0.173744
0.327712 0.394449 0.174586
0.355107 0.397003 0.175409
0.382405 0.399608 0.176184
0.409694 0.402250 0.176878
0.437044 0.404914 0.177447
0.464518 0.407582 0.177834
0.492141 0.410249 0.178094
0.519886 0.412934 0.178526
0.547789 0.415630 0.179194
0.575954 0.418276 0.179791
0.604528 0.420772 0.179716
0.633421 0.423117 0.179375
0.662285 0.425416 0.180087
0.691426 0.427550 0.180499
0.720863 0.429477 0.180403
0.750595 0.431166 0.179691
0.780603 0.432591 0.178314
0.810864 0.433732 0.176231
0.050508 0.410063 0.172713
0.050233 0.409802 0.172678
0.049956 0.409541 0.172642
0.049677 0.409278 0.172606
0.049345 0.408967 0.172563
0.048950 0.408597 0.172513
0.048488 0.408167 0.172454
0.067272 0.408249 0.172567
0.116095 0.409768 0.173145
0.154639 0.411424 0.173787
0.188632 0.413214 0.174459
0.220089 0.415132 0.175127
0.250016 0.417164 0.175820
0.278957 0.419299 0.176524
0.307251 0.421528 0.177221
0.335125 0.423840 0.177891
0.362744 0.426223 0.178507
0.390228 0.428664 0.179033
0.417658 0.431155 0.179474
0.445041 0.433710 0.180056
0.472426 0.436328 0.180850
0.499870 0.438996 0.181874
0.527524 0.441645 0.182670
0.555476 0.444225 0.182961
0.583782 0.446698 0.182593
0.612499 0.449021 0.181372
0.641395 0.451227 0.180479
0.670309 0.453351 0.180460
0.699500 0.455298 0.179911
0.728959 0.457045 0.178788
0.758670 0.458570 0.177047
0.788613 0.459853 0.174651
0.818760 0.460876 0.171574
0.079864 0.441705 0.177091
0.079659 0.441459 0.177056
0.079453 0.441212 0.177021
0.079245 0.440963 0.176987
0.078999 0.440669 0.176945
0.078706 0.440320 0.176896
0.078365 0.439914 0.176839
0.077974 0.439450 0.176774
0.118559 0.440518 0.177233
0.158241 0.442026 0.177860
0.193033 0.443666 0.178485
0.225089 0.445436 0.179053
0.255510 0.447317 0.179625
0.284862 0.449301 0.180183
0.313503 0.451381 0.180707
0.341623 0.453559 0.181301
0.369363 0.455840 0.182059
0.396848 0.458217 0.183017
0.424174 0.460687 0.184203
0.451502 0.463204 0.185325
0.478938 0.465735 0.186164
0.506546 0.468255 0.186622
0.534384 0.470738 0.186577
0.562512 0.473150 0.185881
0.590991 0.475453 0.184334
0.619908 0.477588 0.181567
0.648874 0.479613 0.179895
0.677896 0.481532 0.178868
0.707150 0.483284 0.177306
0.736626 0.484850 0.175170
0.766304 0.486210 0.172431
0.796163 0.487349 0.169068
0.826170 0.488253 0.165078
0.104327 0.473355 0.181662
0.104158 0.473122 0.181627
0.103989 0.472888 0.181592
0.103818 0.472652 0.181557
0.103616 0.472373 0.181516
0.103376 0.472042 0.181466
0.103096 0.471657 0.181409
0.102776 0.471217 0.181343
0.119734 0.471379 0.181510
0.160752 0.472764 0.182150
0.196382 0.474286 0.182825
0.228959 0.475955 0.183474
0.259730 0.477749 0.184262
0.289291 0.479666 0.185212
0.318013 0.481703 0.186356
0.346187 0.483845 0.187592
0.374046 0.486063 0.188736
0.401721 0.488346 0.189732
0.429314 0.490678 0.190515
0.456913 0.493042 0.191006
0.484593 0.495417 0.191109
0.512424 0.497781 0.190706
0.540486 0.500097 0.189580
0.568854 0.502328 0.187484
0.597591 0.504432 0.184174
0.626757 0.506366 0.179338
0.655798 0.508201 0.177063
0.684930 0.509913 0.175050
0.714242 0.511470 0.172509
0.743722 0.512853 0.169418
0.773350 0.514049 0.165765
0.803097 0.515043 0.161557
0.832930 0.515828 0.156826
0.123494 0.505254 0.188806
0.123386 0.505028 0.188736
0.123278 0.504803 0.188666
0.123169 0.504575 0.188596
0.123040 0.504306 0.188513
0.122887 0.503987 0.188415
0.122707 0.503616 0.188301
0.122500 0.503192 0.188173
0.122265 0.502714 0.188029
0.160029 0.503862 0.189143
0.196720 0.505322 0.190456
0.229953 0.506937 0.191481
0.261293 0.508663 0.192507
0.291384 0.510492 0.193504
0.320629 0.512415 0.194437
0.349295 0.514424 0.195261
0.377575 0.516507 0.195922
0.405614 0.518652 0.196357
0.433529 0.520844 0.196485
0.461432 0.523059 0.196146
0.489412 0.525273 0.195194
0.517542 0.527462 0.193475
0.545893 0.529596 0.190799
0.574529 0.531642 0.186932
0.603517 0.533560 0.181575
0.632919 0.535305 0.174335
0.662033 0.536940 0.171820
0.691270 0.538446 0.168886
0.720629 0.539807 0.165459
0.750095 0.541008 0.161540
0.779644 0.542039 0.157149
0.809246 0.542890 0.152335
0.838863 0.543557 0.147183
0.138584 0.537354 0.198850
0.138486 0.537140 0.198783
0.138387 0.536926 0.198715
0.138287 0.536711 0.198647
0.138169 0.536455 0.198566
0.138029 0.536153 0.198471
0.137866 0.535801 0.198360
0.137680 0.535399 0.198232
0.137470 0.534945 0.198089
0.155963 0.535201 0.198543
0.194842 0.536529 0.199894
0.229374 0.538031 0.200740
0.261618 0.539651 0.201444
0.292427 0.541369 0.202067
0.322262 0.543177 0.202558
0.351441 0.545063 0.202825
0.380180 0.547015 0.202789
0.408639 0.549019 0.202364
0.436944 0.551059 0.201447
0.465201 0.553116 0.199914
0.493500 0.555170 0.197616
0.521920 0.557194 0.194373
0.550538 0.559160 0.189960
0.579421 0.561034 0.184091
0.608636 0.562778 0.176397
0.638170 0.564349 0.167427
0.667438 0.565769 0.164142
0.696770 0.567068 0.160431
0.726158 0.568233 0.156309
0.755583 0.569253 0.151814
0.785021 0.570120 0.147016
0.814438 0.570829 0.142028
0.843794 0.571379 0.137016
0.153221 0.569295 0.208970
0.153127 0.569093 0.208908
0.153032 0.568891 0.208845
0.152938 0.568687 0.208782
0.152825 0.568445 0.208707
0.152692 0.568158 0.208619
0.152538 0.567825 0.208516
0.152361 0.567444 0.208397
0.152162 0.567014 0.208264
0.151940 0.566534 0.208115
0.191699 0.567681 0.209320
0.227942 0.569043 0.210115
0.261145 0.570560 0.210303
0.292722 0.572167 0.210304
0.323198 0.573856 0.210059
0.352916 0.575618 0.209497
0.382114 0.577442 0.208533
0.410972 0.579312 0.207069
0.439629 0.581214 0.204987
0.468200 0.583129 0.202145
0.496781 0.585035 0.198370
0.525459 0.586907 0.193450
0.554311 0.588717 0.187117
0.583406 0.590432 0.179024
0.612808 0.592014 0.168700
0.642453 0.593408 0.158175
0.671873 0.594612 0.154277
0.701284 0.595704 0.150068
0.730676 0.596673 0.145609
0.760030 0.597511 0.140999
0.789319 0.598214 0.136380
0.818507 0.598782 0.131954
0.847553 0.599216 0.127996
0.168392 0.600927 0.218219
0.168298 0.600736 0.218166
0.168204 0.600545 0.218113
0.168109 0.600352 0.218060
0.167997 0.600124 0.217996
0.167864 0.599854 0.217921
0.167709 0.599539 0.217833
0.167532 0.599179 0.217733
0.167333 0.598774 0.217620
0.167110 0.598320 0.217493
0.188026 0.598623 0.217970
0.226273 0.599823 0.218814
0.260345 0.601247 0.218365
0.292595 0.602756 0.217651
0.323616 0.604342 0.216605
0.353787 0.605995 0.215147
0.383372 0.607704 0.213184
0.412566 0.609455 0.210603
0.441520 0.611232 0.207270
0.470355 0.613017 0.203025
0.499174 0.614786 0.197671
0.528067 0.616517 0.190962
0.557110 0.618181 0.182581
0.586372 0.619745 0.172105
0.615913 0.621176 0.158933
0.645655 0.622386 0.147081
0.675214 0.623373 0.142976
0.704682 0.624256 0.138779
0.734049 0.625029 0.134621
0.763296 0.625686 0.130681
0.792394 0.626226 0.127198
0.821307 0.626653 0.124473
0.849991 0.626974 0.122867
0.184085 0.632159 0.226475
0.183993 0.631979 0.226430
0.183901 0.631799 0.226384
0.183808 0.631617 0.226338
0.183698 0.631402 0.226284
0.183568 0.631146 0.226219
0.183417 0.630849 0.226144
0.183244 0.630510 0.226058
0.183048 0.630127 0.225961
0.182830 0.629700 0.225852
0.183924 0.629273 0.225765
0.224328 0.630308 0.226769
0.259243 0.631637 0.225773
0.292034 0.633061 0.224300
0.323489 0.634556 0.222407
0.354021 0.636112 0.220007
0.383914 0.637718 0.216998
0.413376 0.639360 0.213255
0.442566 0.641021 0.208634
0.471613 0.642683 0.202956
0.500621 0.644324 0.196003
0.529680 0.645919 0.187498
0.558865 0.647442 0.177078
0.588242 0.648862 0.164241
0.617864 0.650147 0.148239
0.647691 0.651167 0.135477
0.677369 0.651936 0.131882
0.706867 0.652610 0.128563
0.736176 0.653186 0.125735
0.765276 0.653662 0.123662
0.794143 0.654042 0.122602
0.822834 0.654337 0.121678
0.851372 0.654546 0.120492
0.199947 0.662919 0.233959
0.199858 0.662749 0.233919
0.199770 0.662579 0.233879
0.199681 0.662408 0.233839
0.199576 0.662205 0.233791
0.199451 0.661964 0.233734
0.199306 0.661685 0.233668
0.199140 0.661365 0.233592
0.198953 0.661004 0.233507
0.198744 0.660601 0.233412
0.198513 0.660155 0.233306
0.221581 0.660469 0.233767
0.257810 0.661648 0.232777
0.291009 0.662996 0.230525
0.322790 0.664409 0.227773
0.353592 0.665876 0.224429
0.383716 0.667386 0.220385
