iPhone_P3_TealAmber_Cinema.cube
TITLE "iPhone - Teal+Amber Cinema"
# INPUT:  iPhone H.265 wide color (Display P3 / BT.709 gamma)
# OUTPUT: Rec.709 Gamma 2.4 with TealAmber cinematic grade
# Bakes in: P3-D65 > Rec.709 primary conversion + creative grade
# In DaVinci: apply directly on clip, NO CST node needed
# Works with: iPhone standard H.264/H.265 video (NOT Apple Log)
LUT_3D_SIZE 5
0.000000 0.066254 0.133351
0.000000 0.067264 0.133897
0.000000 0.068614 0.134630
0.441555 0.103720 0.154246
0.720778 0.140468 0.172529
0.000000 0.129616 0.137743
0.000000 0.098391 0.135808
0.236667 0.157066 0.146491
0.485288 0.191559 0.162209
0.736205 0.204927 0.173834
0.000000 0.346566 0.164058
0.107054 0.348520 0.165134
0.346645 0.368144 0.172203
0.567499 0.390308 0.176720
0.802631 0.406845 0.179127
0.168392 0.600927 0.218219
0.167333 0.598774 0.217620
0.383372 0.607704 0.213184
0.615913 0.621176 0.158933
0.849991 0.626974 0.122867
0.284905 0.833944 0.273156
0.284266 0.832600 0.272901
0.371311 0.833646 0.254005
0.608161 0.842317 0.126579
0.849717 0.844116 0.073048
0.000000 0.066343 0.137726
0.000000 0.067963 0.152783
0.061359 0.071188 0.154658
0.449941 0.105910 0.220750
0.724864 0.141495 0.250585
0.000000 0.074352 0.137767
0.000000 0.111337 0.161302
0.247427 0.162046 0.201310
0.490608 0.193899 0.231836
0.739566 0.205920 0.248649
0.000000 0.349727 0.232329
0.111209 0.351480 0.232826
0.349339 0.370322 0.241561
0.569443 0.391827 0.248207
0.804261 0.407522 0.248824
0.169747 0.601924 0.270912
0.168638 0.599740 0.268591
0.385025 0.608242 0.265068
0.616360 0.621521 0.222373
0.850248 0.627152 0.181015
0.286449 0.833866 0.283830
0.285481 0.832539 0.281347
0.371610 0.833627 0.257533
0.608162 0.842320 0.126578
0.849717 0.844119 0.073047
0.000000 0.067298 0.178314
0.000000 0.070296 0.214316
0.164677 0.077829 0.239784
0.469975 0.111606 0.345137
0.736712 0.144314 0.399830
0.000000 0.113208 0.211231
0.000000 0.136555 0.250745
0.271675 0.173794 0.315170
0.504954 0.200360 0.366610
0.750337 0.209009 0.404486
0.008788 0.358751 0.369799
0.123375 0.360162 0.371838
0.357901 0.377211 0.388707
0.575994 0.397444 0.410364
0.811159 0.410273 0.430078
0.176212 0.606549 0.436640
0.175112 0.604400 0.435047
0.392729 0.611528 0.440920
0.619366 0.623849 0.438879
0.852502 0.628694 0.425928
0.291186 0.835565 0.462786
0.290445 0.834216 0.461496
0.387524 0.833454 0.460355
0.617185 0.841153 0.431655
0.851046 0.845136 0.394673
0.000000 0.071124 0.288179
0.000000 0.067505 0.171762
0.239738 0.088837 0.390095
0.497916 0.120739 0.496827
0.754094 0.150597 0.565935
0.000000 0.151957 0.366137
0.071589 0.165047 0.399875
0.302824 0.189918 0.463809
0.525920 0.210432 0.523127
0.765616 0.216043 0.575239
0.044383 0.372225 0.527776
0.141697 0.373190 0.530634
0.371170 0.387875 0.552154
0.585487 0.406967 0.581593
0.820609 0.415307 0.616310
0.186902 0.613798 0.612797
0.185823 0.611703 0.611486
0.399881 0.617986 0.618758
0.624873 0.628280 0.630436
0.855737 0.631186 0.636164
0.298489 0.838458 0.646776
0.297743 0.837113 0.645877
0.393137 0.836334 0.645435
0.632200 0.840341 0.648150
0.853374 0.846932 0.626129
0.000000 0.073972 0.348060
0.050308 0.083240 0.453898
0.297818 0.103630 0.574026
0.530025 0.133110 0.667982
0.772222 0.169253 0.741046
0.000000 0.185063 0.556376
0.124852 0.192306 0.581593
0.336131 0.208362 0.636362
0.551526 0.223359 0.695275
0.780360 0.233817 0.751535
0.083839 0.388934 0.700472
0.164835 0.389442 0.703649
0.387879 0.401834 0.727391
0.599681 0.418711 0.760260
0.821318 0.432026 0.795253
0.201787 0.623209 0.794011
0.200753 0.621183 0.792853
0.409632 0.626373 0.800784
0.632573 0.634858 0.813407
0.847876 0.641082 0.826354
0.308996 0.842562 0.831175
0.308252 0.841221 0.830471
0.401260 0.840421 0.830454
0.637743 0.844323 0.833967
0.855995 0.849528 0.838879
