iPhone_P3_TealAmber_Cinema.cube
TITLE "iPhone - Teal+Amber Cinema"
# INPUT:  iPhone H.265 wide color (Display P3 / BT.709 gamma)
# OUTPUT: Rec.709 Gamma 2.4 with TealAmber cinematic grade
# Bakes in: P3-D65 > Rec.709 primary conversion + creative grade
# In DaVinci: apply directly on clip, NO CST node needed
# Works with: iPhone standard H.264/H.265 video (NOT Apple Log)
LUT_3D_SIZE 9
0.000000 0.066254 0.133351
0.000000 0.066388 0.133423
0.000000 0.067264 0.133897
0.033238 0.070172 0.135481
0.000000 0.068614 0.134630
0.280956 0.084823 0.143632
0.441555 0.103720 0.154246
0.583179 0.123431 0.164887
0.720778 0.140468 0.172529
0.000000 0.077555 0.133975
0.000000 0.080036 0.134321
0.000000 0.085156 0.135293
0.085187 0.092387 0.137409
0.120042 0.086139 0.137735
0.302106 0.104557 0.145780
0.444868 0.115101 0.155018
0.579774 0.122964 0.164647
0.717856 0.140159 0.172422
0.000000 0.129616 0.137743
0.000000 0.131679 0.138185
0.000000 0.098391 0.135808
0.093877 0.130972 0.140291
0.236667 0.157066 0.146491
0.362267 0.176884 0.153990
0.485288 0.191559 0.162209
0.609304 0.201281 0.169576
0.736205 0.204927 0.173834
0.000000 0.214719 0.146662
0.000000 0.213190 0.146498
0.059817 0.225680 0.149278
0.192340 0.241044 0.153426
0.303329 0.257007 0.158781
0.414087 0.272079 0.164966
0.527894 0.285305 0.170884
0.646361 0.295413 0.173798
0.768635 0.302298 0.177855
0.000000 0.346566 0.164058
0.000000 0.345317 0.163888
0.107054 0.348520 0.165134
0.236125 0.357528 0.168340
0.346645 0.368144 0.172203
0.455643 0.379427 0.175719
0.567499 0.390308 0.176720
0.683004 0.400101 0.179549
0.802631 0.406845 0.179127
0.104327 0.473355 0.181662
0.103616 0.472373 0.181516
0.119734 0.471379 0.181510
0.259730 0.477749 0.184262
0.374046 0.486063 0.188736
0.484593 0.495417 0.191109
0.597591 0.504432 0.184174
0.714242 0.511470 0.172509
0.832930 0.515828 0.156826
0.168392 0.600927 0.218219
0.167997 0.600124 0.217996
0.167333 0.598774 0.217620
0.260345 0.601247 0.218365
0.383372 0.607704 0.213184
0.499174 0.614786 0.197671
0.615913 0.621176 0.158933
0.734049 0.625029 0.134621
0.849991 0.626974 0.122867
0.230786 0.722693 0.247756
0.230467 0.722063 0.247608
0.229929 0.721002 0.247360
0.253680 0.720183 0.246835
0.381197 0.725234 0.228401
0.499504 0.730380 0.195878
0.617229 0.734565 0.133526
0.736374 0.735611 0.115190
0.851590 0.735800 0.109490
0.284905 0.833944 0.273156
0.284667 0.833442 0.273062
0.284266 0.832600 0.272901
0.283644 0.831288 0.272649
0.371311 0.833646 0.254005
0.490537 0.838080 0.211536
0.608161 0.842317 0.126579
0.730881 0.843543 0.087502
0.849717 0.844116 0.073048
0.000000 0.066265 0.133881
0.000000 0.066485 0.136111
0.000000 0.067496 0.139985
0.043316 0.070582 0.146176
0.000000 0.069455 0.139539
0.286184 0.085618 0.160368
0.443960 0.104336 0.175142
0.584510 0.123851 0.185341
0.721547 0.140663 0.189664
0.000000 0.078744 0.140266
0.000000 0.081183 0.141841
0.000000 0.086245 0.145263
0.090402 0.093392 0.150630
0.131386 0.087815 0.147740
0.306021 0.105500 0.162671
0.446922 0.115691 0.174046
0.580934 0.123329 0.182409
0.718485 0.140320 0.186460
0.000000 0.131347 0.151040
0.000000 0.071185 0.134408
0.000000 0.102670 0.142506
0.100649 0.133438 0.152771
0.239781 0.158492 0.162999
0.364142 0.177734 0.172090
0.486455 0.192072 0.179474
0.609999 0.201566 0.183872
0.736556 0.205034 0.183066
0.000000 0.216589 0.162610
0.000000 0.215021 0.161898
0.062478 0.227139 0.165481
0.193800 0.242114 0.170131
0.304408 0.257743 0.175150
0.414854 0.272555 0.179774
0.528381 0.285583 0.182717
0.646611 0.295528 0.181046
0.768646 0.302305 0.178210
0.000000 0.347138 0.178105
0.000000 0.345864 0.177237
0.107721 0.348996 0.177553
0.236546 0.357889 0.179384
0.346939 0.368384 0.181040
0.455805 0.379550 0.181284
0.567520 0.390326 0.177577
0.683005 0.400104 0.179549
0.802632 0.406847 0.179127
0.104385 0.473389 0.183060
0.103640 0.472388 0.182071
0.119736 0.471382 0.181511
0.259730 0.477751 0.184262
0.374047 0.486066 0.188736
0.484594 0.495420 0.191109
0.597592 0.504435 0.184174
0.714243 0.511472 0.172509
0.832930 0.515830 0.156825
0.168393 0.600929 0.218220
0.167998 0.600126 0.217997
0.167334 0.598776 0.217620
0.260345 0.601249 0.218365
0.383373 0.607706 0.213184
0.499175 0.614788 0.197671
0.615913 0.621178 0.158932
0.734050 0.625030 0.134620
0.849992 0.626976 0.122867
0.230787 0.722695 0.247756
0.230467 0.722064 0.247608
0.229930 0.721003 0.247361
0.253681 0.720184 0.246835
0.381198 0.725236 0.228401
0.499504 0.730381 0.195878
0.617230 0.734566 0.133526
0.736374 0.735613 0.115190
0.851590 0.735801 0.109490
0.284906 0.833945 0.273156
0.284667 0.833444 0.273062
0.284267 0.832601 0.272902
0.283645 0.831289 0.272649
0.371312 0.833647 0.254005
0.490537 0.838081 0.211536
0.608161 0.842318 0.126579
0.730881 0.843545 0.087502
0.849717 0.844117 0.073048
0.000000 0.066343 0.137726
0.000000 0.066710 0.143461
0.000000 0.067963 0.152783
0.059357 0.071391 0.166534
0.061359 0.071188 0.154658
0.297042 0.087371 0.194788
0.449941 0.105910 0.220750
0.588651 0.125172 0.238871
0.724864 0.141495 0.250585
0.000000 0.080907 0.153603
0.000000 0.083311 0.157289
0.000000 0.088333 0.164954
0.000000 0.066548 0.133780
0.152507 0.091323 0.171680
0.315101 0.107756 0.200028
0.452669 0.117370 0.220661
0.585110 0.124658 0.236379
0.721817 0.141165 0.248030
0.000000 0.074352 0.137767
0.000000 0.083532 0.143137
0.000000 0.111337 0.161302
0.114697 0.138909 0.181962
0.247427 0.162046 0.201310
0.369538 0.180199 0.217999
0.490608 0.193899 0.231836
0.613395 0.202960 0.242432
0.739566 0.205920 0.248649
0.000000 0.221426 0.201210
0.000000 0.219897 0.200363
0.069740 0.231256 0.207104
0.198310 0.245425 0.215798
0.308237 0.260359 0.225265
0.418194 0.274630 0.234498
0.531312 0.287251 0.242447
0.649347 0.296762 0.247061
0.771067 0.303277 0.251503
0.000000 0.349727 0.232329
0.000000 0.348466 0.231517
0.111209 0.351480 0.232826
0.239155 0.360103 0.236933
0.349339 0.370322 0.241561
0.458030 0.381229 0.245757
0.569443 0.391827 0.248207
0.684885 0.401174 0.250317
0.804261 0.407522 0.248824
0.107471 0.475153 0.249050
0.106756 0.474155 0.248242
0.122542 0.473127 0.247214
0.261727 0.479300 0.250060
0.375571 0.487447 0.253720
0.485821 0.496592 0.255599
0.598495 0.505387 0.250587
0.715313 0.512102 0.238847
0.833798 0.516223 0.224210
0.169747 0.601924 0.270912
0.169333 0.601110 0.270048
0.168638 0.599740 0.268591
0.262836 0.601921 0.269500
0.385025 0.608242 0.265068
0.500157 0.615223 0.252170
0.616360 0.621521 0.222373
0.734458 0.625312 0.196877
0.850248 0.627152 0.181015
0.231463 0.723080 0.280872
0.231130 0.722442 0.280040
0.230569 0.721369 0.278638
0.254955 0.720446 0.277032
0.383056 0.725216 0.261631
0.500408 0.730360 0.231350
0.617570 0.734559 0.176547
0.736454 0.735678 0.148715
0.851635 0.735838 0.130486
0.286449 0.833866 0.283830
0.286088 0.833371 0.282906
0.285481 0.832539 0.281347
0.284539 0.831244 0.278902
0.371610 0.833627 0.257533
0.490537 0.838083 0.211536
0.608162 0.842320 0.126578
0.730882 0.843547 0.087501
0.849717 0.844119 0.073047
0.000000 0.066617 0.150475
0.000000 0.067209 0.160679
0.000000 0.068828 0.176593
0.079527 0.072768 0.198924
0.118113 0.073955 0.187268
0.312202 0.090066 0.243181
0.458727 0.108326 0.278673
0.594867 0.127205 0.303890
0.729919 0.142730 0.322253
0.000000 0.084303 0.178053
0.000000 0.086654 0.184181
0.000000 0.091610 0.196616
0.000000 0.074186 0.154585
0.178715 0.096415 0.211541
0.327973 0.111138 0.250887
0.461129 0.119933 0.279438
0.591378 0.126703 0.301690
0.726895 0.142418 0.320112
0.000000 0.092826 0.161703
0.000000 0.100239 0.170229
0.000000 0.123043 0.196978
0.132785 0.146619 0.226101
0.258301 0.167225 0.252975
0.377464 0.183874 0.276148
0.496819 0.196666 0.295665
0.618517 0.205103 0.311761
0.744163 0.207244 0.323996
0.000000 0.228405 0.253121
0.000000 0.226927 0.252166
0.079789 0.237257 0.261566
0.204934 0.250315 0.273717
0.313943 0.264268 0.287055
0.423214 0.277766 0.300355
0.535734 0.289801 0.312699
0.653345 0.298759 0.322759
0.774772 0.304736 0.332984
0.000000 0.353618 0.297701
0.000000 0.352376 0.296908
0.116451 0.355219 0.299072
0.243088 0.363459 0.305142
0.352995 0.373265 0.312360
0.461409 0.383798 0.319890
0.572297 0.394174 0.327334
0.687954 0.402906 0.334228
0.807195 0.408713 0.338571
0.111940 0.477860 0.324637
0.111287 0.476866 0.323920
0.126696 0.475836 0.323147
0.264308 0.481889 0.327539
0.378166 0.489736 0.333593
0.487990 0.498660 0.338847
0.600181 0.507213 0.340385
0.717531 0.513395 0.335382
0.835829 0.517134 0.330298
0.172466 0.603893 0.351636
0.172054 0.603085 0.350941
0.171361 0.601725 0.349772
0.264963 0.603830 0.351111
0.388965 0.609452 0.353130
0.502660 0.616297 0.348393
0.617601 0.622477 0.335048
0.735718 0.626176 0.318194
0.851210 0.627810 0.312382
0.233638 0.724309 0.365974
0.233309 0.723675 0.365335
0.232757 0.722608 0.364259
0.256972 0.721679 0.363133
0.390651 0.725145 0.361958
0.504681 0.730283 0.346528
0.619560 0.734540 0.320805
0.737074 0.736167 0.298397
0.852260 0.736319 0.291348
0.288671 0.834556 0.372032
0.288396 0.834052 0.371417
0.287933 0.833205 0.370381
0.287215 0.831888 0.368763
0.383250 0.832801 0.366115
0.497347 0.837388 0.340854
0.611793 0.841802 0.300290
0.731456 0.843974 0.266120
0.850226 0.844508 0.255439
0.000000 0.067298 0.178314
0.000000 0.068190 0.192551
0.000000 0.070296 0.214316
0.102118 0.074900 0.244137
0.164677 0.077829 0.239784
0.330430 0.093728 0.303300
0.469975 0.111606 0.345137
0.603047 0.129991 0.375875
0.736712 0.144314 0.399830
0.000000 0.089051 0.216351
0.000000 0.091330 0.224619
0.000000 0.096193 0.241209
0.003138 0.084271 0.203227
0.206790 0.102834 0.267156
0.343731 0.115587 0.312555
0.471990 0.123384 0.346531
0.599620 0.129504 0.373854
0.733716 0.144029 0.397935
0.000000 0.113208 0.211231
0.000000 0.118689 0.220775
0.000000 0.136555 0.250745
0.152880 0.155999 0.283883
0.271675 0.173794 0.315170
0.387612 0.188677 0.342778
0.504954 0.200360 0.366610
0.625286 0.208037 0.387151
0.750337 0.209009 0.404486
0.000000 0.237135 0.315485
0.000000 0.235713 0.314469
0.091871 0.244865 0.325618
0.213427 0.256617 0.340181
0.321388 0.269388 0.356387
0.429835 0.281937 0.372854
0.541588 0.293252 0.388741
0.658412 0.301685 0.403332
0.779776 0.306652 0.418347
0.008788 0.358751 0.369799
0.007471 0.357531 0.369008
0.123375 0.360162 0.371838
0.248352 0.367921 0.379475
0.357901 0.377211 0.388707
0.465922 0.387279 0.398889
0.575994 0.397444 0.410364
0.691280 0.405649 0.421759
0.811159 0.410273 0.430078
0.117472 0.481542 0.405100
0.116900 0.480552 0.404425
0.131886 0.479518 0.403813
0.267551 0.485432 0.409397
0.381539 0.492909 0.416769
0.490984 0.501483 0.424742
0.602419 0.509751 0.430898
0.720082 0.515266 0.431808
0.838541 0.518339 0.431930
0.176212 0.606549 0.436640
0.175802 0.605748 0.436047
0.175112 0.604400 0.435047
0.267892 0.606403 0.436749
0.392729 0.611528 0.440920
0.506292 0.617788 0.442847
0.619366 0.623849 0.438879
0.737387 0.627325 0.427452
0.852502 0.628694 0.425928
0.236591 0.725962 0.454666
0.236269 0.725334 0.454144
0.235728 0.724276 0.453267
0.259713 0.723338 0.452446
0.395132 0.726187 0.454589
0.510740 0.730262 0.451654
0.622438 0.734606 0.438647
0.737923 0.736844 0.418359
0.853125 0.736982 0.414556
0.291186 0.835565 0.462786
0.290909 0.835062 0.462305
0.290445 0.834216 0.461496
0.289724 0.832900 0.460233
0.387524 0.833454 0.460355
0.506881 0.836523 0.453969
0.617185 0.841153 0.431655
0.732330 0.844622 0.400233
0.851046 0.845136 0.394673
0.000000 0.068681 0.224409
0.000000 0.069934 0.241244
0.000000 0.072626 0.266989
0.000000 0.070245 0.205190
0.204780 0.082809 0.308982
0.350462 0.098345 0.373113
0.483212 0.115741 0.418214
0.612953 0.133598 0.452829
0.745174 0.146151 0.481444
0.000000 0.095253 0.269443
0.000000 0.097440 0.279229
0.000000 0.077250 0.193602
0.087686 0.095382 0.274487
0.234663 0.110280 0.336018
0.361382 0.121002 0.383056
0.484809 0.127699 0.420030
0.609599 0.133124 0.450924
0.742195 0.145934 0.479691
0.000000 0.133223 0.281872
0.000000 0.137119 0.290811
0.033139 0.150796 0.319708
0.173535 0.166449 0.353077
0.286748 0.181455 0.385935
0.399558 0.194470 0.415989
0.514763 0.204950 0.442741
0.633514 0.211832 0.466661
0.757970 0.211270 0.488594
0.000000 0.247147 0.386349
0.000000 0.245781 0.385320
0.105321 0.253721 0.397350
0.223463 0.264094 0.413305
0.330352 0.275577 0.431381
0.437900 0.287079 0.450077
0.548720 0.297623 0.468634
0.664411 0.305648 0.486960
0.786043 0.308955 0.506272
0.024521 0.365004 0.446759
0.023165 0.363810 0.445965
0.131846 0.366199 0.449283
0.254885 0.373409 0.458099
0.363987 0.382108 0.468860
0.471506 0.391682 0.480900
0.580450 0.401671 0.495434
0.694741 0.409531 0.510519
0.816121 0.412145 0.522793
0.123561 0.486209 0.488756
0.123086 0.485224 0.488097
0.137665 0.484185 0.487591
0.271630 0.489861 0.493953
0.385434 0.496992 0.502079
0.494856 0.505097 0.511481
0.605169 0.513084 0.520992
0.721295 0.518431 0.528189
0.841883 0.519809 0.531704
0.181021 0.609867 0.523949
0.180613 0.609075 0.523418
0.179928 0.607742 0.522525
0.271650 0.609619 0.524523
0.395963 0.614484 0.529181
0.510637 0.619940 0.534422
0.621746 0.625734 0.537166
0.737322 0.629230 0.535225
0.854105 0.629794 0.532743
0.240312 0.728020 0.544963
0.239999 0.727398 0.544517
0.239473 0.726352 0.543767
0.263171 0.725403 0.543151
0.397599 0.728067 0.545577
0.516485 0.730955 0.548286
0.626368 0.734858 0.544949
0.738681 0.737422 0.534656
0.854245 0.737833 0.526614
0.294447 0.836863 0.554610
0.294169 0.836360 0.554216
0.293703 0.835516 0.553553
0.292979 0.834201 0.552520
0.390028 0.834746 0.552812
0.514448 0.836586 0.553914
0.624368 0.840496 0.545759
0.735250 0.844508 0.526950
0.852096 0.845942 0.514502
0.000000 0.071124 0.288179
0.000000 0.072778 0.306220
0.000000 0.067505 0.171762
0.080533 0.076359 0.304337
0.239738 0.088837 0.390095
0.371272 0.103875 0.450851
0.497916 0.120739 0.496827
0.624251 0.138191 0.533805
0.754094 0.150597 0.565935
0.000000 0.073428 0.185531
0.000000 0.080773 0.230065
0.000000 0.093344 0.295703
0.136735 0.106808 0.359820
0.261262 0.118480 0.415049
0.380064 0.127268 0.460862
0.499092 0.132872 0.498897
0.620978 0.137721 0.531988
0.751161 0.150392 0.564253
0.000000 0.151957 0.366137
0.000000 0.154662 0.373912
0.071589 0.165047 0.399875
0.193918 0.177476 0.431338
0.302824 0.189918 0.463809
0.412859 0.201102 0.494736
0.525920 0.210432 0.523127
0.642903 0.216643 0.549390
0.765616 0.216043 0.575239
0.000000 0.258000 0.464270
0.000000 0.256682 0.463263
0.119669 0.263470 0.475511
0.234715 0.272489 0.492037
0.340584 0.282667 0.511133
0.447278 0.293054 0.531283
0.556892 0.302976 0.551448
0.670957 0.310948 0.572793
0.791988 0.313117 0.595808
0.044383 0.372225 0.527776
0.043069 0.371057 0.526984
0.141697 0.373190 0.530634
0.262590 0.379813 0.540276
0.371170 0.387875 0.552154
0.478087 0.396950 0.565798
0.585487 0.406967 0.581593
0.698421 0.414591 0.599318
0.820609 0.415307 0.616310
0.130315 0.491783 0.574847
0.129859 0.490813 0.574214
0.144035 0.489769 0.573784
0.276519 0.495119 0.580630
0.390087 0.501849 0.589364
0.499484 0.509457 0.599348
0.608410 0.517340 0.609797
0.722393 0.522666 0.621483
0.844984 0.521940 0.630664
0.186902 0.613798 0.612797
0.186500 0.613017 0.612308
0.185823 0.611703 0.611486
0.276248 0.613430 0.613713
0.399881 0.617986 0.618758
0.514200 0.623083 0.624464
0.624873 0.628280 0.630436
0.737121 0.631920 0.635294
0.855737 0.631186 0.636164
0.244762 0.730447 0.636076
0.244461 0.729833 0.635683
0.243954 0.728801 0.635022
0.267312 0.727838 0.634548
0.400562 0.730285 0.637165
0.519024 0.732952 0.639968
0.631097 0.735574 0.642649
0.739884 0.738409 0.640564
0.855555 0.738897 0.633420
0.298489 0.838458 0.646776
0.298210 0.837956 0.646440
0.297743 0.837113 0.645877
0.297016 0.835800 0.644999
0.393137 0.836334 0.645435
0.516933 0.838155 0.646710
0.632200 0.840341 0.648150
0.739604 0.844405 0.640557
0.853374 0.846932 0.626129
0.000000 0.075008 0.367514
0.000000 0.068867 0.222139
0.000000 0.074607 0.322145
0.142207 0.083726 0.409296
0.270476 0.095815 0.479294
0.392162 0.110259 0.535018
0.513647 0.126536 0.580273
0.636509 0.144149 0.618152
0.763346 0.157848 0.652812
0.000000 0.094710 0.330067
0.000000 0.099627 0.357325
0.035898 0.108373 0.402826
0.173169 0.118221 0.453393
0.286191 0.127229 0.501614
0.399141 0.134273 0.544719
0.514426 0.138817 0.582481
0.633323 0.143666 0.616417
0.760509 0.157536 0.651177
0.000000 0.169200 0.458677
0.000000 0.171036 0.465274
0.100429 0.178929 0.487939
0.213656 0.188741 0.516636
0.319394 0.198945 0.547610
0.427119 0.208427 0.578312
0.538288 0.216565 0.607428
0.653039 0.222816 0.634667
0.773218 0.223344 0.663241
0.000000 0.269336 0.548083
0.000000 0.268060 0.547120
0.134627 0.273806 0.559147
0.246905 0.281568 0.575655
0.351836 0.290493 0.595112
0.457725 0.299778 0.616051
0.566440 0.308850 0.637345
0.677713 0.317845 0.659803
0.796618 0.320330 0.685104
0.064514 0.380252 0.612441
0.063467 0.379109 0.611656
0.152751 0.380985 0.615509
0.271350 0.387014 0.625670
0.379320 0.394425 0.638304
0.485240 0.403154 0.653386
0.592200 0.412543 0.669976
0.701980 0.421179 0.687187
0.821611 0.422329 0.707641
0.138063 0.498138 0.663024
0.137627 0.497182 0.662412
0.151371 0.496134 0.662038
0.282172 0.501124 0.669227
0.395512 0.507385 0.678348
0.504859 0.514429 0.688726
0.613582 0.521712 0.699647
0.723205 0.528300 0.710974
0.842407 0.528160 0.725704
0.193841 0.618275 0.702870
0.193446 0.617506 0.702412
0.192781 0.616212 0.701642
0.281676 0.617769 0.704032
0.404454 0.621976 0.709344
0.518312 0.626662 0.715365
0.628536 0.631409 0.721670
0.737002 0.635616 0.728133
0.852025 0.635410 0.735614
0.249873 0.733191 0.727659
0.249585 0.732586 0.727306
0.249101 0.731570 0.726712
0.272075 0.730593 0.726340
0.404098 0.732814 0.729000
0.521995 0.735228 0.731815
0.633564 0.737577 0.734514
0.741824 0.740093 0.737269
0.853686 0.741286 0.738181
0.303335 0.840357 0.738997
0.303056 0.839855 0.738704
0.302589 0.839013 0.738211
0.301861 0.837703 0.737443
0.396877 0.838224 0.738003
0.519911 0.840023 0.739446
0.634763 0.842183 0.741123
0.745290 0.844714 0.742975
0.854335 0.847847 0.738321
0.000000 0.073972 0.348060
0.000000 0.077381 0.395213
0.050308 0.083240 0.453898
0.183264 0.092085 0.516401
0.297818 0.103630 0.574026
0.412728 0.117427 0.624401
0.530025 0.133110 0.667982
0.649857 0.150641 0.705886
0.772222 0.169253 0.741046
0.000000 0.112977 0.459163
0.000000 0.116188 0.477878
0.089234 0.122305 0.511408
0.202944 0.129512 0.551957
0.309443 0.136392 0.593761
0.418211 0.141924 0.633597
0.530440 0.145507 0.670240
0.646760 0.150127 0.704240
0.769482 0.168841 0.739498
0.000000 0.185063 0.556376
0.000000 0.186269 0.561958
0.124852 0.192306 0.581593
0.232668 0.200045 0.607391
0.336131 0.208362 0.636362
0.442015 0.216327 0.666149
0.551526 0.223359 0.695275
0.664417 0.229375 0.723021
0.780360 0.233817 0.751535
0.000000 0.280906 0.636827
0.000000 0.279663 0.635919
0.150041 0.284502 0.647467
0.259816 0.291139 0.663574
0.363891 0.298909 0.682912
0.469034 0.307153 0.704111
0.576698 0.315554 0.726221
0.686269 0.324591 0.749291
0.800351 0.330419 0.773010
0.083839 0.388934 0.700472
0.082963 0.387815 0.699701
0.164835 0.389442 0.703649
0.281033 0.394893 0.714071
0.387879 0.401834 0.727391
0.493052 0.410075 0.743246
0.599681 0.418711 0.760260
0.708442 0.426960 0.777191
0.821318 0.432026 0.795253
0.146713 0.505166 0.753192
0.146298 0.504227 0.752598
0.159593 0.503174 0.752266
0.288585 0.507767 0.759631
0.401709 0.513492 0.768907
0.510921 0.519923 0.779488
0.619360 0.526551 0.790658
0.727844 0.532843 0.801672
0.838668 0.536546 0.814137
0.201787 0.623209 0.794011
0.201401 0.622453 0.793579
0.200753 0.621183 0.792853
0.287901 0.622553 0.795336
0.409632 0.626373 0.800784
0.522906 0.630607 0.806959
0.632573 0.634858 0.813407
0.740116 0.638728 0.819633
0.847876 0.641082 0.826354
0.255786 0.736209 0.819482
0.255494 0.735613 0.819166
0.255004 0.734611 0.818633
0.277565 0.733621 0.818329
0.408203 0.735605 0.820920
0.525358 0.737737 0.823654
0.636402 0.739899 0.826384
0.744515 0.742388 0.829291
0.852014 0.744793 0.832958
0.308996 0.842562 0.831175
0.308718 0.842062 0.830912
0.308252 0.841221 0.830471
0.307527 0.839913 0.829783
0.401260 0.840421 0.830454
0.523391 0.842194 0.832060
0.637743 0.844323 0.833967
0.748032 0.846783 0.836231
0.855995 0.849528 0.838879
