RedKomodo_Cinematic_Teal_v3.cube
TITLE "Red Komodo X - Cinematic Teal v3"
# v3: balanced - between v1 (soft) and v2 (too dark)
# -0.55 stops exposure, moderate black crush, medium teal, warm skin protected
LUT_3D_SIZE 5
0.000000 0.057386 0.124232
0.051216 0.061647 0.126462
0.255373 0.073704 0.133141
0.314584 0.078313 0.135845
0.606197 0.082961 0.133811
0.000000 0.155770 0.131709
0.074486 0.157847 0.133636
0.100826 0.102319 0.129635
0.380339 0.155326 0.140923
0.636456 0.177433 0.129281
0.000000 0.279453 0.145667
0.103248 0.287288 0.147594
0.280221 0.307913 0.152887
0.475969 0.334961 0.146891
0.697824 0.359818 0.130941
0.140155 0.531679 0.194253
0.219225 0.535103 0.197329
0.370276 0.545434 0.206979
0.549926 0.562819 0.216276
0.759314 0.581746 0.146937
0.258706 0.782446 0.264265
0.316177 0.784050 0.265914
0.448700 0.788971 0.270903
0.618120 0.797434 0.279963
0.804513 0.809066 0.267312
0.000000 0.058781 0.180286
0.055587 0.063193 0.188061
0.255751 0.075193 0.194428
0.323248 0.079874 0.176165
0.608740 0.085263 0.203173
0.000000 0.156535 0.193122
0.076163 0.158548 0.194588
0.118154 0.107622 0.155546
0.384861 0.157494 0.192580
0.638165 0.179266 0.206490
0.000000 0.282350 0.196859
0.106818 0.289890 0.200548
0.282717 0.309875 0.210514
0.477434 0.336416 0.217899
0.699262 0.360674 0.219490
0.141704 0.532913 0.256825
0.220436 0.536301 0.259678
0.371305 0.546527 0.268562
0.550889 0.563705 0.279190
0.760082 0.582303 0.240670
0.259772 0.783023 0.321078
0.317100 0.784614 0.322539
0.449439 0.789499 0.326973
0.618708 0.797900 0.334994
0.804967 0.809432 0.326591
0.000000 0.063810 0.307604
0.064236 0.067910 0.310619
0.000000 0.057954 0.131559
0.346744 0.085314 0.277085
0.616135 0.093442 0.338206
0.000000 0.158827 0.314135
0.000000 0.067636 0.144210
0.157857 0.121905 0.240123
0.397821 0.164346 0.306715
0.643145 0.185555 0.349827
0.000000 0.290921 0.311107
0.117461 0.297656 0.317104
0.290328 0.315875 0.333215
0.481908 0.341156 0.355870
0.701502 0.364752 0.378944
0.146582 0.536784 0.390623
0.224264 0.540059 0.393470
0.374555 0.549964 0.402192
0.553963 0.566515 0.415355
0.762495 0.584048 0.408243
0.263234 0.784842 0.451898
0.320087 0.786396 0.453160
0.451802 0.791166 0.457002
0.620586 0.799368 0.463810
0.806414 0.810600 0.461853
0.000000 0.072367 0.451285
0.075507 0.075956 0.452525
0.111745 0.068748 0.290842
0.379908 0.096147 0.420912
0.627438 0.111799 0.497167
0.000000 0.093247 0.254764
0.000000 0.109060 0.300510
0.203685 0.141757 0.383128
0.418396 0.176285 0.454441
0.650743 0.199197 0.513637
0.000537 0.304791 0.460607
0.135028 0.310417 0.467776
0.303295 0.326154 0.487421
0.490170 0.350190 0.516230
0.703113 0.374440 0.554360
0.155465 0.543758 0.555064
0.231293 0.546840 0.558119
0.380598 0.556165 0.567296
0.559709 0.571706 0.582049
0.762453 0.588876 0.597838
0.269897 0.788165 0.618253
0.325801 0.789650 0.619442
0.456229 0.794213 0.623070
0.624092 0.802040 0.629239
0.809066 0.812714 0.633774
0.000000 0.064393 0.319169
0.000000 0.069472 0.385439
0.202031 0.084696 0.500328
0.417464 0.108904 0.596224
0.641631 0.141212 0.667307
0.000000 0.134722 0.480548
0.045928 0.142855 0.506091
0.246360 0.163142 0.564069
0.445703 0.189835 0.627914
0.660670 0.221816 0.685459
0.045808 0.322236 0.634066
0.157761 0.326794 0.641343
0.320586 0.340069 0.661937
0.504560 0.361880 0.693547
0.706296 0.390075 0.730852
0.168565 0.553757 0.735048
0.241894 0.556563 0.738233
0.389759 0.565061 0.747720
0.568181 0.579306 0.763061
0.762740 0.597617 0.781709
0.280273 0.793023 0.800117
0.334637 0.794410 0.801280
0.462921 0.798671 0.804808
0.629371 0.805920 0.810468
0.813251 0.816108 0.818184
