RedKomodo_KodakFilm_Warm.cube
TITLE "Red Komodo X - Kodak Film Warm"
# Warm amber skin, faded desaturated sky, lifted blacks with film base feel
# Apply AFTER CST (REDWideGamutRGB/Log3G10 > Rec.709) in DaVinci Resolve
LUT_3D_SIZE 9
0.119379 0.071012 0.000000
0.276044 0.079643 0.000000
0.319220 0.082859 0.000000
0.369267 0.086864 0.000000
0.429635 0.091944 0.000875
0.402871 0.089668 0.000000
0.518306 0.099642 0.019446
0.635613 0.108413 0.044418
0.761159 0.105369 0.043136
0.126584 0.179643 0.000000
0.196912 0.168250 0.000000
0.275831 0.153484 0.000000
0.347811 0.143857 0.000000
0.306676 0.109747 0.000000
0.413824 0.122256 0.002065
0.525594 0.133752 0.025638
0.641628 0.142581 0.046938
0.767145 0.141575 0.038486
0.130700 0.229678 0.000000
0.173937 0.226740 0.000000
0.244852 0.221059 0.000713
0.247471 0.161350 0.000000
0.335164 0.174965 0.000000
0.434650 0.187804 0.017770
0.541180 0.199440 0.040151
0.656048 0.207580 0.048260
0.781928 0.209182 0.020473
0.131623 0.240873 0.000000
0.155556 0.243104 0.000558
0.206214 0.248286 0.005498
0.277716 0.256130 0.014312
0.363294 0.265610 0.027618
0.458912 0.275805 0.044139
0.563928 0.285492 0.050447
0.679721 0.292946 0.029935
0.805733 0.295982 0.000000
0.140397 0.353370 0.040953
0.168293 0.354607 0.042815
0.224475 0.357635 0.047226
0.299866 0.362670 0.053826
0.387304 0.369549 0.060025
0.484545 0.377830 0.057775
0.593174 0.386150 0.015216
0.710094 0.392785 0.000000
0.832540 0.397081 0.000000
0.155535 0.470434 0.088067
0.184560 0.471463 0.088353
0.242942 0.474058 0.088406
0.320837 0.478523 0.085508
0.410768 0.484758 0.071384
0.510815 0.492042 0.013107
0.621639 0.498637 0.000000
0.735490 0.504616 0.000000
0.851473 0.510534 0.000000
0.186713 0.593590 0.135527
0.212157 0.594553 0.132865
0.265843 0.596945 0.125172
0.340809 0.600964 0.107945
0.429970 0.606350 0.069945
0.529942 0.612483 0.000000
0.639256 0.618008 0.000000
0.751925 0.622508 0.000000
0.866066 0.626691 0.000000
0.221219 0.717319 0.182971
0.243048 0.718144 0.179374
0.291072 0.720180 0.169523
0.360811 0.723581 0.148937
0.445684 0.728148 0.106480
0.542006 0.733340 0.000000
0.649171 0.737488 0.000000
0.761436 0.740034 0.000000
0.875219 0.742695 0.000000
0.251078 0.836979 0.236772
0.269717 0.837693 0.232519
0.312079 0.839477 0.220916
0.375925 0.842537 0.196867
0.456010 0.846846 0.148210
0.548989 0.852165 0.000000
0.656993 0.856535 0.000000
0.773230 0.859763 0.000000
0.891090 0.863941 0.000000
0.121259 0.073977 0.226749
0.258062 0.080154 0.192013
0.313126 0.083130 0.121289
0.366831 0.087088 0.092531
0.428510 0.092133 0.083393
0.403910 0.089918 0.047947
0.518978 0.099850 0.073294
0.636147 0.108492 0.092736
0.761684 0.105186 0.096246
0.126756 0.175929 0.126376
0.194793 0.165896 0.114193
0.273701 0.152506 0.097403
0.346451 0.143549 0.086220
0.307900 0.110179 0.028640
0.414687 0.122564 0.055824
0.526189 0.133979 0.078452
0.642141 0.142665 0.094959
0.767662 0.141460 0.094496
0.130820 0.228815 0.086217
0.173701 0.226008 0.085116
0.244364 0.220561 0.083436
0.248319 0.162004 0.032829
0.335911 0.175422 0.052787
0.435235 0.188119 0.071821
0.541658 0.199660 0.089365
0.656524 0.207668 0.097575
0.782419 0.209139 0.086600
0.131763 0.241503 0.051570
0.155780 0.243700 0.054007
0.206547 0.248812 0.059738
0.278108 0.256561 0.068665
0.363688 0.265950 0.080018
0.459287 0.276073 0.092226
0.564275 0.285705 0.098881
0.680156 0.293049 0.090940
0.806150 0.295974 0.054544
0.140503 0.353713 0.089749
0.168429 0.354942 0.091065
0.224657 0.357951 0.094257
0.300088 0.362959 0.099275
0.387544 0.369809 0.104626
0.484778 0.378068 0.105371
0.593344 0.386370 0.085549
0.710424 0.392873 0.041566
0.832794 0.397138 0.000000
0.156252 0.470646 0.126157
0.185184 0.471673 0.126549
0.243431 0.474259 0.127066
0.321206 0.478710 0.125927
0.411024 0.484928 0.118012
0.510939 0.492196 0.089006
0.621825 0.498759 0.000000
0.735641 0.504716 0.000000
0.851612 0.510613 0.000000
0.188921 0.593586 0.167710
0.214045 0.594550 0.165761
0.267236 0.596942 0.160175
0.341739 0.600962 0.148035
0.430517 0.606357 0.123917
0.530184 0.612504 0.067816
0.639347 0.618100 0.000000
0.752010 0.622582 0.000000
0.866141 0.626746 0.000000
0.224230 0.717185 0.210522
0.245705 0.718011 0.207578
0.293119 0.720051 0.199593
0.362238 0.723459 0.183336
0.446593 0.728035 0.152303
0.542502 0.733243 0.083872
0.649201 0.737541 0.000000
0.761466 0.740075 0.000000
0.875273 0.742738 0.000000
0.253896 0.836825 0.259035
0.273197 0.837450 0.256305
0.314899 0.839242 0.246232
0.378016 0.842315 0.225741
0.457460 0.846645 0.186449
0.549916 0.851990 0.096360
0.657061 0.856592 0.000000
0.773312 0.859824 0.000000
0.891181 0.864006 0.000000
0.124798 0.079604 0.406782
0.230306 0.081153 0.316605
0.300419 0.083797 0.238902
0.361223 0.087648 0.197201
0.296820 0.081725 0.096784
0.406476 0.090550 0.124862
0.520653 0.100374 0.146731
0.637496 0.108676 0.163991
0.763018 0.104703 0.172124
0.127176 0.168421 0.245431
0.190347 0.160946 0.229480
0.268899 0.150341 0.205172
0.343241 0.142849 0.185181
0.310937 0.111265 0.107803
0.416823 0.123337 0.131655
0.527676 0.134550 0.151152
0.643439 0.142864 0.166395
0.768974 0.141154 0.172173
0.131121 0.226791 0.185174
0.173156 0.224286 0.182582
0.183100 0.152484 0.096446
0.250416 0.163625 0.111779
0.337759 0.176558 0.129032
0.436694 0.188909 0.145465
0.542858 0.200215 0.160672
0.657730 0.207884 0.170625
0.783664 0.209016 0.170540
0.132117 0.243063 0.127982
0.156340 0.245181 0.130086
0.207376 0.250118 0.135039
0.279085 0.257638 0.142748
0.364675 0.266806 0.152490
0.460228 0.276748 0.163174
0.565143 0.286251 0.171384
0.681260 0.293307 0.171628
0.807203 0.295946 0.160677
0.140770 0.354578 0.160777
0.168781 0.355785 0.161914
0.225125 0.358747 0.164675
0.300651 0.363687 0.169160
0.388153 0.370467 0.174580
0.485360 0.378676 0.178234
0.593759 0.386937 0.172351
0.711257 0.393092 0.157175
0.833431 0.397286 0.138648
0.157404 0.471263 0.191332
0.186726 0.472218 0.192342
0.244719 0.474767 0.193554
0.322172 0.479184 0.194287
0.411690 0.485361 0.191845
0.511257 0.492594 0.179838
0.621954 0.499120 0.144878
0.736022 0.504972 0.136007
0.851965 0.510813 0.135570
0.191196 0.593921 0.226280
0.218075 0.594637 0.227098
0.270802 0.596939 0.224767
0.344126 0.600966 0.218104
0.431925 0.606385 0.205345
0.530812 0.612569 0.180900
0.639577 0.618333 0.135537
0.752225 0.622767 0.136318
0.866328 0.626883 0.138518
0.226451 0.717366 0.262293
0.250675 0.717866 0.263020
0.298298 0.719729 0.259259
0.365869 0.723154 0.248634
0.448919 0.727758 0.229562
0.543776 0.733004 0.195324
0.649275 0.737675 0.140800
0.761544 0.740177 0.143199
0.875412 0.742848 0.141566
0.254246 0.837048 0.302032
0.276639 0.837366 0.302603
0.321988 0.838653 0.299620
0.383308 0.841761 0.284573
0.461149 0.846140 0.257377
0.552289 0.851553 0.206930
0.657234 0.856738 0.125175
0.773521 0.859981 0.106678
0.891412 0.864173 0.073444
0.125952 0.081463 0.452447
0.206459 0.082549 0.401005
0.284384 0.084928 0.337720
0.352924 0.088622 0.293950
0.302421 0.082900 0.171926
0.410793 0.091659 0.202460
0.523529 0.101300 0.225412
0.639873 0.108947 0.243566
0.765385 0.103773 0.255853
0.127878 0.159442 0.343867
0.184727 0.154674 0.328543
0.262049 0.147374 0.303009
0.338289 0.141848 0.279400
0.316049 0.113139 0.184247
0.420439 0.124674 0.209653
0.530242 0.135550 0.229959
0.645730 0.143170 0.246406
0.771301 0.140563 0.257067
0.131643 0.223705 0.279391
0.172352 0.221637 0.276063
0.185748 0.155599 0.171485
0.253940 0.166368 0.188514
0.340883 0.178495 0.206880
0.439199 0.190277 0.224102
0.544942 0.201189 0.239831
0.659866 0.208233 0.252280
0.785864 0.208753 0.258987
0.132731 0.245706 0.205769
0.157301 0.247693 0.207995
0.208796 0.252345 0.213218
0.280760 0.259488 0.221282
0.366383 0.268289 0.231327
0.461858 0.277935 0.242391
0.566632 0.287240 0.252646
0.683215 0.293745 0.258317
0.809054 0.295876 0.258066
0.141224 0.356089 0.239713
0.169372 0.357262 0.240853
0.225955 0.360138 0.243669
0.301659 0.364963 0.248326
0.389228 0.371632 0.254398
0.486371 0.379771 0.260446
0.594434 0.387976 0.262276
0.712717 0.393466 0.257214
0.834526 0.397557 0.252711
0.158573 0.472461 0.268904
0.187820 0.473403 0.269810
0.246603 0.475756 0.272085
0.323991 0.480020 0.274726
0.412926 0.486137 0.275944
0.511835 0.493325 0.272791
0.621690 0.499871 0.259661
0.736695 0.505421 0.253794
0.852584 0.511164 0.256060
0.192226 0.594820 0.299818
0.219028 0.595529 0.300533
0.274893 0.597307 0.302337
0.348446 0.601002 0.301484
0.434497 0.606466 0.295668
0.531980 0.612718 0.284244
0.639681 0.618628 0.262635
0.752601 0.623092 0.258744
0.866657 0.627122 0.261464
0.227194 0.717993 0.331035
0.251364 0.718487 0.331656
0.303403 0.719724 0.333233
0.372348 0.722639 0.330494
0.453111 0.727292 0.319610
0.546101 0.732609 0.301014
0.649707 0.737680 0.269022
0.761680 0.740357 0.265712
0.875664 0.743045 0.265459
0.254889 0.837447 0.364571
0.277254 0.837766 0.365046
0.326486 0.838583 0.366218
0.392646 0.840803 0.362570
0.467728 0.845272 0.344848
0.556558 0.850805 0.314541
0.657783 0.856906 0.260411
0.773898 0.860261 0.251057
0.891825 0.864470 0.240090
0.127158 0.083423 0.497268
0.190518 0.084347 0.467776
0.269092 0.086528 0.422332
0.343375 0.090032 0.383448
0.310806 0.084730 0.250004
0.416731 0.093284 0.282445
0.527612 0.102672 0.306973
0.643269 0.109464 0.326934
0.768916 0.102212 0.343078
0.128857 0.151514 0.427259
0.179447 0.148799 0.414748
0.254544 0.144353 0.392093
0.332268 0.140797 0.368777
0.323011 0.115798 0.263170
0.425462 0.126591 0.290111
0.533930 0.136988 0.311839
0.648998 0.143730 0.330297
0.774775 0.139571 0.345194
0.132392 0.220033 0.368768
0.145157 0.153925 0.237138
0.189808 0.160360 0.249517
0.258754 0.170157 0.267673
0.345212 0.181218 0.287153
0.442750 0.192245 0.305572
0.547939 0.202633 0.322561
0.662976 0.208759 0.337785
0.789126 0.208250 0.349648
0.133618 0.249383 0.285968
0.158663 0.251200 0.288341
0.210996 0.255453 0.293716
0.283125 0.262272 0.301309
0.368305 0.270692 0.312985
0.464200 0.279688 0.325273
0.568730 0.288777 0.337579
0.686113 0.294329 0.347750
0.811771 0.295728 0.354264
0.194802 0.351811 0.319414
0.216472 0.352847 0.320919
0.258075 0.356505 0.325197
0.306155 0.366108 0.331705
0.390827 0.373374 0.338267
0.487827 0.381459 0.346286
0.595297 0.389621 0.353238
0.714849 0.393992 0.354886
0.836075 0.397987 0.357335
0.181630 0.472110 0.354994
0.192774 0.474783 0.353648
0.248111 0.477464 0.355334
0.326259 0.481433 0.359167
0.414915 0.487321 0.363416
0.512739 0.494482 0.365775
0.621272 0.501106 0.363628
0.737689 0.506083 0.360199
0.853494 0.511679 0.364091
0.193767 0.596155 0.381813
0.220455 0.596853 0.382483
0.276168 0.598604 0.384170
0.352521 0.601637 0.387117
0.438511 0.606667 0.387837
0.533855 0.613028 0.383911
0.639732 0.619084 0.374935
0.753151 0.623569 0.368065
0.867138 0.627473 0.371395
0.228293 0.718923 0.410471
0.252383 0.719408 0.411025
0.304298 0.720624 0.412430
0.377519 0.722722 0.414913
0.459523 0.726662 0.413208
0.549719 0.732090 0.403637
0.651010 0.737315 0.387112
0.761887 0.740624 0.375962
0.876053 0.743346 0.376364
0.255900 0.838051 0.439576
0.278220 0.838372 0.439977
0.327382 0.839194 0.440970
0.398341 0.840676 0.442640
0.477627 0.844044 0.438168
0.563070 0.849759 0.419693
0.661480 0.856087 0.388833
0.774471 0.860685 0.368589
0.892445 0.864920 0.362740
0.128562 0.085735 0.547144
0.180796 0.086567 0.529608
0.256585 0.088580 0.498428
0.333974 0.091868 0.466950
0.320950 0.087214 0.332908
0.423955 0.095438 0.365520
0.531250 0.107697 0.390199
0.647508 0.110649 0.412916
0.773705 0.099757 0.432884
0.130091 0.145703 0.502079
0.175323 0.144293 0.492668
0.247560 0.141887 0.474386
0.243093 0.109574 0.314067
0.331296 0.119146 0.346021
0.430902 0.130154 0.372763
0.537333 0.140993 0.395535
0.652937 0.145123 0.416785
0.779484 0.138008 0.435768
0.127329 0.157998 0.314080
0.148142 0.160475 0.319669
0.194834 0.166250 0.332421
0.264535 0.174781 0.350533
0.350358 0.184800 0.370103
0.439983 0.201706 0.383524
0.551713 0.204688 0.407803
0.666155 0.210619 0.425804
0.793499 0.207360 0.442257
0.135026 0.253917 0.368988
0.160890 0.255528 0.371194
0.214263 0.259409 0.375905
0.286459 0.266113 0.381682
0.365761 0.277609 0.386221
0.452242 0.291640 0.399556
0.571325 0.291034 0.424694
0.688226 0.296501 0.439297
0.815359 0.295453 0.450928
0.208836 0.354590 0.388744
0.229095 0.355752 0.389125
0.272234 0.358977 0.390231
0.330370 0.365821 0.392977
0.391992 0.378428 0.403651
0.488612 0.384393 0.433325
0.596194 0.392074 0.444440
0.715816 0.395759 0.452957
0.838004 0.398638 0.459363
0.356918 0.448658 0.427164
0.364278 0.450744 0.429342
0.382223 0.456045 0.434841
0.384971 0.471946 0.444935
0.419319 0.488654 0.451725
0.514076 0.496209 0.457708
0.620695 0.503022 0.462532
0.738188 0.507307 0.463939
0.854701 0.512360 0.468461
0.292021 0.587457 0.478801
0.284835 0.591521 0.476593
0.289402 0.598853 0.472579
0.354107 0.603321 0.473593
0.442334 0.607594 0.477762
0.536655 0.613623 0.480360
0.639961 0.619889 0.479282
0.753816 0.624214 0.473604
0.867770 0.627936 0.477377
0.229768 0.720173 0.495941
0.253751 0.720647 0.496457
0.305499 0.721833 0.497762
0.378574 0.723882 0.500056
0.464525 0.726809 0.503429
0.554916 0.731529 0.503003
0.653006 0.736972 0.495743
0.762188 0.740988 0.482351
0.876604 0.743765 0.483229
0.257371 0.838885 0.522104
0.279620 0.839209 0.522454
0.328672 0.840038 0.523323
0.399546 0.841532 0.524795
0.484347 0.843821 0.526835
0.572167 0.848478 0.521752
0.666758 0.855121 0.503976
0.775271 0.861273 0.479147
0.893295 0.865540 0.475976
0.130172 0.088434 0.602576
0.175118 0.089192 0.591712
0.247176 0.091043 0.570496
0.243681 0.083874 0.384031
0.331819 0.090304 0.420662
0.431223 0.099884 0.450899
0.519332 0.144515 0.460795
0.629973 0.159551 0.487583
0.779804 0.096032 0.525240
0.131541 0.142022 0.573116
0.172496 0.141373 0.566285
0.185204 0.107704 0.374806
0.253265 0.114581 0.403119
0.340282 0.123037 0.433021
0.435871 0.136709 0.456241
0.517078 0.181954 0.459853
0.636808 0.183120 0.493206
0.785431 0.135435 0.528781
0.129282 0.165846 0.403132
0.151671 0.167926 0.408356
0.200358 0.172745 0.420208
0.270890 0.179974 0.437336
0.355512 0.189927 0.454371
0.440601 0.210961 0.460852
0.507547 0.256407 0.454813
0.656903 0.230053 0.508393
0.798974 0.205884 0.536991
0.138816 0.259127 0.453551
0.165301 0.260605 0.455154
0.219274 0.264345 0.458238
0.291011 0.271411 0.460731
0.368278 0.284524 0.459299
0.438293 0.309390 0.452930
0.508966 0.340482 0.462625
0.689031 0.301022 0.530815
0.819752 0.295009 0.548787
0.227989 0.358722 0.454769
0.246421 0.360091 0.454043
0.286212 0.363893 0.452291
0.340507 0.371841 0.449948
0.398555 0.386370 0.449984
0.455983 0.408612 0.460614
0.571724 0.409999 0.518048
0.714113 0.400047 0.549256
0.840217 0.399579 0.560629
0.364915 0.455615 0.471829
0.372150 0.457666 0.473864
0.389977 0.462838 0.478996
0.419946 0.471904 0.487986
0.461492 0.485188 0.501144
0.514417 0.501066 0.530889
0.619880 0.505959 0.557025
0.735074 0.510715 0.565562
0.856193 0.513201 0.571512
0.447548 0.565621 0.543637
0.453672 0.567272 0.545345
0.468884 0.571443 0.549659
0.484046 0.581304 0.557786
0.484588 0.600991 0.567750
0.540098 0.614856 0.572735
0.640543 0.621244 0.577750
0.751423 0.625978 0.580266
0.868544 0.628503 0.581779
0.411373 0.700553 0.601659
0.401973 0.704515 0.600157
0.385641 0.713273 0.596287
0.392264 0.723522 0.591134
0.465716 0.728181 0.592188
0.559264 0.731799 0.596366
0.655944 0.736807 0.597613
0.761719 0.741292 0.593182
0.877348 0.744318 0.588397
0.259409 0.839976 0.609274
0.281555 0.840303 0.609591
0.330443 0.841140 0.610379
0.401181 0.842650 0.611724
0.485909 0.844963 0.613613
0.579415 0.848215 0.615972
0.673929 0.854142 0.610941
0.777808 0.861143 0.595204
0.894392 0.866347 0.585517
0.131943 0.091482 0.662804
0.171959 0.092171 0.655807
0.187378 0.083517 0.450021
0.255906 0.087868 0.480544
0.342641 0.093914 0.512594
0.436946 0.110240 0.535665
0.516042 0.168243 0.532559
0.559631 0.263258 0.507697
0.710628 0.246495 0.572847
0.126998 0.108693 0.447175
0.147508 0.110265 0.454800
0.193808 0.114061 0.472320
0.263358 0.119991 0.497093
0.349341 0.127541 0.523579
0.439359 0.148543 0.537722
0.512425 0.204007 0.527996
0.552816 0.289985 0.503237
0.724020 0.254673 0.582535
0.131533 0.173837 0.497104
0.155413 0.175512 0.501672
0.206001 0.179441 0.512186
0.277417 0.185801 0.527010
0.360195 0.197819 0.537186
0.440485 0.224470 0.533606
0.501483 0.275884 0.513726
0.543451 0.343170 0.499063
0.755441 0.276748 0.604734
0.147522 0.265276 0.536876
0.173835 0.266784 0.537444
0.227268 0.270802 0.537860
0.297496 0.278962 0.535455
0.371831 0.294585 0.526353
0.438277 0.322789 0.509708
0.492627 0.364150 0.498357
0.572815 0.396602 0.529108
0.800585 0.322016 0.635224
0.252565 0.364899 0.514243
0.268814 0.366567 0.512453
0.304424 0.371142 0.508113
0.353796 0.380399 0.501792
0.407690 0.396248 0.498398
0.464418 0.417830 0.511112
0.529138 0.443398 0.534221
0.642479 0.451059 0.591037
0.837801 0.404931 0.659717
0.374650 0.464100 0.521746
0.381740 0.466109 0.523651
0.399227 0.471177 0.528458
0.428680 0.480065 0.536881
0.469604 0.493100 0.549218
0.520638 0.510360 0.565534
0.582975 0.530255 0.590178
0.713594 0.525152 0.649752
0.854860 0.516064 0.673389
0.455639 0.572462 0.589110
0.461667 0.574085 0.590714
0.476650 0.578188 0.594768
0.502209 0.585403 0.601894
0.538275 0.596023 0.612377
0.581963 0.610459 0.628208
0.640218 0.624945 0.660739
0.748771 0.628705 0.679149
0.867350 0.630092 0.685642
0.538101 0.682395 0.659787
0.543184 0.683673 0.661147
0.555880 0.686904 0.664588
0.576683 0.692824 0.670719
0.578082 0.708199 0.680573
0.587442 0.727352 0.688658
0.658888 0.737425 0.692282
0.761635 0.742175 0.695507
0.877218 0.745341 0.693769
0.524318 0.809123 0.719817
0.516419 0.812577 0.718947
0.498367 0.820897 0.716374
0.479854 0.833293 0.711269
0.497473 0.844845 0.705365
0.581391 0.849691 0.705891
0.680801 0.854083 0.708646
0.782031 0.860980 0.704938
0.895746 0.867359 0.693378
0.128095 0.084962 0.530768
0.149565 0.085926 0.538475
0.197094 0.088331 0.555899
0.267129 0.092391 0.580651
0.352533 0.099592 0.606465
0.440152 0.130014 0.615449
0.510016 0.199621 0.595210
0.548763 0.293500 0.554877
0.610783 0.359068 0.563690
0.129908 0.116123 0.553560
0.152742 0.117441 0.559782
0.201991 0.120581 0.573930
0.272783 0.125543 0.594487
0.356927 0.136331 0.612687
0.440687 0.168268 0.612872
0.505654 0.232718 0.586566
0.544492 0.316464 0.549503
0.616567 0.371222 0.569681
0.133950 0.181549 0.594496
0.159207 0.182914 0.598326
0.211881 0.186533 0.606193
0.284064 0.194170 0.614186
0.364384 0.210486 0.614199
0.439372 0.244033 0.597408
0.495581 0.299765 0.563806
0.545935 0.360195 0.549367
0.630825 0.400702 0.584453
0.164288 0.273319 0.614608
0.189132 0.275091 0.613719
0.240107 0.279953 0.610466
0.307121 0.290050 0.601678
0.377319 0.308890 0.583688
0.440049 0.340045 0.558162
0.497815 0.379042 0.548485
0.572186 0.413104 0.576020
0.656908 0.447722 0.610968
0.281989 0.374034 0.564557
0.295806 0.376058 0.561981
0.326540 0.381487 0.556028
0.369988 0.391946 0.548528
0.419096 0.408238 0.548745
0.474469 0.428636 0.566021
0.538222 0.453584 0.587709
0.608706 0.482734 0.612970
0.713180 0.499699 0.662569
0.386118 0.474116 0.575999
0.393041 0.476077 0.577787
0.410140 0.481026 0.582299
0.439002 0.489713 0.590206
0.479206 0.502462 0.601790
0.529462 0.519359 0.617112
0.588168 0.540285 0.636043
0.653701 0.564936 0.658298
0.788743 0.559746 0.727474
0.465213 0.580571 0.639247
0.471130 0.582162 0.640753
0.485847 0.586184 0.644557
0.510983 0.593260 0.651245
0.546479 0.603669 0.661094
0.591350 0.617479 0.674254
0.644229 0.634588 0.690695
0.714508 0.649384 0.725687
0.848656 0.641090 0.776921
0.545712 0.688781 0.705659
0.550715 0.690034 0.706935
0.563218 0.693202 0.710163
0.584744 0.698777 0.715851
0.615484 0.706990 0.724244
0.654905 0.717930 0.735440
0.693497 0.733157 0.757109
0.761132 0.744923 0.784201
0.873464 0.748254 0.795846
0.625122 0.795356 0.772370
0.629557 0.796412 0.773400
0.640710 0.799101 0.776008
0.660133 0.803900 0.780608
0.675596 0.814081 0.788074
0.673050 0.833470 0.797200
0.700053 0.852034 0.802276
0.787058 0.861679 0.804443
0.895864 0.868683 0.804650
