RedKomodo_Cinematic_Teal.cube
TITLE "Red Komodo X - Cinematic Teal Shadow"
# Apply AFTER Color Space Transform (REDWideGamutRGB/Log3G10 > Rec.709) in DaVinci Resolve
LUT_3D_SIZE 33
0.000000 0.036213 0.091980
0.000000 0.036226 0.091986
0.000000 0.036278 0.092014
0.000000 0.036435 0.092098
0.000000 0.036813 0.092301
0.000000 0.037598 0.092719
0.021617 0.039057 0.093490
0.045625 0.039862 0.093912
0.078237 0.041298 0.094668
0.106940 0.042991 0.095573
0.133865 0.044950 0.096631
0.159869 0.047169 0.097846
0.185381 0.049644 0.099218
0.210649 0.052365 0.100745
0.235827 0.055318 0.102424
0.261019 0.058492 0.104251
0.286300 0.061872 0.106218
0.311724 0.065443 0.108320
0.337334 0.069194 0.110547
0.363167 0.073111 0.112894
0.389248 0.077183 0.115353
0.415604 0.081404 0.117920
0.442253 0.085767 0.120593
0.469211 0.090270 0.123376
0.496493 0.094917 0.126277
0.524108 0.099714 0.129314
0.552062 0.104675 0.132512
0.580358 0.109820 0.135911
0.608995 0.115178 0.139565
0.637969 0.120785 0.143548
0.667267 0.126690 0.147951
0.696877 0.132952 0.152889
0.726776 0.139638 0.158500
0.000000 0.037884 0.092073
0.000000 0.038556 0.092144
0.000000 0.039393 0.092252
0.000000 0.040725 0.092457
0.000000 0.042701 0.092831
0.000000 0.045517 0.093476
0.017772 0.045780 0.093800
0.052048 0.047322 0.094438
0.082746 0.049047 0.095213
0.110462 0.050964 0.096133
0.136771 0.053081 0.097203
0.162353 0.055401 0.098426
0.187558 0.057927 0.099802
0.212593 0.060654 0.101330
0.237590 0.063578 0.103007
0.262638 0.066692 0.104829
0.287802 0.069988 0.106790
0.313131 0.073457 0.108883
0.338663 0.077091 0.111100
0.364429 0.080881 0.113436
0.390456 0.084819 0.115883
0.416764 0.088902 0.118439
0.443372 0.093125 0.121103
0.470296 0.097488 0.123877
0.497546 0.101996 0.126772
0.525133 0.106656 0.129807
0.553061 0.111482 0.133007
0.581333 0.116496 0.136415
0.609947 0.121724 0.140086
0.638897 0.127205 0.144094
0.668173 0.132986 0.148533
0.697758 0.139123 0.153519
0.727632 0.145687 0.159190
0.000000 0.044707 0.092465
0.000000 0.046168 0.092623
0.000000 0.047868 0.092832
0.000000 0.050378 0.093186
0.000000 0.050928 0.093440
0.000000 0.052320 0.093859
0.024448 0.053876 0.094392
0.057805 0.055589 0.095050
0.087072 0.057460 0.095842
0.113979 0.059494 0.096776
0.139756 0.061695 0.097855
0.164954 0.064067 0.099084
0.189872 0.066611 0.100463
0.214683 0.069328 0.101991
0.239502 0.072217 0.103665
0.264407 0.075272 0.105481
0.289453 0.078491 0.107434
0.314685 0.081867 0.109517
0.340135 0.085396 0.111723
0.365833 0.089072 0.114046
0.391801 0.092890 0.116481
0.418060 0.096848 0.119025
0.444625 0.100943 0.121677
0.471510 0.105178 0.124443
0.498727 0.109558 0.127332
0.526283 0.114091 0.130365
0.554183 0.118792 0.133569
0.582429 0.123681 0.136989
0.611017 0.128788 0.140679
0.639941 0.134149 0.144718
0.669191 0.139810 0.149198
0.698748 0.145828 0.154240
0.728594 0.152273 0.159981
0.000000 0.062123 0.093626
0.000000 0.059247 0.093518
0.000000 0.059969 0.093688
0.000000 0.060939 0.093936
0.000000 0.062144 0.094275
0.003327 0.063558 0.094717
0.032408 0.065157 0.095273
0.064375 0.066925 0.095951
0.092297 0.068851 0.096760
0.118388 0.070931 0.097707
0.143597 0.073161 0.098796
0.168372 0.075543 0.100031
0.192959 0.078076 0.101411
0.217507 0.080759 0.102937
0.242112 0.083593 0.104605
0.266839 0.086575 0.106412
0.291739 0.089703 0.108352
0.316847 0.092974 0.110421
0.342193 0.096386 0.112610
0.367802 0.099935 0.114916
0.393694 0.103619 0.117333
0.419887 0.107437 0.119860
0.446394 0.111390 0.122497
0.473229 0.115480 0.125251
0.500401 0.119715 0.128133
0.527915 0.124103 0.131165
0.555777 0.128660 0.134378
0.583986 0.133407 0.137815
0.612538 0.138373 0.141537
0.641426 0.143593 0.145621
0.670638 0.149115 0.150164
0.700158 0.154993 0.155288
0.729963 0.161291 0.161122
0.000000 0.073311 0.094496
0.000000 0.073898 0.094656
0.000000 0.074537 0.094838
0.000000 0.075414 0.095101
0.000000 0.076528 0.095459
0.011027 0.077864 0.095920
0.041327 0.079401 0.096494
0.071352 0.081122 0.097190
0.098127 0.083011 0.098013
0.123479 0.085058 0.098971
0.148150 0.087255 0.100067
0.172508 0.089596 0.101304
0.196760 0.092079 0.102683
0.221031 0.094702 0.104202
0.245406 0.097461 0.105860
0.269939 0.100356 0.107653
0.294674 0.103385 0.109576
0.319641 0.106547 0.111624
0.344867 0.109838 0.113791
0.370372 0.113259 0.116074
0.396174 0.116809 0.118468
0.422287 0.120488 0.120974
0.448726 0.124298 0.123592
0.475498 0.128243 0.126333
0.502614 0.132331 0.129208
0.530076 0.136573 0.132242
0.557889 0.140984 0.135469
0.586050 0.145586 0.138934
0.614556 0.150407 0.142702
0.643397 0.155484 0.146852
0.672561 0.160861 0.151485
0.702029 0.166595 0.156724
0.731783 0.172719 0.162648
0.000000 0.090615 0.096026
0.000000 0.091119 0.096194
0.000000 0.091676 0.096384
0.000000 0.092450 0.096658
0.000000 0.093450 0.097028
0.019386 0.094669 0.097503
0.050228 0.096093 0.098090
0.078492 0.097709 0.098797
0.104323 0.099502 0.099630
0.129045 0.101460 0.100594
0.153244 0.103573 0.101692
0.177225 0.105833 0.102926
0.201165 0.108233 0.104297
0.225173 0.110769 0.105805
0.249321 0.113438 0.107447
0.273661 0.116236 0.109219
0.298227 0.119162 0.111119
0.323048 0.122213 0.113141
0.348146 0.125388 0.115280
0.373539 0.128688 0.117535
0.399243 0.132112 0.119902
0.425269 0.135661 0.122382
0.451629 0.139338 0.124981
0.478332 0.143150 0.127707
0.505382 0.147104 0.130579
0.532784 0.151211 0.133621
0.560539 0.155487 0.136871
0.588643 0.159955 0.140380
0.617092 0.164643 0.144213
0.645874 0.169587 0.148456
0.674977 0.174831 0.153212
0.704381 0.180429 0.158607
0.734076 0.186356 0.164585
0.000000 0.109843 0.097982
0.000000 0.110280 0.098154
0.000000 0.110766 0.098349
0.000000 0.111448 0.098629
0.002193 0.112338 0.099006
0.028520 0.113436 0.099488
0.058850 0.114734 0.100082
0.085720 0.116224 0.100793
0.110767 0.117895 0.101628
0.134958 0.119737 0.102591
0.158755 0.121738 0.103684
0.182410 0.123891 0.104909
0.206076 0.126187 0.106267
0.229848 0.128620 0.107756
0.253790 0.131186 0.109375
0.277948 0.133881 0.111121
0.302354 0.136701 0.112991
0.327033 0.139645 0.114980
0.352005 0.142711 0.117087
0.377287 0.145898 0.119309
0.402890 0.149208 0.121645
0.428826 0.152642 0.124099
0.455104 0.156203 0.126678
0.481731 0.159898 0.129394
0.508710 0.163734 0.132268
0.536045 0.167725 0.135329
0.563733 0.171887 0.138618
0.591772 0.176241 0.142190
0.620154 0.180816 0.146116
0.648867 0.185647 0.150485
0.677897 0.190779 0.155405
0.707223 0.196261 0.160996
0.736853 0.201965 0.166953
0.000000 0.130548 0.100368
0.000000 0.130931 0.100542
0.000000 0.131359 0.100738
0.000000 0.131963 0.101020
0.010921 0.132758 0.101399
0.038622 0.133746 0.101881
0.067347 0.134926 0.102475
0.093053 0.136292 0.103184
0.117424 0.137838 0.104014
0.141156 0.139555 0.104968
0.164609 0.141436 0.106048
0.187987 0.143471 0.107256
0.211418 0.145653 0.108593
0.234987 0.147976 0.110057
0.258749 0.150434 0.111646
0.282747 0.153024 0.113359
0.307009 0.155740 0.115194
0.331559 0.158580 0.117147
0.356414 0.161544 0.119216
0.381589 0.164629 0.121403
0.407095 0.167838 0.123708
0.432943 0.171170 0.126138
0.459138 0.174632 0.128701
0.485687 0.178228 0.131415
0.512592 0.181968 0.134303
0.539854 0.185864 0.137399
0.567470 0.189933 0.140750
0.595435 0.194197 0.144413
0.623741 0.198683 0.148467
0.652374 0.203428 0.153005
0.681318 0.208475 0.158139
0.710561 0.213821 0.163861
0.740118 0.219307 0.169768
0.000000 0.152431 0.103174
0.000000 0.152772 0.103347
0.000000 0.153153 0.103542
0.000000 0.153694 0.103822
0.020859 0.154409 0.104198
0.049191 0.155304 0.104676
0.075859 0.156379 0.105262
0.100547 0.157633 0.105962
0.124306 0.159062 0.106779
0.147627 0.160661 0.107717
0.170775 0.162422 0.108778
0.193913 0.164341 0.109962
0.217145 0.166410 0.111270
0.240541 0.168623 0.112702
0.264151 0.170974 0.114257
0.288012 0.173460 0.115932
0.312150 0.176076 0.117727
0.336586 0.178819 0.119641
0.361337 0.181687 0.121673
0.386416 0.184681 0.123825
0.411833 0.187800 0.126103
0.437596 0.191046 0.128514
0.463712 0.194423 0.131072
0.490183 0.197939 0.133798
0.517012 0.201601 0.136719
0.544198 0.205423 0.139875
0.571736 0.209422 0.143317
0.599621 0.213619 0.147111
0.627841 0.218044 0.151339
0.656383 0.222730 0.156099
0.685230 0.227714 0.161490
0.714392 0.232881 0.167192
0.743863 0.238168 0.173042
0.000000 0.175301 0.106377
0.000000 0.175607 0.106547
0.000000 0.175952 0.106739
0.008680 0.176442 0.107014
0.032251 0.177091 0.107382
0.059540 0.177907 0.107851
0.084503 0.178893 0.108425
0.108264 0.180050 0.109110
0.131450 0.181375 0.109909
0.154383 0.182867 0.110824
0.177251 0.184520 0.111859
0.200174 0.186329 0.113013
0.223231 0.188291 0.114289
0.246480 0.190399 0.115684
0.269962 0.192649 0.117200
0.293708 0.195037 0.118835
0.317741 0.197558 0.120590
0.342082 0.200211 0.122464
0.366743 0.202994 0.124462
0.391738 0.205905 0.126586
0.417075 0.208945 0.128845
0.442760 0.212118 0.131251
0.468800 0.215426 0.133821
0.495196 0.218877 0.136581
0.521949 0.222480 0.139564
0.549055 0.226248 0.142815
0.576511 0.230198 0.146392
0.604308 0.234353 0.150367
0.632433 0.238740 0.154826
0.660872 0.243394 0.159876
0.689626 0.248266 0.165359
0.718700 0.253258 0.170997
0.748077 0.258365 0.176779
0.000000 0.199034 0.109946
0.000000 0.199313 0.110112
0.002471 0.199628 0.110299
0.020698 0.200077 0.110566
0.045111 0.200673 0.110925
0.069880 0.201425 0.111380
0.093370 0.202336 0.111939
0.116265 0.203410 0.112604
0.138897 0.204646 0.113380
0.161453 0.206044 0.114269
0.184051 0.207600 0.115273
0.206772 0.209313 0.116395
0.229670 0.211177 0.117634
0.252789 0.213189 0.118991
0.276161 0.215346 0.120468
0.299810 0.217644 0.122065
0.323757 0.220080 0.123783
0.348016 0.222651 0.125625
0.372602 0.225356 0.127597
0.397524 0.228195 0.129706
0.422790 0.231168 0.131964
0.448405 0.234279 0.134386
0.474373 0.237531 0.136995
0.500696 0.240933 0.139823
0.527372 0.244493 0.142908
0.554397 0.248225 0.146303
0.581764 0.252147 0.150071
0.609465 0.256281 0.154291
0.637486 0.260655 0.159056
0.665822 0.265250 0.164300
0.694488 0.269969 0.169713
0.723466 0.274803 0.175278
0.752737 0.279743 0.180984
0.000000 0.223556 0.113848
0.002436 0.223814 0.114008
0.015657 0.224105 0.114189
0.034701 0.224520 0.114447
0.057830 0.225073 0.114794
0.080342 0.225772 0.115235
0.102526 0.226622 0.115775
0.124600 0.227627 0.116419
0.146686 0.228788 0.117170
0.168865 0.230105 0.118031
0.191195 0.231578 0.119005
0.213717 0.233205 0.120093
0.236464 0.234984 0.121298
0.259463 0.236911 0.122621
0.282736 0.238985 0.124064
0.306301 0.241203 0.125629
0.330173 0.243562 0.127321
0.354365 0.246061 0.129145
0.378886 0.248698 0.131110
0.403744 0.251475 0.133225
0.428946 0.254393 0.135509
0.454497 0.257454 0.137981
0.480397 0.260664 0.140670
0.506647 0.264030 0.143612
0.533244 0.267563 0.146855
0.560183 0.271277 0.150457
0.587456 0.275190 0.154488
0.615052 0.279324 0.159033
0.642968 0.283665 0.164038
0.671218 0.288129 0.169216
0.699787 0.292706 0.174550
0.728660 0.297391 0.180033
0.757815 0.302174 0.185655
0.005145 0.248825 0.118053
0.017299 0.249066 0.118208
0.031094 0.249338 0.118383
0.050086 0.249726 0.118633
0.070327 0.250245 0.118968
0.091009 0.250901 0.119394
0.112019 0.251700 0.119916
0.133305 0.252648 0.120539
0.154849 0.253745 0.121267
0.176646 0.254995 0.122103
0.198701 0.256397 0.123050
0.221020 0.257951 0.124110
0.243616 0.259656 0.125288
0.266498 0.261510 0.126585
0.289678 0.263512 0.128006
0.313166 0.265660 0.129556
0.336970 0.267953 0.131241
0.361101 0.270390 0.133070
0.385564 0.272971 0.135055
0.410365 0.275697 0.137213
0.435509 0.278569 0.139562
0.460996 0.281593 0.142132
0.486829 0.284774 0.144956
0.513005 0.288119 0.148077
0.539520 0.291641 0.151550
0.566366 0.295354 0.155440
0.593536 0.299276 0.159823
0.621032 0.303378 0.164590
0.648865 0.307600 0.169524
0.677023 0.311936 0.174618
0.705489 0.316379 0.179864
0.734246 0.320921 0.185256
0.763272 0.325553 0.190784
0.022003 0.274822 0.122554
0.034667 0.275050 0.122704
0.048421 0.275306 0.122873
0.064747 0.275673 0.123116
0.082773 0.276163 0.123441
0.101926 0.276784 0.123855
0.121869 0.277542 0.124363
0.142400 0.278443 0.124970
0.163404 0.279489 0.125680
0.184810 0.280682 0.126498
0.206579 0.282025 0.127428
0.228688 0.283518 0.128472
0.251126 0.285161 0.129637
0.273887 0.286953 0.130927
0.296973 0.288894 0.132348
0.320384 0.290984 0.133908
0.344124 0.293222 0.135616
0.368196 0.295608 0.137487
0.392603 0.298143 0.139535
0.417349 0.300829 0.141783
0.442433 0.303669 0.144256
0.467858 0.306668 0.146988
0.493620 0.309833 0.150020
0.519717 0.313172 0.153402
0.546142 0.316698 0.157195
0.572889 0.320422 0.161453
0.599972 0.324292 0.165966
0.627392 0.328281 0.170648
0.655138 0.332385 0.175493
0.683196 0.336595 0.180495
0.711550 0.340905 0.185645
0.740180 0.345305 0.190938
0.769064 0.349787 0.196362
0.041563 0.301543 0.127374
0.053295 0.301760 0.127520
0.064748 0.302004 0.127687
0.078935 0.302353 0.127925
0.095254 0.302820 0.128244
0.113105 0.303413 0.128652
0.132073 0.304138 0.129153
0.151881 0.305001 0.129754
0.172347 0.306004 0.130458
0.193355 0.307153 0.131272
0.214826 0.308447 0.132201
0.236712 0.309890 0.133250
0.258981 0.311482 0.134426
0.281614 0.313224 0.135736
0.304599 0.315115 0.137190
0.327929 0.317158 0.138799
0.351600 0.319352 0.140576
0.375610 0.321698 0.142539
0.399959 0.324200 0.144710
0.424645 0.326858 0.147114
0.449667 0.329679 0.149785
0.475023 0.332666 0.152763
0.500708 0.335829 0.156095
0.526716 0.339178 0.159839
0.553055 0.342692 0.163916
0.579735 0.346333 0.168170
0.606750 0.350095 0.172594
0.634089 0.353970 0.177183
0.661740 0.357953 0.181931
0.689690 0.362036 0.186832
0.717920 0.366210 0.191878
0.746411 0.370466 0.197061
0.775139 0.374794 0.202373
0.060618 0.328996 0.132592
0.070330 0.329203 0.132739
0.080202 0.329438 0.132906
0.092840 0.329773 0.133145
0.107793 0.330222 0.133467
0.124521 0.330793 0.133878
0.142598 0.331491 0.134385
0.161715 0.332324 0.134994
0.181650 0.333294 0.135711
0.202252 0.334405 0.136543
0.223413 0.335662 0.137497
0.245063 0.337065 0.138581
0.267151 0.338616 0.139803
0.289643 0.340318 0.141175
0.312517 0.342172 0.142709
0.335756 0.344179 0.144420
0.359349 0.346341 0.146327
0.383290 0.348661 0.148451
0.407572 0.351141 0.150821
0.432191 0.353786 0.153467
0.457141 0.356600 0.156430
0.482417 0.359591 0.159756
0.508024 0.362745 0.163392
0.533974 0.366032 0.167207
0.560262 0.369445 0.171198
0.586880 0.372980 0.175359
0.613820 0.376629 0.179687
0.641070 0.380386 0.184176
0.668619 0.384243 0.188820
0.696449 0.388192 0.193611
0.724544 0.392223 0.198543
0.752882 0.396328 0.203608
0.781438 0.400495 0.208796
0.077906 0.357196 0.138372
0.086313 0.357397 0.138525
0.095067 0.357624 0.138698
0.106522 0.357948 0.138947
0.120356 0.358384 0.139282
0.136108 0.358937 0.139711
0.153374 0.359615 0.140241
0.171835 0.360424 0.140881
0.191250 0.361368 0.141637
0.211442 0.362452 0.142518
0.232284 0.363679 0.143534
0.253684 0.365052 0.144695
0.275576 0.366574 0.146013
0.297913 0.368247 0.147502
0.320662 0.370075 0.149178
0.343797 0.372058 0.151062
0.367301 0.374201 0.153176
0.391159 0.376507 0.155548
0.415362 0.378979 0.158211
0.439901 0.381621 0.161191
0.464786 0.384411 0.164386
0.490017 0.387337 0.167761
0.515587 0.390395 0.171312
0.541491 0.393580 0.175038
0.567722 0.396886 0.178935
0.594271 0.400307 0.182998
0.621127 0.403837 0.187222
0.648280 0.407467 0.191603
0.675714 0.411189 0.196133
0.703413 0.414995 0.200807
0.731358 0.418875 0.205616
0.759526 0.422818 0.210552
0.787893 0.426813 0.215606
0.094019 0.386169 0.144992
0.101504 0.386364 0.145158
0.109422 0.386586 0.145345
0.119945 0.386902 0.145615
0.132851 0.387327 0.145978
0.147753 0.387868 0.146445
0.164283 0.388531 0.147024
0.182127 0.389323 0.147723
0.201038 0.390248 0.148554
0.220823 0.391312 0.149526
0.241339 0.392519 0.150652
0.262479 0.393872 0.151944
0.284162 0.395375 0.153419
0.306329 0.397031 0.155095
0.328938 0.398844 0.156991
0.351953 0.400817 0.159133
0.375354 0.402950 0.161528
0.399135 0.405229 0.164110
0.423284 0.407651 0.166870
0.447790 0.410212 0.169808
0.472644 0.412909 0.172923
0.497838 0.415737 0.176212
0.523364 0.418692 0.179673
0.549214 0.421767 0.183304
0.575379 0.424958 0.187100
0.601849 0.428257 0.191057
0.628612 0.431656 0.195170
0.655654 0.435148 0.199434
0.682960 0.438724 0.203843
0.710513 0.442374 0.208389
0.738291 0.446089 0.213066
0.766272 0.449857 0.217863
0.794431 0.453668 0.222773
0.109136 0.415946 0.152877
0.115935 0.416138 0.153064
0.123209 0.416355 0.153275
0.132983 0.416667 0.153580
0.145115 0.417085 0.153992
0.159280 0.417617 0.154522
0.175149 0.418271 0.155179
0.192422 0.419052 0.155976
0.210853 0.419966 0.156925
0.230240 0.421019 0.158039
0.250430 0.422214 0.159332
0.271303 0.423556 0.160817
0.292777 0.425042 0.162473
0.314785 0.426671 0.164297
0.337275 0.428444 0.166291
0.360209 0.430360 0.168456
0.383556 0.432417 0.170795
0.407293 0.434614 0.173307
0.431403 0.436947 0.175992
0.455871 0.439414 0.178849
0.480684 0.442011 0.181878
0.505831 0.444733 0.185076
0.531302 0.447575 0.188441
0.557087 0.450531 0.191969
0.583174 0.453595 0.195658
0.609551 0.456759 0.199502
0.636206 0.460016 0.203497
0.663122 0.463356 0.207636
0.690284 0.466772 0.211915
0.717673 0.470252 0.216325
0.745266 0.473786 0.220858
0.773040 0.477364 0.225507
0.800969 0.480972 0.230263
0.123232 0.446559 0.162559
0.129513 0.446748 0.162766
0.136287 0.446962 0.163001
0.145466 0.447267 0.163338
0.156964 0.447676 0.163789
0.170512 0.448197 0.164364
0.185815 0.448835 0.165071
0.202595 0.449596 0.165915
0.220609 0.450485 0.166902
0.239656 0.451504 0.168039
0.259575 0.452658 0.169329
0.280238 0.453947 0.170776
0.301547 0.455373 0.172383
0.323425 0.456937 0.174153
0.345813 0.458639 0.176089
0.368665 0.460477 0.178191
0.391944 0.462451 0.180461
0.415623 0.464559 0.182898
0.439680 0.466797 0.185504
0.464094 0.469161 0.188276
0.488852 0.471649 0.191214
0.513938 0.474255 0.194315
0.539339 0.476973 0.197577
0.565044 0.479797 0.200997
0.591037 0.482721 0.204571
0.617306 0.485736 0.208295
0.643835 0.488835 0.212162
0.670609 0.492009 0.216169
0.697608 0.495247 0.220308
0.724812 0.498540 0.224572
0.752199 0.501876 0.228953
0.779745 0.505244 0.233443
0.807422 0.508632 0.238034
0.136961 0.477798 0.173146
0.142831 0.477979 0.173348
0.149199 0.478183 0.173575
0.157885 0.478475 0.173901
0.168846 0.478866 0.174339
0.181857 0.479363 0.174896
0.196656 0.479973 0.175580
0.212984 0.480701 0.176398
0.230607 0.481550 0.177354
0.249324 0.482524 0.178455
0.268968 0.483626 0.179704
0.289406 0.484858 0.181106
0.310532 0.486221 0.182662
0.332261 0.487715 0.184377
0.354527 0.489340 0.186251
0.377278 0.491095 0.188286
0.400471 0.492978 0.190483
0.424074 0.494988 0.192842
0.448059 0.497121 0.195362
0.472403 0.499373 0.198044
0.497088 0.501740 0.200885
0.522095 0.504217 0.203884
0.547409 0.506798 0.207037
0.573014 0.509477 0.210342
0.598895 0.512245 0.213794
0.625036 0.515096 0.217389
0.651420 0.518021 0.221122
0.678030 0.521010 0.224987
0.704844 0.524053 0.228977
0.731843 0.527140 0.233086
0.759002 0.530259 0.237305
0.786296 0.533399 0.241623
0.813710 0.536539 0.245944
0.150654 0.509498 0.184071
0.156167 0.509670 0.184266
0.162180 0.509864 0.184486
0.170426 0.510141 0.184801
0.180896 0.510513 0.185224
0.193404 0.510986 0.185762
0.207721 0.511566 0.186423
0.223607 0.512257 0.187213
0.240837 0.513064 0.188137
0.259214 0.513989 0.189200
0.278569 0.515036 0.190407
0.298765 0.516206 0.191760
0.319688 0.517499 0.193263
0.341247 0.518916 0.194918
0.363370 0.520458 0.196727
0.385998 0.522121 0.198691
0.409084 0.523905 0.200811
0.432588 0.525807 0.203087
0.456480 0.527825 0.205519
0.480733 0.529952 0.208105
0.505323 0.532187 0.210844
0.530230 0.534521 0.213734
0.555435 0.536951 0.216771
0.580920 0.539468 0.219954
0.606667 0.542065 0.223276
0.632658 0.544735 0.226735
0.658875 0.547467 0.230325
0.685297 0.550253 0.234039
0.711904 0.553082 0.237872
0.738673 0.555943 0.241811
0.765592 0.558819 0.245772
0.792639 0.561697 0.249723
0.819782 0.564563 0.253658
0.164310 0.541562 0.195281
0.169512 0.541723 0.195468
0.175208 0.541906 0.195680
0.183056 0.542168 0.195983
0.193074 0.542519 0.196390
0.205110 0.542965 0.196909
0.218963 0.543512 0.197545
0.234414 0.544164 0.198306
0.251249 0.544925 0.199196
0.269277 0.545797 0.200220
0.288328 0.546784 0.201381
0.308262 0.547885 0.202684
0.328961 0.549103 0.204131
0.350328 0.550436 0.205724
0.372284 0.551885 0.207464
0.394765 0.553448 0.209354
0.417719 0.555123 0.211392
0.441101 0.556907 0.213581
0.464876 0.558796 0.215918
0.489013 0.560787 0.218403
0.513484 0.562874 0.221033
0.538267 0.565052 0.223808
0.563339 0.567314 0.226723
0.588679 0.569654 0.229776
0.614267 0.572063 0.232962
0.640084 0.574533 0.236276
0.666107 0.577054 0.239714
0.692321 0.579616 0.243246
0.718713 0.582204 0.246805
0.745259 0.584808 0.250382
0.771931 0.587414 0.253968
0.798701 0.590011 0.257558
0.825560 0.592594 0.261084
0.177913 0.573869 0.206714
0.182838 0.574021 0.206894
0.188249 0.574192 0.207097
0.195734 0.574437 0.207388
0.205332 0.574765 0.207779
0.216921 0.575182 0.208277
0.230326 0.575693 0.208887
0.245348 0.576302 0.209617
0.261786 0.577012 0.210471
0.279455 0.577826 0.211454
0.298187 0.578746 0.212568
0.317840 0.579773 0.213817
0.338291 0.580908 0.215205
0.359441 0.582149 0.216732
0.381205 0.583497 0.218400
0.403513 0.584949 0.220211
0.426308 0.586504 0.222164
0.449541 0.588157 0.224260
0.473172 0.589906 0.226497
0.497166 0.591747 0.228875
0.521492 0.593672 0.231392
0.546123 0.595678 0.234045
0.571034 0.597757 0.236831
0.596203 0.599902 0.239747
0.621608 0.602104 0.242773
0.647238 0.604351 0.245858
0.673070 0.606635 0.248991
0.699079 0.608944 0.252165
0.725241 0.611268 0.255373
0.751532 0.613596 0.258599
0.777950 0.615926 0.261775
0.804467 0.618246 0.264881
0.831051 0.620545 0.267915
0.191431 0.606281 0.218305
0.196106 0.606421 0.218477
0.201258 0.606579 0.218671
0.208408 0.606805 0.218950
0.217613 0.607108 0.219323
0.228778 0.607493 0.219799
0.241749 0.607965 0.220383
0.256346 0.608527 0.221080
0.272384 0.609182 0.221896
0.289683 0.609933 0.222835
0.308079 0.610781 0.223899
0.327430 0.611726 0.225093
0.347612 0.612769 0.226417
0.368518 0.613910 0.227875
0.390062 0.615147 0.229468
0.412169 0.616479 0.231195
0.434776 0.617902 0.233058
0.457830 0.619413 0.235057
0.481288 0.621009 0.237189
0.505109 0.622685 0.239455
0.529261 0.624435 0.241846
0.553722 0.626251 0.244330
0.578463 0.628125 0.246894
0.603460 0.630051 0.249530
0.628685 0.632020 0.252233
0.654116 0.634022 0.254995
0.679726 0.636049 0.257808
0.705510 0.638096 0.260622
0.731448 0.640153 0.263408
0.757512 0.642212 0.266160
0.783672 0.644260 0.268875
0.809897 0.646288 0.271551
0.836154 0.648282 0.274188
0.204819 0.638637 0.229980
0.209267 0.638764 0.230144
0.214180 0.638908 0.230329
0.221019 0.639114 0.230594
0.229854 0.639390 0.230949
0.240612 0.639740 0.231402
0.253160 0.640169 0.231957
0.267337 0.640680 0.232621
0.282970 0.641275 0.233397
0.299888 0.641957 0.234290
0.317933 0.642726 0.235302
0.336961 0.643583 0.236436
0.356847 0.644527 0.237696
0.377484 0.645559 0.239081
0.398779 0.646675 0.240594
0.420657 0.647875 0.242225
0.443055 0.649154 0.243965
0.465915 0.650509 0.245808
0.489189 0.651934 0.247749
0.512835 0.653426 0.249785
0.536815 0.654978 0.251909
0.561094 0.656584 0.254116
0.585643 0.658237 0.256401
0.610436 0.659929 0.258748
0.635463 0.661657 0.261118
0.660697 0.663413 0.263498
0.686110 0.665187 0.265881
0.711675 0.666970 0.268261
0.737362 0.668753 0.270634
0.763144 0.670524 0.272998
0.788989 0.672274 0.275350
0.814868 0.673991 0.277692
0.840749 0.675665 0.280026
0.218027 0.670758 0.241656
0.222266 0.670872 0.241810
0.226958 0.671000 0.241984
0.233506 0.671184 0.242232
0.241993 0.671430 0.242565
0.252361 0.671743 0.242987
0.264501 0.672126 0.243504
0.278267 0.672581 0.244119
0.293499 0.673110 0.244835
0.310036 0.673716 0.245654
0.327725 0.674398 0.246577
0.346426 0.675157 0.247605
0.366012 0.675992 0.248737
0.386374 0.676902 0.249973
0.407417 0.677885 0.251312
0.429061 0.678938 0.252751
0.451233 0.680058 0.254287
0.473874 0.681242 0.255919
0.496932 0.682485 0.257641
0.520371 0.683783 0.259432
0.544155 0.685131 0.261277
0.568247 0.686525 0.263169
0.592613 0.687957 0.265100
0.617221 0.689420 0.267065
0.642041 0.690906 0.269056
