RedKomodo_Cinematic_Teal_v3.cube
TITLE "Red Komodo X - Cinematic Teal v3"
# v3: balanced - between v1 (soft) and v2 (too dark)
# -0.55 stops exposure, moderate black crush, medium teal, warm skin protected
LUT_3D_SIZE 33
0.000000 0.057386 0.124232
0.000000 0.057386 0.124232
0.000000 0.057386 0.124232
0.000000 0.057989 0.124547
0.000000 0.058445 0.124784
0.000000 0.059038 0.125094
0.000000 0.059769 0.125476
0.007657 0.060639 0.125932
0.051216 0.061647 0.126462
0.086409 0.062793 0.127065
0.115500 0.064073 0.127740
0.141632 0.065476 0.128496
0.166035 0.066982 0.129328
0.189313 0.068580 0.130220
0.211822 0.070250 0.131162
0.233790 0.071969 0.132141
0.255373 0.073704 0.133141
0.276690 0.075421 0.134140
0.297831 0.077076 0.135112
0.000000 0.059863 0.125526
0.104189 0.063539 0.127458
0.173193 0.067458 0.129592
0.226235 0.071370 0.131799
0.272316 0.075071 0.133935
0.314584 0.078313 0.135845
0.354530 0.080915 0.137365
0.392517 0.083403 0.138621
0.429355 0.085359 0.139449
0.465410 0.086682 0.139761
0.500945 0.087258 0.139464
0.536158 0.086950 0.138454
0.571202 0.085590 0.136613
0.606197 0.082961 0.133811
0.000000 0.062836 0.124514
0.000000 0.063371 0.124622
0.000000 0.063860 0.124745
0.000000 0.064443 0.124926
0.000000 0.065102 0.125169
0.000000 0.065836 0.125480
0.000000 0.066652 0.125861
0.010644 0.067561 0.126313
0.053435 0.068571 0.126838
0.087760 0.069688 0.127435
0.116452 0.070917 0.128104
0.142353 0.072249 0.128852
0.166606 0.073672 0.129673
0.189780 0.075177 0.130553
0.212213 0.076748 0.131482
0.234123 0.078364 0.132448
0.255660 0.079998 0.133433
0.276939 0.081616 0.134415
0.000000 0.057543 0.124296
0.005573 0.061461 0.125950
0.118569 0.065854 0.127900
0.181977 0.070323 0.130036
0.232664 0.074668 0.132215
0.277389 0.078709 0.134308
0.318769 0.082226 0.136157
0.358049 0.085114 0.137621
0.395551 0.087834 0.138820
0.432015 0.090009 0.139589
0.467773 0.091550 0.139840
0.503067 0.092357 0.139479
0.538082 0.092307 0.138402
0.572961 0.091249 0.136494
0.607816 0.088995 0.133622
0.000000 0.070557 0.124942
0.000000 0.070966 0.125054
0.000000 0.071378 0.125180
0.000000 0.071905 0.125362
0.000000 0.072530 0.125605
0.000000 0.073243 0.125914
0.000000 0.074039 0.126292
0.013374 0.074921 0.126740
0.055512 0.075893 0.127259
0.089093 0.076959 0.127850
0.117424 0.078123 0.128511
0.143108 0.079379 0.129250
0.167215 0.080718 0.130059
0.190285 0.082132 0.130927
0.212640 0.083608 0.131842
0.234489 0.085126 0.132792
0.255978 0.086662 0.133760
0.277217 0.088185 0.134724
0.000000 0.058792 0.124701
0.040746 0.063675 0.126438
0.132663 0.068758 0.128404
0.191141 0.073748 0.130533
0.239523 0.078499 0.132680
0.282870 0.082860 0.134722
0.323327 0.086638 0.136501
0.361905 0.089805 0.137903
0.398891 0.092750 0.139038
0.434952 0.095138 0.139740
0.470389 0.096894 0.139922
0.505423 0.097930 0.139489
0.540223 0.098135 0.138338
0.574921 0.097378 0.136354
0.609623 0.095491 0.133403
0.000000 0.080908 0.125568
0.000000 0.081214 0.125679
0.000000 0.081538 0.125805
0.000000 0.081972 0.125985
0.000000 0.082512 0.126226
0.000000 0.083147 0.126531
0.000000 0.083872 0.126903
0.016599 0.084683 0.127344
0.057990 0.085581 0.127855
0.090759 0.086566 0.128436
0.118677 0.087641 0.129087
0.144104 0.088800 0.129812
0.168032 0.090035 0.130606
0.190971 0.091339 0.131455
0.213227 0.092700 0.132350
0.234996 0.094101 0.133279
0.256421 0.095521 0.134223
0.277606 0.096933 0.135162
0.000000 0.061537 0.125353
0.077955 0.067491 0.127148
0.149993 0.073349 0.129133
0.203078 0.078926 0.131236
0.248683 0.084131 0.133331
0.290295 0.088849 0.135297
0.329563 0.092922 0.136975
0.367214 0.096422 0.138292
0.403514 0.099630 0.139337
0.439037 0.102273 0.139944
0.474041 0.104289 0.140027
0.508722 0.105603 0.139492
0.543228 0.106121 0.138237
0.577678 0.105731 0.136144
0.612170 0.104290 0.133082
0.000000 0.093390 0.126400
0.000000 0.093623 0.126510
0.000000 0.093878 0.126633
0.000000 0.094228 0.126810
0.000000 0.094677 0.127045
0.000000 0.095219 0.127344
0.000000 0.095850 0.127708
0.020228 0.096569 0.128140
0.060765 0.097371 0.128640
0.092702 0.098257 0.129209
0.120182 0.099226 0.129845
0.145326 0.100275 0.130553
0.169053 0.101394 0.131325
0.191842 0.102578 0.132151
0.213979 0.103815 0.133021
0.235653 0.105092 0.133921
0.256999 0.106388 0.134835
0.000000 0.059538 0.124670
0.012080 0.066608 0.126279
0.110733 0.073553 0.128110
0.169492 0.080121 0.130102
0.217303 0.086236 0.132160
0.259907 0.091859 0.134180
0.299552 0.096910 0.136039
0.337434 0.101265 0.137577
0.373969 0.105107 0.138787
0.409440 0.108585 0.139712
0.444303 0.111494 0.140193
0.478772 0.113787 0.140146
0.513011 0.115403 0.139477
0.547148 0.116264 0.138082
0.581286 0.116277 0.135847
0.615509 0.115324 0.132639
0.000000 0.107480 0.127438
0.000000 0.107664 0.127545
0.000000 0.107867 0.127665
0.000000 0.108152 0.127837
0.000000 0.108522 0.128066
0.000000 0.108978 0.128357
0.000000 0.109519 0.128711
0.024260 0.110141 0.129131
0.063788 0.110844 0.129617
0.094887 0.111625 0.130170
0.121911 0.112486 0.130788
0.146756 0.113420 0.131475
0.170267 0.114422 0.132222
0.192889 0.115485 0.133019
0.214893 0.116599 0.133857
0.236459 0.117751 0.134722
0.000000 0.058277 0.124370
0.000000 0.066556 0.125805
0.075938 0.074724 0.127496
0.140695 0.082362 0.129346
0.190055 0.089422 0.131315
0.233106 0.095919 0.133302
0.272741 0.101842 0.135216
0.310343 0.107142 0.136934
0.346735 0.111716 0.138290
0.382031 0.115869 0.139376
0.416572 0.119585 0.140150
0.450685 0.122741 0.140473
0.484538 0.125299 0.140263
0.518265 0.127212 0.139425
0.551969 0.128415 0.137857
0.585738 0.128833 0.135444
0.619642 0.128373 0.132054
0.000000 0.122766 0.128677
0.000000 0.122915 0.128780
0.000000 0.123081 0.128896
0.000000 0.123315 0.129062
0.000000 0.123624 0.129283
0.000000 0.124008 0.129564
0.000000 0.124467 0.129906
0.028770 0.125002 0.130312
0.067063 0.125612 0.130782
0.097309 0.126295 0.131316
0.123860 0.127051 0.131914
0.148389 0.127878 0.132575
0.171668 0.128768 0.133292
0.194110 0.129716 0.134055
0.215969 0.130713 0.134856
0.000000 0.058769 0.124401
0.000000 0.068350 0.125727
0.050297 0.077643 0.127292
0.118912 0.086240 0.129009
0.168300 0.094146 0.130856
0.210834 0.101409 0.132761
0.249811 0.108068 0.134647
0.286694 0.114129 0.136422
0.322308 0.119553 0.137957
0.357204 0.124255 0.139084
0.391204 0.128652 0.140037
0.424764 0.132549 0.140629
0.458073 0.135907 0.140763
0.491259 0.138695 0.140356
0.524422 0.140876 0.139316
0.557647 0.142398 0.137540
0.591002 0.143200 0.134914
0.624544 0.143206 0.131309
0.000000 0.138939 0.130105
0.000000 0.139062 0.130204
0.000000 0.139200 0.130316
0.000000 0.139396 0.130475
0.000000 0.139655 0.130688
0.000000 0.139980 0.130957
0.000000 0.140373 0.131286
0.033866 0.140833 0.131675
0.070618 0.141361 0.132126
0.099986 0.141956 0.132639
0.126037 0.142618 0.133214
0.150230 0.143346 0.133846
0.173260 0.144134 0.134528
0.195508 0.144977 0.135254
0.000000 0.062847 0.124785
0.000000 0.073450 0.126054
0.039743 0.083420 0.127509
0.105735 0.092606 0.129103
0.152928 0.101059 0.130818
0.193716 0.108843 0.132611
0.231240 0.116019 0.134418
0.266856 0.122621 0.136168
0.301309 0.128649 0.137765
0.335087 0.134067 0.139076
0.368488 0.138848 0.139975
0.401265 0.143349 0.140743
0.433841 0.147358 0.141121
0.466330 0.150860 0.141035
0.498823 0.153830 0.140399
0.531395 0.156237 0.139124
0.564110 0.158039 0.137108
0.597020 0.159185 0.134238
0.630170 0.159618 0.130387
0.000000 0.155770 0.131709
0.000000 0.155874 0.131803
0.000000 0.155990 0.131909
0.000000 0.156156 0.132061
0.000000 0.156377 0.132264
0.000000 0.156655 0.132521
0.001841 0.156992 0.132834
0.039659 0.157389 0.133206
0.074486 0.157847 0.133636
0.102942 0.158366 0.134126
0.128461 0.158946 0.134674
0.152292 0.159587 0.135275
0.000000 0.061681 0.124577
0.000000 0.072664 0.125603
0.000000 0.083252 0.126811
0.044234 0.093139 0.128162
0.100826 0.102319 0.129635
0.143796 0.110847 0.131216
0.181732 0.118777 0.132880
0.217073 0.126158 0.134576
0.250901 0.133026 0.136251
0.283813 0.139392 0.137830
0.316198 0.145245 0.139209
0.348349 0.150540 0.140249
0.380339 0.155326 0.140923
0.411987 0.159825 0.141458
0.443616 0.163874 0.141595
0.475300 0.167458 0.141258
0.507103 0.170557 0.140365
0.539077 0.173142 0.138825
0.571270 0.175178 0.136541
0.603718 0.176624 0.133400
0.636456 0.177433 0.129281
0.000000 0.173094 0.133467
0.000000 0.173183 0.133557
0.000000 0.173282 0.133657
0.000000 0.173425 0.133801
0.000000 0.173614 0.133993
0.000000 0.173854 0.134237
0.008337 0.174146 0.134534
0.045939 0.174491 0.134886
0.078691 0.174890 0.135295
0.000000 0.059171 0.124346
0.000000 0.068890 0.125038
0.000000 0.078996 0.125898
0.000000 0.088872 0.126897
0.000000 0.098346 0.128021
0.055681 0.107361 0.129261
0.101674 0.115907 0.130609
0.139580 0.123996 0.132055
0.174092 0.131646 0.133579
0.206819 0.138874 0.135145
0.238515 0.145696 0.136711
0.269611 0.152117 0.138219
0.300388 0.158129 0.139589
0.331061 0.163705 0.140710
0.361814 0.168792 0.141432
0.392541 0.173497 0.141869
0.423161 0.177922 0.142147
0.453908 0.181949 0.142015
0.484829 0.185561 0.141401
0.515966 0.188738 0.140225
0.547355 0.191453 0.138397
0.579026 0.193678 0.135822
0.611009 0.195378 0.132393
0.643324 0.196515 0.127993
0.000000 0.190790 0.135359
0.000000 0.190867 0.135444
0.000000 0.190953 0.135538
0.000000 0.057795 0.124253
0.000000 0.061649 0.124462
0.000000 0.066796 0.124764
0.000000 0.072911 0.125159
0.000000 0.079755 0.125653
0.000000 0.087107 0.126249
0.000000 0.094777 0.126950
0.000000 0.102605 0.127757
0.000000 0.110463 0.128671
0.019031 0.118253 0.129688
0.067243 0.125906 0.130807
0.105031 0.133370 0.132023
0.138288 0.140615 0.133328
0.169460 0.147618 0.134705
0.199541 0.154366 0.136127
0.229027 0.160847 0.137564
0.258210 0.167052 0.138969
0.287285 0.172965 0.140279
0.316399 0.178561 0.141404
0.345684 0.183801 0.142227
0.375266 0.188626 0.142584
0.404895 0.193185 0.142775
0.434605 0.197484 0.142772
0.464554 0.201439 0.142350
0.494770 0.205033 0.141439
0.525281 0.208244 0.139960
0.556109 0.211050 0.137828
0.587275 0.213423 0.134951
0.618797 0.215334 0.131229
0.650689 0.216754 0.126553
0.000000 0.097525 0.126694
0.000000 0.099047 0.126821
0.000000 0.100734 0.126964
0.000000 0.103087 0.127171
0.000000 0.106132 0.127449
0.000000 0.109841 0.127805
0.000000 0.114155 0.128244
0.000000 0.118999 0.128769
0.000000 0.124285 0.129385
0.000000 0.129919 0.130094
0.000000 0.135811 0.130896
0.036774 0.141877 0.131792
0.076012 0.148043 0.132779
0.108368 0.154244 0.133855
0.138021 0.160430 0.135016
0.166385 0.166559 0.136240
0.194118 0.172594 0.137513
0.221563 0.178508 0.138809
0.248926 0.184275 0.140091
0.276345 0.189871 0.141308
0.303923 0.195268 0.142390
0.331754 0.200431 0.143239
0.359928 0.205313 0.143726
0.388545 0.209852 0.143675
0.417248 0.214220 0.143605
0.446168 0.218359 0.143304
0.475410 0.222208 0.142577
0.504989 0.225750 0.141355
0.534923 0.228962 0.139564
0.565226 0.231824 0.137124
0.595909 0.234312 0.133950
0.626984 0.236400 0.129950
0.658458 0.238064 0.125028
0.000000 0.139965 0.130200
0.000000 0.141011 0.130327
0.000000 0.142175 0.130471
0.000000 0.143812 0.130677
0.000000 0.145952 0.130952
0.000000 0.148591 0.131303
0.000000 0.151705 0.131732
0.000000 0.155260 0.132243
0.000000 0.159208 0.132838
0.010126 0.163497 0.133519
0.047931 0.168068 0.134285
0.081298 0.172867 0.135135
0.110304 0.177838 0.136069
0.137439 0.182931 0.137083
0.163679 0.188104 0.138154
0.189527 0.193315 0.139276
0.215254 0.198528 0.140427
0.241025 0.203710 0.141578
0.266950 0.208832 0.142687
0.293110 0.213864 0.143696
0.319577 0.218772 0.144527
0.346420 0.223516 0.145074
0.373712 0.228046 0.145195
0.401543 0.232298 0.144696
0.429487 0.236447 0.144335
0.457733 0.240408 0.143726
0.486357 0.244132 0.142688
0.515370 0.247601 0.141155
0.544780 0.250793 0.139058
0.574596 0.253688 0.136325
0.604823 0.256265 0.132880
0.635468 0.258503 0.128647
0.666359 0.260522 0.124038
0.000000 0.177938 0.133976
0.000000 0.178707 0.134097
0.000000 0.179566 0.134234
0.000000 0.180780 0.134429
0.000000 0.182377 0.134690
0.000000 0.184362 0.135021
0.000000 0.186728 0.135426
0.000000 0.189459 0.135907
0.017748 0.192530 0.136465
0.053064 0.195909 0.137102
0.083414 0.199562 0.137818
0.110395 0.203450 0.138610
0.135859 0.207536 0.139479
0.160594 0.211786 0.140405
0.185027 0.216162 0.141381
0.209400 0.220630 0.142391
0.233865 0.225159 0.143411
0.258522 0.229719 0.144407
0.283445 0.234279 0.145332
0.308695 0.238809 0.146121
0.334329 0.243273 0.146688
0.360408 0.247631 0.146916
0.387000 0.251833 0.146649
0.414189 0.255814 0.145674
0.441531 0.259732 0.144961
0.469206 0.263512 0.144049
0.497297 0.267106 0.142709
0.525808 0.270492 0.140882
0.554746 0.273652 0.138507
0.584113 0.276566 0.135522
0.613913 0.279217 0.131868
0.644144 0.281587 0.127487
0.674121 0.284166 0.124491
0.000000 0.213248 0.137870
0.000000 0.213841 0.137982
0.000000 0.214507 0.138108
0.000000 0.215449 0.138289
0.000000 0.216696 0.138531
0.000000 0.218254 0.138837
0.000000 0.220123 0.139211
0.021484 0.222298 0.139655
0.054624 0.224764 0.140170
0.083160 0.227505 0.140757
0.108825 0.230497 0.141416
0.133148 0.233717 0.142147
0.156819 0.237139 0.142940
0.180211 0.240738 0.143783
0.203552 0.244487 0.144664
0.226985 0.248358 0.145563
0.250609 0.252326 0.146454
0.274494 0.256364 0.147297
0.298699 0.260446 0.148039
0.323274 0.264540 0.148609
0.348272 0.268615 0.148910
0.373752 0.272631 0.148816
0.399780 0.276538 0.148154
0.426439 0.280277 0.146692
0.453323 0.283966 0.145520
0.480515 0.287575 0.144326
0.508145 0.291040 0.142714
0.536213 0.294345 0.140635
0.564724 0.297470 0.138041
0.593678 0.300399 0.134885
0.623073 0.303117 0.131128
0.652906 0.305608 0.126743
0.681985 0.308659 0.125846
0.000000 0.246888 0.141784
0.000000 0.247364 0.141886
0.000000 0.247898 0.142002
0.000000 0.248657 0.142167
0.000000 0.249663 0.142388
0.000000 0.250926 0.142668
0.023840 0.252450 0.143010
0.054637 0.254231 0.143417
0.081608 0.256266 0.143888
0.106169 0.258543 0.144426
0.129570 0.261048 0.145031
0.152403 0.263766 0.145702
0.174988 0.266681 0.146432
0.197520 0.269774 0.147205
0.220134 0.273027 0.148004
0.242920 0.276419 0.148808
0.265949 0.279929 0.149584
0.289273 0.283536 0.150289
0.312942 0.287215 0.150865
0.337000 0.290942 0.151233
0.361500 0.294683 0.151287
0.386496 0.298404 0.150887
0.412058 0.302059 0.149846
0.438267 0.305590 0.147913
0.464817 0.309063 0.146103
0.491598 0.312517 0.144673
0.518824 0.315868 0.142851
0.546498 0.319099 0.140600
0.574619 0.322196 0.137888
0.603186 0.325143 0.134692
0.632195 0.327927 0.131002
0.661641 0.330539 0.126832
0.689880 0.333938 0.128252
0.000000 0.279453 0.145667
0.000000 0.279846 0.145760
0.000000 0.280287 0.145866
0.000000 0.280916 0.146017
0.003577 0.281751 0.146219
0.027273 0.282803 0.146475
0.055005 0.284076 0.146788
0.079990 0.285571 0.147160
0.103248 0.287288 0.147594
0.125656 0.289220 0.148089
0.147653 0.291358 0.148648
0.169489 0.293695 0.149270
0.191321 0.296216 0.149956
0.213252 0.298909 0.150707
0.235336 0.301768 0.151456
0.257643 0.304775 0.152193
0.280221 0.307913 0.152887
0.303113 0.311166 0.153489
0.326360 0.314513 0.153936
0.350004 0.317932 0.154141
0.374092 0.321396 0.153989
0.398682 0.324870 0.153330
0.423841 0.328315 0.151961
0.449650 0.331677 0.149614
0.475969 0.334961 0.146891
0.502391 0.338282 0.145306
0.529259 0.341537 0.143376
0.556573 0.344712 0.141080
0.584331 0.347792 0.138410
0.612530 0.350767 0.135372
0.641167 0.353622 0.131970
0.669975 0.356437 0.128991
0.697824 0.359818 0.130941
0.000000 0.311329 0.149519
0.000000 0.311662 0.149606
0.000000 0.312035 0.149703
0.013734 0.312568 0.149843
0.033917 0.313278 0.150030
0.057418 0.314174 0.150268
0.079573 0.315261 0.150560
0.101003 0.316544 0.150908
0.122097 0.318021 0.151314
0.143069 0.319691 0.151780
0.164052 0.321550 0.152308
0.185134 0.323591 0.152899
0.206378 0.325807 0.153557
0.227828 0.328188 0.154282
0.249517 0.330726 0.155079
0.271454 0.333417 0.155864
0.293666 0.336254 0.156529
0.316201 0.339219 0.157086
0.339094 0.342295 0.157467
0.362382 0.345462 0.157577
0.386112 0.348698 0.157296
0.410339 0.351974 0.156462
0.435128 0.355252 0.154865
0.460562 0.358486 0.152217
0.486726 0.361619 0.148184
0.512825 0.364834 0.146574
0.539364 0.368017 0.144690
0.566340 0.371155 0.142539
0.593750 0.374237 0.140139
0.621624 0.377217 0.137247
0.650011 0.380018 0.133401
0.678149 0.382971 0.131893
0.705777 0.386240 0.133829
0.008135 0.342788 0.153413
0.018029 0.343075 0.153496
0.029263 0.343399 0.153589
0.045189 0.343860 0.153723
0.062994 0.344476 0.153903
0.081446 0.345255 0.154132
0.100357 0.346202 0.154414
0.119634 0.347323 0.154751
0.139227 0.348618 0.155147
0.159115 0.350088 0.155604
0.179289 0.351730 0.156126
0.199749 0.353541 0.156716
0.220496 0.355518 0.157377
0.241536 0.357653 0.158114
0.262873 0.359940 0.158933
0.284512 0.362373 0.159840
0.306446 0.364950 0.160780
0.328664 0.367682 0.161379
0.351238 0.370538 0.161787
0.374202 0.373504 0.161909
0.397597 0.376560 0.161617
0.421478 0.379681 0.160745
0.445908 0.382835 0.159076
0.470967 0.385981 0.156319
0.496749 0.389066 0.152081
0.522813 0.392154 0.148993
0.549036 0.395291 0.147375
0.575711 0.398390 0.145421
0.602883 0.401391 0.142773
0.630557 0.404265 0.139281
0.658740 0.406981 0.134758
0.686261 0.410010 0.134997
0.713691 0.413160 0.136915
0.040282 0.374033 0.157515
0.050034 0.374286 0.157598
0.059748 0.374572 0.157693
0.071980 0.374979 0.157829
0.086244 0.375523 0.158012
0.102020 0.376213 0.158246
0.118924 0.377053 0.158535
0.136689 0.378050 0.158883
0.155135 0.379205 0.159293
0.174142 0.380519 0.159771
0.193630 0.381994 0.160320
0.213544 0.383626 0.160946
0.233848 0.385415 0.161655
0.254517 0.387356 0.162454
0.275535 0.389445 0.163352
0.296889 0.391679 0.164358
0.318570 0.394053 0.165486
0.340570 0.396562 0.166751
0.362843 0.399242 0.167363
0.385490 0.402050 0.167644
0.408555 0.404968 0.167507
0.432086 0.407975 0.166789
0.456146 0.411045 0.165274
0.480811 0.414142 0.162683
0.506173 0.417219 0.158626
0.532286 0.420201 0.152979
0.558309 0.423222 0.151125
0.584816 0.426185 0.148647
0.611815 0.429063 0.145417
0.639311 0.431831 0.141276
0.667233 0.434485 0.136467
0.694270 0.437507 0.138297
0.721520 0.440530 0.140195
0.068702 0.405227 0.162117
0.076089 0.405454 0.162209
0.083818 0.405710 0.162312
0.093974 0.406076 0.162461
0.106296 0.406566 0.162661
0.120381 0.407187 0.162918
0.135876 0.407945 0.163237
0.152493 0.408847 0.163623
0.170014 0.409894 0.164080
0.188277 0.411089 0.164616
0.207162 0.412433 0.165237
0.226584 0.413926 0.165949
0.246480 0.415569 0.166763
0.266803 0.417358 0.167688
0.287520 0.419292 0.168736
0.308605 0.421370 0.169921
0.330037 0.423588 0.171260
0.351801 0.425944 0.172772
0.373883 0.428436 0.174479
0.396234 0.431107 0.175421
0.418957 0.433924 0.175654
0.442122 0.436854 0.175334
0.465816 0.439855 0.174115
0.490135 0.442878 0.171576
0.515178 0.445873 0.167237
0.541065 0.448776 0.160410
0.567313 0.451611 0.154946
0.593672 0.454442 0.151907
0.620516 0.457201 0.148054
0.647849 0.459861 0.143213
0.675252 0.462529 0.139979
0.702147 0.465407 0.141697
0.729275 0.468275 0.143193
0.091180 0.436506 0.167672
0.097404 0.436713 0.167778
0.104054 0.436947 0.167900
0.112980 0.437282 0.168074
0.124044 0.437730 0.168310
0.136948 0.438299 0.168614
0.151390 0.438995 0.168991
0.167101 0.439823 0.169449
0.183857 0.440788 0.169994
0.201480 0.441891 0.170635
0.219831 0.443136 0.171381
0.238805 0.444523 0.172241
0.258322 0.446053 0.173228
0.278318 0.447726 0.174355
0.298747 0.449541 0.175636
0.319572 0.451499 0.177091
0.340763 0.453598 0.178740
0.362297 0.455838 0.180606
0.384169 0.458210 0.182662
0.406382 0.460701 0.184853
0.428893 0.463349 0.186170
0.451800 0.466144 0.185873
0.475224 0.469016 0.184554
0.499244 0.471931 0.181851
0.523959 0.474844 0.177270
0.549491 0.477695 0.170107
0.575983 0.480410 0.159296
0.602255 0.483108 0.155185
0.628953 0.485748 0.150668
0.656148 0.488294 0.144958
0.683132 0.490909 0.143205
0.709949 0.493616 0.144371
0.736978 0.496316 0.145335
0.109910 0.467995 0.174805
0.115432 0.468187 0.174937
0.121402 0.468405 0.175087
0.129513 0.468716 0.175303
0.139702 0.469133 0.175596
0.151741 0.469663 0.175972
0.165377 0.470312 0.176441
0.180364 0.471085 0.177011
0.196488 0.471988 0.177690
0.213565 0.473023 0.178490
0.231449 0.474193 0.179421
0.250021 0.475500 0.180498
0.269196 0.476944 0.181719
0.288912 0.478522 0.183065
0.309114 0.480230 0.184538
0.329759 0.482068 0.186140
0.350812 0.484032 0.187872
0.372247 0.486120 0.189735
0.394042 0.488326 0.191728
0.416178 0.490648 0.193853
0.438641 0.493080 0.196109
0.461396 0.495653 0.197620
0.484529 0.498406 0.196310
0.508225 0.501221 0.193569
0.532581 0.504057 0.188897
0.557718 0.506863 0.181589
0.583786 0.509567 0.170556
0.610572 0.512113 0.158243
0.637187 0.514614 0.152593
0.664301 0.517023 0.145481
0.690927 0.519539 0.145446
0.717661 0.522075 0.146122
0.744587 0.524607 0.146625
0.125565 0.499787 0.184146
0.130641 0.499966 0.184298
0.136167 0.500169 0.184470
0.143733 0.500459 0.184717
0.153320 0.500848 0.185048
0.164752 0.501342 0.185469
0.177812 0.501946 0.185987
0.192280 0.502666 0.186605
0.207950 0.503504 0.187330
0.224646 0.504465 0.188164
0.242218 0.505549 0.189111
0.260543 0.506757 0.190174
0.279522 0.508091 0.191357
0.299078 0.509549 0.192660
0.319147 0.511131 0.194086
0.339679 0.512835 0.195637
0.360635 0.514659 0.197313
0.381983 0.516599 0.199117
0.403697 0.518654 0.201047
0.425755 0.520819 0.203105
0.448140 0.523090 0.205290
0.470836 0.525463 0.207602
0.493819 0.527954 0.209499
0.517165 0.530670 0.206834
0.541150 0.533426 0.202110
0.565898 0.536171 0.194591
0.591555 0.538844 0.183174
0.618296 0.541361 0.166038
0.645276 0.543711 0.153104
0.672134 0.546009 0.146317
0.698596 0.548371 0.146725
0.725239 0.550737 0.146991
0.752052 0.553101 0.147118
0.140155 0.531679 0.194253
0.144903 0.531844 0.194400
0.150097 0.532030 0.194566
0.157250 0.532298 0.194804
0.166371 0.532655 0.195124
0.177320 0.533110 0.195531
0.189911 0.533666 0.196031
0.203944 0.534330 0.196629
0.219225 0.535103 0.197329
0.235582 0.535989 0.198135
0.252862 0.536991 0.199051
0.270941 0.538108 0.200078
0.289714 0.539341 0.201221
0.309097 0.540692 0.202481
0.329020 0.542158 0.203859
0.349428 0.543740 0.205358
0.370276 0.545434 0.206979
0.391528 0.547238 0.208723
0.413153 0.549151 0.210589
0.435134 0.551167 0.212556
0.457458 0.553280 0.214596
0.480107 0.555486 0.216701
0.503066 0.557779 0.218864
0.526320 0.560156 0.221075
0.549926 0.562819 0.216276
0.574241 0.565500 0.208648
0.599416 0.568142 0.197107
0.625626 0.570671 0.179897
0.653076 0.572989 0.153718
0.679713 0.575162 0.147069
0.706092 0.577354 0.147130
0.732630 0.579550 0.147083
0.759314 0.581746 0.146937
0.154359 0.563585 0.204556
0.158829 0.563738 0.204698
0.163738 0.563910 0.204859
0.170528 0.564156 0.205089
0.179233 0.564485 0.205397
0.189742 0.564905 0.205790
0.201895 0.565418 0.206272
0.215513 0.566031 0.206849
0.230414 0.566745 0.207525
0.246432 0.567564 0.208303
0.263416 0.568489 0.209186
0.281240 0.569522 0.210178
0.299795 0.570664 0.211278
0.318999 0.571913 0.212475
0.338779 0.573270 0.213767
0.359074 0.574731 0.215149
0.379835 0.576297 0.216618
0.401022 0.577964 0.218169
0.422601 0.579729 0.219798
0.444544 0.581590 0.221500
0.466827 0.583542 0.223270
0.489431 0.585582 0.225102
0.512336 0.587704 0.226992
0.535528 0.589904 0.228936
0.558991 0.592178 0.230928
0.582813 0.594770 0.224136
0.607425 0.597381 0.212788
0.633015 0.599920 0.195924
0.659788 0.602299 0.170554
0.687077 0.604412 0.147006
0.713354 0.606434 0.146830
0.739767 0.608462 0.146590
0.766307 0.610490 0.146301
0.168363 0.595471 0.214912
0.172595 0.595611 0.215042
0.177258 0.595769 0.215188
0.183731 0.595995 0.215397
0.192068 0.596298 0.215677
0.202183 0.596683 0.216033
0.213940 0.597155 0.216467
0.227178 0.597717 0.216984
0.241729 0.598373 0.217585
0.257435 0.599125 0.218271
0.274148 0.599974 0.219044
0.291742 0.600922 0.219903
0.310106 0.601969 0.220847
0.329147 0.603116 0.221876
0.348787 0.604361 0.222988
0.368963 0.605705 0.224180
0.389619 0.607144 0.225450
0.410712 0.608677 0.226796
0.432205 0.610302 0.228213
0.454064 0.612016 0.229699
0.476265 0.613815 0.231251
0.498783 0.615696 0.232865
0.521599 0.617654 0.234538
