RedKomodo_Cinematic_Teal_v3.cube
TITLE "Red Komodo X - Cinematic Teal v3"
# v3: balanced - between v1 (soft) and v2 (too dark)
# -0.55 stops exposure, moderate black crush, medium teal, warm skin protected
LUT_3D_SIZE 9
0.000000 0.057386 0.124232
0.000000 0.058445 0.124784
0.051216 0.061647 0.126462
0.166035 0.066982 0.129328
0.255373 0.073704 0.133141
0.104189 0.063539 0.127458
0.314584 0.078313 0.135845
0.465410 0.086682 0.139761
0.606197 0.082961 0.133811
0.000000 0.093390 0.126400
0.000000 0.094677 0.127045
0.060765 0.097371 0.128640
0.169053 0.101394 0.131325
0.256999 0.106388 0.134835
0.169492 0.080121 0.130102
0.337434 0.101265 0.137577
0.478772 0.113787 0.140146
0.615509 0.115324 0.132639
0.000000 0.155770 0.131709
0.000000 0.156377 0.132264
0.074486 0.157847 0.133636
0.000000 0.061681 0.124577
0.100826 0.102319 0.129635
0.250901 0.133026 0.136251
0.380339 0.155326 0.140923
0.507103 0.170557 0.140365
0.636456 0.177433 0.129281
0.000000 0.139965 0.130200
0.000000 0.145952 0.130952
0.000000 0.159208 0.132838
0.110304 0.177838 0.136069
0.215254 0.198528 0.140427
0.319577 0.218772 0.144527
0.429487 0.236447 0.144335
0.544780 0.250793 0.139058
0.666359 0.260522 0.124038
0.000000 0.279453 0.145667
0.003577 0.281751 0.146219
0.103248 0.287288 0.147594
0.191321 0.296216 0.149956
0.280221 0.307913 0.152887
0.374092 0.321396 0.153989
0.475969 0.334961 0.146891
0.584331 0.347792 0.138410
0.697824 0.359818 0.130941
0.068702 0.405227 0.162117
0.106296 0.406566 0.162661
0.170014 0.409894 0.164080
0.246480 0.415569 0.166763
0.330037 0.423588 0.171260
0.418957 0.433924 0.175654
0.515178 0.445873 0.167237
0.620516 0.457201 0.148054
0.729275 0.468275 0.143193
0.140155 0.531679 0.194253
0.166371 0.532655 0.195124
0.219225 0.535103 0.197329
0.289714 0.539341 0.201221
0.370276 0.545434 0.206979
0.457458 0.553280 0.214596
0.549926 0.562819 0.216276
0.653076 0.572989 0.153718
0.759314 0.581746 0.146937
0.198300 0.658827 0.233017
0.219753 0.659516 0.233590
0.266132 0.661245 0.235025
0.331881 0.664248 0.237513
0.409670 0.668579 0.241105
0.495068 0.674178 0.245806
0.585666 0.680886 0.251648
0.680269 0.688879 0.242145
0.784982 0.696814 0.144966
0.258706 0.782446 0.264265
0.276299 0.782902 0.264736
0.316177 0.784050 0.265914
0.375679 0.786054 0.267951
0.448700 0.788971 0.270903
0.530525 0.792788 0.274841
0.618120 0.797434 0.279963
0.709710 0.802739 0.285917
0.804513 0.809066 0.267312
0.000000 0.057386 0.124232
0.000000 0.058897 0.143039
0.052631 0.062087 0.146355
0.166363 0.067406 0.149419
0.255482 0.074122 0.153059
0.113266 0.064053 0.132440
0.317104 0.078749 0.147970
0.466695 0.087159 0.157051
0.606927 0.083598 0.156551
0.000000 0.093875 0.146275
0.000000 0.095092 0.147064
0.061472 0.097714 0.148751
0.169309 0.101701 0.151301
0.257099 0.106687 0.154585
0.174383 0.080968 0.137666
0.339472 0.101819 0.151033
0.479889 0.114290 0.158322
0.616159 0.115899 0.156258
0.000000 0.155989 0.151648
0.000000 0.156589 0.152154
0.074963 0.158047 0.153393
0.000000 0.064409 0.125738
0.106081 0.103864 0.136798
0.253127 0.133925 0.148296
0.381640 0.155940 0.157078
0.507917 0.171059 0.160581
0.636946 0.177944 0.155104
0.000000 0.142162 0.137863
0.000000 0.147972 0.139247
0.000000 0.160878 0.142560
0.112393 0.179101 0.147832
0.216687 0.199443 0.154476
0.320642 0.219439 0.160991
0.430231 0.236969 0.163902
0.545284 0.251247 0.162446
0.666823 0.260842 0.153069
0.000000 0.280282 0.161627
0.005059 0.282554 0.162362
0.104268 0.288031 0.164174
0.192120 0.296873 0.167220
0.280931 0.308471 0.171117
0.374693 0.321863 0.173819
0.476386 0.335371 0.170115
0.584594 0.348184 0.165487
0.698232 0.360060 0.161130
0.069655 0.405707 0.181652
0.107020 0.407039 0.182251
0.170568 0.410351 0.183799
0.246952 0.416002 0.186668
0.330465 0.423992 0.191339
0.419347 0.434292 0.196323
0.515459 0.446194 0.190991
0.620644 0.457503 0.177127
0.729573 0.468480 0.173607
0.140593 0.532028 0.213943
0.166765 0.533002 0.214786
0.219567 0.535442 0.216920
0.290023 0.539668 0.220683
0.370567 0.545743 0.226243
0.457742 0.553567 0.233579
0.550197 0.563069 0.235955
0.653182 0.573181 0.185022
0.759532 0.581904 0.178820
0.198685 0.659073 0.251394
0.220110 0.659760 0.251949
0.266447 0.661485 0.253342
0.332158 0.664479 0.255758
0.409921 0.668799 0.259247
0.495299 0.674384 0.263812
0.585879 0.681075 0.269478
0.680454 0.689042 0.261331
0.785126 0.696927 0.179021
0.259006 0.782609 0.281650
0.276584 0.783064 0.282101
0.316437 0.784209 0.283231
0.375911 0.786210 0.285185
0.448909 0.789120 0.288020
0.530712 0.792930 0.291800
0.618286 0.797566 0.296710
0.709860 0.802859 0.302395
0.804641 0.809169 0.285503
0.000000 0.058781 0.180286
0.000000 0.060048 0.184300
0.055587 0.063193 0.188061
0.167188 0.068444 0.191134
0.255751 0.075193 0.194428
0.133181 0.065361 0.146840
0.323248 0.079874 0.176165
0.469874 0.088404 0.194571
0.608740 0.085263 0.203173
0.000000 0.094988 0.187971
0.000000 0.096084 0.188835
0.063167 0.098562 0.190529
0.169974 0.102459 0.192813
0.257353 0.107456 0.195708
0.185883 0.083072 0.157196
0.344468 0.103231 0.181674
0.482660 0.115589 0.197392
0.617777 0.117393 0.204267
0.000000 0.156535 0.193122
0.000000 0.157120 0.193552
0.076163 0.158548 0.194588
0.000000 0.071131 0.131928
0.118154 0.107622 0.155546
0.258564 0.136156 0.176313
0.384861 0.157494 0.192580
0.509943 0.172348 0.203154
0.638165 0.179266 0.206490
0.000000 0.147462 0.157587
0.000000 0.152863 0.160191
0.000000 0.164949 0.166230
0.117463 0.182210 0.175331
0.220228 0.201716 0.186180
0.323292 0.221112 0.197085
0.432090 0.238296 0.205426
0.546544 0.252410 0.210268
0.667549 0.262026 0.209827
0.000000 0.282350 0.196859
0.008840 0.284558 0.197932
0.106818 0.289890 0.200548
0.194124 0.298521 0.204855
0.282717 0.309875 0.210514
0.376205 0.323045 0.216040
0.477434 0.336416 0.217899
0.585252 0.349190 0.219219
0.699262 0.360674 0.219490
0.072037 0.406919 0.223586
0.108842 0.408235 0.224296
0.171965 0.411508 0.226107
0.248144 0.417098 0.229370
0.331546 0.425016 0.234459
0.420330 0.435226 0.240578
0.516172 0.447011 0.240351
0.620967 0.458276 0.234437
0.730329 0.469001 0.232988
0.141704 0.532913 0.256825
0.167766 0.533879 0.257634
0.220436 0.536301 0.259678
0.290806 0.540495 0.263272
0.371305 0.546527 0.268562
0.458464 0.554296 0.275490
0.550889 0.563705 0.279190
0.653454 0.573675 0.246111
0.760082 0.582303 0.240670
0.199664 0.659698 0.292410
0.221019 0.660380 0.292940
0.267247 0.662092 0.294271
0.332864 0.665067 0.296578
0.410559 0.669358 0.299912
0.495886 0.674906 0.304269
0.586418 0.681553 0.309656
0.680917 0.689446 0.304369
0.785491 0.697212 0.244038
0.259772 0.783023 0.321078
0.277314 0.783475 0.321495
0.317100 0.784614 0.322539
0.376503 0.786604 0.324348
0.449439 0.789499 0.326973
0.531186 0.793288 0.330474
0.618708 0.797900 0.334994
0.710241 0.803161 0.340181
0.804967 0.809432 0.326591
0.000000 0.060828 0.240228
0.000000 0.062067 0.242303
0.059588 0.065119 0.245173
0.168564 0.070217 0.247870
0.256220 0.077133 0.250521
0.161218 0.067688 0.176339
0.333342 0.081955 0.220120
0.475242 0.090746 0.248270
0.611825 0.088387 0.266091
0.000000 0.096721 0.245095
0.000000 0.097698 0.245848
0.065921 0.100007 0.247342
0.171140 0.103758 0.249301
0.000000 0.062044 0.137051
0.203669 0.086653 0.192091
0.352749 0.105770 0.228172
0.487354 0.117984 0.252699
0.620532 0.120177 0.268531
0.000000 0.157475 0.249559
0.000000 0.158038 0.249916
0.078258 0.159420 0.250765
0.000000 0.081878 0.152236
0.136218 0.113764 0.189641
0.267527 0.139956 0.220012
0.390298 0.160242 0.244117
0.513398 0.174686 0.262076
0.640241 0.181701 0.273973
0.000000 0.156014 0.192700
0.000000 0.160804 0.196575
0.001378 0.171645 0.205445
0.125745 0.187408 0.218526
0.226210 0.205582 0.233746
0.327818 0.224018 0.249295
0.435280 0.240655 0.263294
0.548706 0.254515 0.274522
0.668780 0.264194 0.282296
0.000000 0.285895 0.248276
0.015609 0.287998 0.249719
0.111204 0.293091 0.253218
0.197601 0.301371 0.258928
0.285830 0.312320 0.266506
0.378845 0.325129 0.275015
0.479260 0.338294 0.282370
0.586384 0.351016 0.289446
0.700842 0.361893 0.294727
0.076129 0.409043 0.282677
0.112011 0.410331 0.283528
0.174411 0.413538 0.285674
0.250232 0.419026 0.289466
0.333440 0.426822 0.295177
0.422058 0.436883 0.302637
0.517435 0.448476 0.307427
0.621538 0.459679 0.308781
0.731664 0.469917 0.309743
0.143667 0.534475 0.318012
0.169538 0.535427 0.318808
0.221973 0.537817 0.320816
0.292193 0.541956 0.324333
0.372612 0.547912 0.329480
0.459745 0.555581 0.336136
0.552119 0.564833 0.341360
0.653946 0.574576 0.324640
0.761055 0.583008 0.320162
0.201404 0.660800 0.352472
0.222635 0.661474 0.352987
0.268670 0.663166 0.354277
0.334117 0.666105 0.356515
0.411691 0.670345 0.359746
0.496925 0.675828 0.363957
0.587372 0.682400 0.369134
0.681726 0.690143 0.367550
0.786137 0.697716 0.326567
0.261147 0.783754 0.379882
0.278623 0.784202 0.380265
0.318289 0.785331 0.381226
0.377562 0.787301 0.382893
0.450383 0.790169 0.385313
0.532028 0.793923 0.388536
0.619460 0.798491 0.392648
0.710916 0.803697 0.397301
0.805546 0.809899 0.387551
0.000000 0.063810 0.307604
0.000000 0.064994 0.308700
0.064236 0.067910 0.310619
0.170419 0.072792 0.312750
0.000000 0.057954 0.131559
0.192884 0.071146 0.224100
0.346744 0.085314 0.277085
0.482661 0.094562 0.312751
0.616135 0.093442 0.338206
0.000000 0.099029 0.310561
0.000000 0.099915 0.311131
0.069660 0.102067 0.312319
0.172803 0.105647 0.313924
0.016374 0.069487 0.176173
0.225711 0.091648 0.243044
0.363816 0.109773 0.286929
0.493875 0.121781 0.318473
0.624384 0.124644 0.341749
0.000000 0.158827 0.314135
0.000000 0.159363 0.314427
0.000000 0.067636 0.144210
0.000000 0.095308 0.194969
0.157857 0.121905 0.240123
0.279527 0.145321 0.276694
0.397821 0.164346 0.306715
0.518243 0.178312 0.330818
0.643145 0.185555 0.349827
0.000000 0.167147 0.243811
0.000000 0.171225 0.248484
0.019255 0.180587 0.259193
0.136748 0.194509 0.275018
0.234524 0.210985 0.293468
0.334196 0.228231 0.312475
0.439808 0.244200 0.331077
0.551768 0.257762 0.347740
0.670485 0.267597 0.362251
0.000000 0.290921 0.311107
0.025857 0.292885 0.312858
0.117461 0.297656 0.317104
0.202620 0.305464 0.324029
0.290328 0.315875 0.333215
0.382691 0.328214 0.344125
0.481908 0.341156 0.355870
0.587993 0.353845 0.367847
0.701502 0.364752 0.378944
0.081950 0.412156 0.352459
0.116597 0.413406 0.353452
0.177982 0.416521 0.355945
0.253287 0.421867 0.360298
0.336207 0.429494 0.366719
0.424617 0.439347 0.375358
0.519321 0.450701 0.384051
0.622385 0.461844 0.391124
0.732999 0.471551 0.395859
0.146582 0.536784 0.390623
0.172173 0.537717 0.391432
0.224264 0.540059 0.393470
0.294258 0.544119 0.397024
0.374555 0.549964 0.402192
0.461658 0.557485 0.408777
0.553963 0.566515 0.415355
0.654704 0.575979 0.410996
0.762495 0.584048 0.408243
0.204010 0.662434 0.425026
0.225057 0.663096 0.425538
0.270803 0.664757 0.426825
0.335994 0.667643 0.429056
0.413382 0.671808 0.432273
0.498474 0.677195 0.436455
0.588790 0.683655 0.441560
0.682935 0.691188 0.443211
0.787101 0.698465 0.417295
0.263234 0.784842 0.451898
0.280608 0.785284 0.452257
0.320087 0.786396 0.453160
0.379159 0.788338 0.454726
0.451802 0.791166 0.457002
0.533287 0.794868 0.460026
0.620586 0.799368 0.463810
0.711925 0.804492 0.468029
0.806414 0.810600 0.461853
0.000000 0.067686 0.378513
0.000000 0.068798 0.379143
0.069506 0.071545 0.380405
0.172733 0.076162 0.382005
0.012614 0.062534 0.199187
0.224855 0.075767 0.289034
0.362291 0.090524 0.344382
0.491722 0.100358 0.384696
0.621454 0.101016 0.415878
0.000000 0.101902 0.380364
0.000000 0.102719 0.380774
0.074336 0.104732 0.381670
0.000000 0.058745 0.134977
0.099113 0.078451 0.241696
0.249794 0.097823 0.308577
0.376972 0.115428 0.355131
0.501889 0.127385 0.391290
0.629141 0.131301 0.420252
0.000000 0.066142 0.150727
0.000000 0.073385 0.170962
0.000000 0.089097 0.211416
0.048532 0.109874 0.259910
0.180843 0.131435 0.305533
0.294072 0.151797 0.344400
0.407043 0.169979 0.377147
0.524272 0.183519 0.405744
0.646727 0.191219 0.430348
0.000000 0.179899 0.309378
0.000000 0.183271 0.314276
0.042488 0.191132 0.325604
0.149723 0.203114 0.342601
0.244790 0.217719 0.362784
0.342540 0.233540 0.383830
0.445547 0.249094 0.405076
0.555628 0.262389 0.426062
0.672554 0.272546 0.446000
0.000000 0.297292 0.382415
0.040036 0.299093 0.384380
0.125471 0.303488 0.389158
0.209131 0.310738 0.396978
0.296183 0.320512 0.407401
0.387873 0.332302 0.419800
0.485366 0.345175 0.434318
0.590032 0.357892 0.450358
0.702285 0.368844 0.466121
0.089353 0.416279 0.429259
0.122554 0.417482 0.430380
0.182674 0.420485 0.433189
0.257307 0.425658 0.438068
0.339846 0.433081 0.445187
0.428050 0.442667 0.454593
0.521890 0.453802 0.465684
0.623530 0.464929 0.477023
0.733016 0.474652 0.486725
0.150506 0.539877 0.470390
0.175730 0.540786 0.471227
0.227360 0.543065 0.473332
0.297046 0.547020 0.476994
0.377201 0.552714 0.482267
0.464255 0.560039 0.488932
0.556481 0.568795 0.496467
0.655780 0.578007 0.500491
0.762799 0.585966 0.502797
0.207559 0.664628 0.505445
0.228359 0.665273 0.505967
0.273710 0.666893 0.507277
0.338547 0.669709 0.509547
0.415676 0.673773 0.512817
0.500568 0.679033 0.517056
0.590700 0.685343 0.522198
0.684579 0.692614 0.526299
0.787944 0.699529 0.513744
0.266125 0.786309 0.532348
0.283356 0.786742 0.532694
0.322571 0.787832 0.533562
0.381354 0.789737 0.535071
0.453740 0.792510 0.537263
0.534995 0.796143 0.540169
0.622123 0.800549 0.543704
0.713292 0.805562 0.547610
0.807598 0.811557 0.544536
0.000000 0.072367 0.451285
0.000000 0.073400 0.451676
0.075507 0.075956 0.452525
0.000000 0.059037 0.167380
0.111745 0.068748 0.290842
0.255258 0.081501 0.367621
0.379908 0.096147 0.420912
0.501853 0.108792 0.462046
0.627438 0.111799 0.497167
0.000000 0.105335 0.452497
0.000000 0.106094 0.452789
0.000000 0.058117 0.132895
0.000000 0.071884 0.243442
0.148687 0.088242 0.325517
0.274154 0.104961 0.386034
0.392293 0.121572 0.431751
0.510918 0.135332 0.469099
0.634494 0.140775 0.502109
0.000000 0.093247 0.254764
0.000000 0.098156 0.269442
0.000000 0.109060 0.300510
0.092550 0.124466 0.341289
0.203685 0.141757 0.383128
0.310107 0.159223 0.421267
0.418396 0.176285 0.454441
0.531163 0.190702 0.484805
0.650743 0.199197 0.513637
0.000000 0.193370 0.386801
0.000000 0.196115 0.391513
0.065746 0.202607 0.402547
0.163954 0.212752 0.419453
0.256545 0.225503 0.440053
0.352541 0.239762 0.462107
0.453099 0.254856 0.484152
0.560105 0.268716 0.507427
0.674806 0.279448 0.531695
0.000537 0.304791 0.460607
0.056366 0.306421 0.462691
0.135028 0.310417 0.467776
0.217006 0.317070 0.476156
0.303295 0.326154 0.487421
0.394379 0.337285 0.500936
0.490170 0.350190 0.516230
0.592467 0.363375 0.534784
0.703113 0.374440 0.554360
0.098071 0.421394 0.511291
0.129727 0.422544 0.512518
0.188399 0.425424 0.515591
0.262224 0.430407 0.520921
0.344295 0.437604 0.528660
0.432328 0.446840 0.538575
0.525449 0.457781 0.550221
0.625011 0.469125 0.564117
0.733002 0.478902 0.577854
0.155465 0.543758 0.555064
0.180239 0.544636 0.555935
0.231293 0.546840 0.558119
0.300590 0.550665 0.561908
0.380598 0.556165 0.567296
0.467570 0.563249 0.574108
0.559709 0.571706 0.582049
0.657252 0.580820 0.590569
0.762453 0.588876 0.597838
0.212101 0.667386 0.591046
0.232589 0.668011 0.591582
0.277437 0.669580 0.592926
0.341814 0.672308 0.595256
0.418599 0.676247 0.598610
0.503225 0.681347 0.602947
0.593111 0.687471 0.608181
0.686714 0.694459 0.613783
0.787867 0.701193 0.613278
0.269897 0.788165 0.618253
0.286938 0.788587 0.618592
0.325801 0.789650 0.619442
0.384194 0.791507 0.620921
0.456229 0.794213 0.623070
0.537180 0.797756 0.625902
0.624092 0.802040 0.629239
0.715034 0.806915 0.632921
0.809066 0.812714 0.633774
0.000000 0.077738 0.525122
0.000000 0.078688 0.525381
0.000000 0.060187 0.210701
0.005550 0.066676 0.311687
0.164107 0.076228 0.393038
0.283310 0.088244 0.456206
0.398628 0.102085 0.505410
0.513885 0.117477 0.544771
0.633664 0.126518 0.580710
0.000000 0.063873 0.207698
0.000000 0.066948 0.236773
0.000000 0.074183 0.292873
0.060693 0.085155 0.358813
0.186277 0.098417 0.420406
0.297749 0.112833 0.472726
0.409056 0.127897 0.515928
0.521847 0.143693 0.551903
0.640056 0.153789 0.585981
0.000000 0.115809 0.366648
0.000000 0.119170 0.377125
0.000124 0.126912 0.400474
0.124933 0.138509 0.433491
0.225612 0.152417 0.470084
0.326876 0.167349 0.505751
0.431652 0.182699 0.538475
0.539882 0.198555 0.568017
0.654876 0.210120 0.598400
0.000000 0.206909 0.473425
0.000000 0.209134 0.477740
0.086948 0.214469 0.487976
0.178901 0.223000 0.504007
0.269346 0.234050 0.524096
0.363720 0.246819 0.546249
0.462806 0.260788 0.569009
0.566185 0.275961 0.591774
0.677066 0.288720 0.618005
0.020928 0.313177 0.544721
0.073024 0.314640 0.546844
0.145883 0.318245 0.552046
0.226059 0.324307 0.560687
0.311499 0.332703 0.572432
0.401911 0.343176 0.586687
0.496983 0.355570 0.602969
0.596325 0.369775 0.620889
0.703894 0.381884 0.642361
0.107741 0.427462 0.597699
0.137856 0.428559 0.599008
0.194980 0.431313 0.602287
0.267889 0.436105 0.607978
0.349567 0.443001 0.616116
0.437435 0.451824 0.626411
0.530364 0.462326 0.638485
0.627737 0.474165 0.651805
0.732952 0.484575 0.667918
0.161454 0.548403 0.643496
0.185705 0.549246 0.644395
0.236089 0.551359 0.646645
0.304975 0.555023 0.650513
0.384778 0.560296 0.656010
0.471618 0.567096 0.662972
0.563609 0.575228 0.671104
0.659652 0.584418 0.680041
0.762102 0.592838 0.690844
0.217661 0.670695 0.680332
0.237773 0.671295 0.680882
0.282007 0.672804 0.682261
0.345810 0.675427 0.684651
0.422159 0.679218 0.688087
0.506441 0.684129 0.692523
0.596012 0.690030 0.697854
0.689405 0.696765 0.703871
0.787982 0.703583 0.709657
0.274607 0.790407 0.707857
0.291408 0.790816 0.708192
0.329819 0.791847 0.709032
0.387706 0.793647 0.710494
0.459281 0.796272 0.712619
0.539883 0.799699 0.715358
0.626508 0.803835 0.718539
0.717183 0.808580 0.722079
0.810932 0.814208 0.725422
0.000000 0.064393 0.319169
0.000000 0.065832 0.340714
0.000000 0.069472 0.385439
0.089835 0.075776 0.442757
0.202031 0.084696 0.500328
0.308896 0.095868 0.551935
0.417464 0.108904 0.596224
0.528438 0.123765 0.634116
0.641631 0.141212 0.667307
0.000000 0.081563 0.383975
0.000000 0.083853 0.398730
0.000000 0.089286 0.430885
0.112840 0.097836 0.474879
0.216969 0.108749 0.521952
0.320114 0.121270 0.566411
0.426228 0.134981 0.606142
0.535461 0.149986 0.641200
0.647341 0.167177 0.672677
0.000000 0.134722 0.480548
0.000000 0.137138 0.488274
0.045928 0.142855 0.506091
0.151659 0.151810 0.532689
0.246360 0.163142 0.564069
0.343860 0.175977 0.596544
0.445703 0.189835 0.627914
0.551571 0.204820 0.657437
0.660670 0.221816 0.685459
0.000000 0.220143 0.567033
0.009025 0.221958 0.570885
0.106941 0.226360 0.580130
0.194221 0.233551 0.594913
0.282827 0.243134 0.613950
0.375756 0.254575 0.635578
0.473445 0.267533 0.658446
0.575433 0.282127 0.681882
0.681038 0.298696 0.705694
0.045808 0.322236 0.634066
0.089877 0.323546 0.636168
0.157761 0.326794 0.641343
0.236069 0.332310 0.650013
0.320586 0.340069 0.661937
0.410267 0.349939 0.676604
0.504560 0.361880 0.693547
0.603355 0.375436 0.711920
0.706296 0.390075 0.730852
0.117898 0.434445 0.688054
0.146566 0.435493 0.689420
0.202155 0.438126 0.692840
0.274270 0.442674 0.698709
0.355646 0.449190 0.707032
0.443318 0.457568 0.717577
0.536028 0.467588 0.729946
0.633216 0.478880 0.743456
0.734325 0.491013 0.757315
0.168565 0.553757 0.735048
0.192254 0.554557 0.735958
0.241894 0.556563 0.738233
0.310255 0.560045 0.742148
0.389759 0.565061 0.747720
0.476399 0.571541 0.754789
0.568181 0.579306 0.763061
0.663940 0.588098 0.772161
0.762740 0.597617 0.781709
0.224229 0.674520 0.772457
0.243908 0.675093 0.773017
0.287419 0.676533 0.774421
0.350531 0.679037 0.776854
0.426341 0.682657 0.780350
0.510194 0.687351 0.784856
0.599375 0.693000 0.790252
0.692600 0.699513 0.796184
0.788799 0.706773 0.802352
0.280273 0.793023 0.800117
0.296782 0.793417 0.800448
0.334637 0.794410 0.801280
0.391891 0.796146 0.802728
0.462921 0.798671 0.804808
0.543122 0.801956 0.807426
0.629371 0.805920 0.810468
0.719762 0.810578 0.813961
0.813251 0.816108 0.818184
