RedKomodo_Cinematic_Teal.cube
TITLE "Red Komodo X - Cinematic Teal Shadow"
# Apply AFTER Color Space Transform (REDWideGamutRGB/Log3G10 > Rec.709) in DaVinci Resolve
LUT_3D_SIZE 9
0.000000 0.036213 0.091980
0.000000 0.036813 0.092301
0.078237 0.041298 0.094668
0.185381 0.049644 0.099218
0.286300 0.061872 0.106218
0.389248 0.077183 0.115353
0.496493 0.094917 0.126277
0.608995 0.115178 0.139565
0.726776 0.139638 0.158500
0.000000 0.073311 0.094496
0.000000 0.076528 0.095459
0.098127 0.083011 0.098013
0.196760 0.092079 0.102683
0.294674 0.103385 0.109576
0.396174 0.116809 0.118468
0.502614 0.132331 0.129208
0.614556 0.150407 0.142702
0.731783 0.172719 0.162648
0.000000 0.152431 0.103174
0.020859 0.154409 0.104198
0.124306 0.159062 0.106779
0.217145 0.166410 0.111270
0.312150 0.176076 0.117727
0.411833 0.187800 0.126103
0.517012 0.201601 0.136719
0.627841 0.218044 0.151339
0.743863 0.238168 0.173042
0.005145 0.248825 0.118053
0.070327 0.250245 0.118968
0.154849 0.253745 0.121267
0.243616 0.259656 0.125288
0.336970 0.267953 0.131241
0.435509 0.278569 0.139562
0.539520 0.291641 0.151550
0.648865 0.307600 0.169524
0.763272 0.325553 0.190784
0.077906 0.357196 0.138372
0.120356 0.358384 0.139282
0.191250 0.361368 0.141637
0.275576 0.366574 0.146013
0.367301 0.374201 0.153176
0.464786 0.384411 0.164386
0.567722 0.396886 0.178935
0.675714 0.411189 0.196133
0.787893 0.426813 0.215606
0.136961 0.477798 0.173146
0.168846 0.478866 0.174339
0.230607 0.481550 0.177354
0.310532 0.486221 0.182662
0.400471 0.492978 0.190483
0.497088 0.501740 0.200885
0.598895 0.512245 0.213794
0.704844 0.524053 0.228977
0.813710 0.536539 0.245944
0.191431 0.606281 0.218305
0.217613 0.607108 0.219323
0.272384 0.609182 0.221896
0.347612 0.612769 0.226417
0.434776 0.617902 0.233058
0.529261 0.624435 0.241846
0.628685 0.632020 0.252233
0.731448 0.640153 0.263408
0.836154 0.648282 0.274188
0.245027 0.733450 0.262888
0.266997 0.733946 0.263558
0.315290 0.735179 0.265220
0.384820 0.737275 0.268045
0.467695 0.740191 0.271993
0.558564 0.743737 0.276918
0.654112 0.747586 0.282654
0.752251 0.751509 0.289186
0.852489 0.756189 0.297004
0.303898 0.848813 0.293338
0.321752 0.849048 0.293767
0.362582 0.849646 0.294864
0.424082 0.850716 0.296838
0.499989 0.852335 0.299871
0.585173 0.854574 0.304204
0.676287 0.857503 0.310216
0.771348 0.861179 0.318195
0.869227 0.865635 0.328201
0.000000 0.036270 0.094584
0.000000 0.037347 0.104940
0.081029 0.041909 0.115479
0.186701 0.050270 0.123254
0.287204 0.062456 0.132009
0.389974 0.077708 0.142023
0.497125 0.095389 0.153318
0.609566 0.115625 0.166557
0.727289 0.140114 0.184668
0.000000 0.074472 0.115079
0.000000 0.077505 0.117150
0.099559 0.083769 0.121498
0.197747 0.092691 0.127799
0.295456 0.103905 0.135791
0.396844 0.117266 0.145294
0.503215 0.132747 0.156280
0.615106 0.150811 0.169612
0.732280 0.173147 0.188541
0.000000 0.153114 0.128403
0.022088 0.155060 0.129640
0.125113 0.159648 0.132652
0.217826 0.166923 0.137648
0.312769 0.176526 0.144520
0.412410 0.188202 0.153141
0.517553 0.201975 0.163762
0.628344 0.218416 0.177903
0.744324 0.238535 0.198232
0.006262 0.249310 0.144861
0.071215 0.250721 0.145814
0.155447 0.254201 0.148194
0.244140 0.260084 0.152312
0.337469 0.268351 0.158320
0.435991 0.278943 0.166554
0.539981 0.292003 0.178104
0.649301 0.307950 0.194949
0.763674 0.325873 0.214826
0.078737 0.357600 0.165388
0.120984 0.358785 0.166279
0.191735 0.361762 0.168577
0.276002 0.366958 0.172810
0.367702 0.374576 0.179646
0.465174 0.384773 0.190160
0.568100 0.397222 0.203737
0.676073 0.411497 0.219839
0.788219 0.427089 0.238124
0.137477 0.478162 0.198330
0.169297 0.479227 0.199443
0.230988 0.481905 0.202260
0.310874 0.486564 0.207222
0.400794 0.493306 0.214543
0.497398 0.502047 0.224297
0.599190 0.512526 0.236421
0.705114 0.524304 0.250701
0.813943 0.536754 0.266665
0.191831 0.606563 0.240662
0.217978 0.607388 0.241619
0.272699 0.609456 0.244039
0.347888 0.613032 0.248293
0.435025 0.618149 0.254542
0.529488 0.624660 0.262812
0.628891 0.632219 0.272584
0.731629 0.640321 0.283102
0.836299 0.648418 0.293246
0.245372 0.733619 0.282612
0.267318 0.734113 0.283243
0.315569 0.735340 0.284808
0.385058 0.737427 0.287466
0.467897 0.740328 0.291182
0.558733 0.743856 0.295811
0.654246 0.747683 0.301190
0.752361 0.751596 0.307301
0.852588 0.756277 0.314649
0.304193 0.848893 0.311200
0.322029 0.849127 0.311603
0.362823 0.849726 0.312634
0.424283 0.850796 0.314492
0.500154 0.852416 0.317351
0.585310 0.854656 0.321442
0.676401 0.857586 0.327131
0.771446 0.861262 0.334686
0.869313 0.865718 0.344191
0.000000 0.037112 0.127432
0.000000 0.038954 0.147054
0.087043 0.043483 0.159549
0.189856 0.051856 0.171202
0.289441 0.063934 0.182566
0.391792 0.079036 0.194260
0.498719 0.096585 0.206643
0.611009 0.116765 0.220437
0.728587 0.141328 0.238023
0.000000 0.077121 0.158909
0.000000 0.079809 0.162189
0.102956 0.085625 0.168716
0.200164 0.094218 0.177287
0.297406 0.105215 0.187097
0.398527 0.118423 0.197911
0.504734 0.133804 0.209796
0.616497 0.151841 0.223505
0.733538 0.174232 0.241586
0.000000 0.154801 0.178063
0.025216 0.156671 0.179632
0.127124 0.161111 0.183350
0.219531 0.168213 0.189265
0.314329 0.177662 0.197053
0.413866 0.189222 0.206454
0.518922 0.202926 0.217591
0.629616 0.219365 0.231615
0.745490 0.239464 0.250458
0.009125 0.250531 0.197432
0.073446 0.251920 0.198486
0.156956 0.255351 0.201102
0.245465 0.261165 0.205564
0.338731 0.269358 0.211946
0.437212 0.279890 0.220434
0.541149 0.292923 0.231808
0.650404 0.308838 0.247456
0.764694 0.326686 0.265602
0.080824 0.358625 0.219251
0.122568 0.359802 0.220156
0.192966 0.362762 0.222472
0.277082 0.367934 0.226671
0.368717 0.375527 0.233283
0.466156 0.385691 0.243070
0.569059 0.398076 0.255489
0.676983 0.412277 0.270166
0.789042 0.427786 0.286764
0.138785 0.479083 0.250548
0.170440 0.480142 0.251566
0.231956 0.482803 0.254140
0.311741 0.487435 0.258670
0.401614 0.494136 0.265344
0.498185 0.502825 0.274219
0.599936 0.513239 0.285222
0.705796 0.524938 0.298134
0.814532 0.537297 0.312480
0.192846 0.607276 0.289062
0.218904 0.608095 0.289928
0.273500 0.610148 0.292117
0.348588 0.613697 0.295960
0.435656 0.618774 0.301598
0.530064 0.625232 0.309031
0.629413 0.632721 0.317779
0.732086 0.640746 0.327162
0.836664 0.648759 0.336176
0.246250 0.734046 0.326726
0.268134 0.734534 0.327288
0.316280 0.735747 0.328681
0.385663 0.737810 0.331047
0.468411 0.740675 0.334347
0.559161 0.744155 0.338442
0.654584 0.747925 0.343160
0.752642 0.751817 0.348492
0.852839 0.756501 0.354959
0.304942 0.849096 0.351916
0.322731 0.849330 0.352271
0.363435 0.849929 0.353180
0.424794 0.851001 0.354821
0.500575 0.852622 0.357352
0.585658 0.854864 0.360986
0.676691 0.857796 0.366059
0.771697 0.861473 0.372794
0.869532 0.865930 0.381320
0.000000 0.039880 0.200908
0.000000 0.041658 0.208768
0.095345 0.046328 0.221546
0.194901 0.054657 0.235236
0.293222 0.066533 0.248775
0.394941 0.081374 0.262371
0.501511 0.098704 0.276390
0.613549 0.118798 0.291497
0.730874 0.143494 0.309559
0.000000 0.081147 0.220826
0.000000 0.083460 0.224566
0.108331 0.088723 0.232262
0.204185 0.096850 0.242515
0.300746 0.107505 0.254088
0.401459 0.120462 0.266542
0.507400 0.135678 0.279898
0.618946 0.153681 0.294757
0.735757 0.176157 0.312993
0.000000 0.157651 0.243439
0.030798 0.159409 0.245304
0.130577 0.163622 0.249698
0.222482 0.170451 0.256610
0.317047 0.179653 0.265565
0.416420 0.191023 0.276178
0.521330 0.204615 0.288436
0.631857 0.221063 0.303158
0.747547 0.241114 0.321489
0.014306 0.252662 0.265996
0.077328 0.254015 0.267196
0.159614 0.257366 0.270161
0.247797 0.263065 0.275183
0.340953 0.271137 0.282273
0.439363 0.281572 0.291493
0.543207 0.294565 0.303354
0.652351 0.310412 0.318622
0.766492 0.328126 0.335823
0.084454 0.360436 0.290225
0.125353 0.361601 0.291196
0.195137 0.364533 0.293663
0.278986 0.369664 0.298073
0.370505 0.377219 0.304846
0.467893 0.387316 0.314419
0.570754 0.399587 0.326274
0.678588 0.413659 0.340103
0.790494 0.429021 0.355510
0.141097 0.480712 0.321575
0.172466 0.481759 0.322545
0.233672 0.484393 0.324993
0.313279 0.488975 0.329288
0.403064 0.495605 0.335581
0.499576 0.504200 0.343888
0.601253 0.514498 0.354089
0.706997 0.526059 0.365915
0.815569 0.538256 0.378827
0.194645 0.608536 0.357623
0.220545 0.609344 0.358418
0.274918 0.611369 0.360424
0.349830 0.614870 0.363936
0.436773 0.619876 0.369059
0.531083 0.626238 0.375749
0.630332 0.633604 0.383545
0.732893 0.641494 0.391811
0.837303 0.649357 0.399657
0.247819 0.734796 0.391429
0.269592 0.735274 0.391921
0.317549 0.736462 0.393141
0.386741 0.738481 0.395207
0.469323 0.741283 0.398076
0.559919 0.744680 0.401604
0.655179 0.748348 0.405602
0.753143 0.752211 0.410086
0.853286 0.756901 0.415596
0.306272 0.849458 0.412996
0.323978 0.849693 0.413299
0.364523 0.850293 0.414075
0.425701 0.851366 0.415478
0.501323 0.852989 0.417649
0.586275 0.855234 0.420779
0.677204 0.858171 0.425165
0.772142 0.861850 0.430965
0.869921 0.866308 0.438363
0.000000 0.044064 0.278074
0.000000 0.045910 0.283912
0.104773 0.050613 0.295213
0.201498 0.058794 0.309198
0.298502 0.070355 0.324026
0.399483 0.084826 0.339268
0.505600 0.101859 0.355043
0.617292 0.121863 0.371852
0.734257 0.146718 0.391089
0.000000 0.086280 0.294524
0.008061 0.088284 0.298163
0.115310 0.093024 0.306044
0.209697 0.100629 0.317097
0.305493 0.110854 0.329962
0.405716 0.123476 0.343965
0.511314 0.138477 0.358976
0.622558 0.156463 0.375416
0.739040 0.179030 0.394566
0.000000 0.161635 0.318114
0.039242 0.163261 0.320172
0.135513 0.167204 0.325054
0.226736 0.173694 0.332791
0.321005 0.182575 0.342865
0.420167 0.193693 0.354805
0.524879 0.207146 0.368479
0.635163 0.223637 0.384446
0.750592 0.243578 0.403108
0.022275 0.255768 0.343350
0.082958 0.257074 0.344702
0.163535 0.260318 0.348040
0.251240 0.265865 0.353688
0.344233 0.273776 0.361631
0.442539 0.284083 0.371848
0.546243 0.297039 0.384654
0.655234 0.312758 0.400235
0.769152 0.330274 0.417321
0.089708 0.363126 0.370454
0.129444 0.364275 0.371522
0.198347 0.367169 0.374224
0.281802 0.372248 0.379010
0.373144 0.379756 0.386230
0.470472 0.389733 0.396006
0.573266 0.401835 0.407880
0.680965 0.415714 0.421514
0.792637 0.430856 0.436409
0.144528 0.483131 0.403194
0.175482 0.484161 0.404163
0.236231 0.486753 0.406606
0.315571 0.491262 0.410872
0.405221 0.497786 0.417083
0.501641 0.506240 0.425204
0.603203 0.516365 0.435049
0.708771 0.527720 0.446273
0.817096 0.539672 0.458222
0.197322 0.610399 0.438425
0.222991 0.611191 0.439182
0.277033 0.613176 0.441088
0.351677 0.616606 0.444409
0.438431 0.621505 0.449220
0.532598 0.627722 0.455405
0.631692 0.634905 0.462520
0.734086 0.642595 0.469916
0.838239 0.650236 0.476804
0.250185 0.735895 0.469577
0.271790 0.736359 0.470014
0.319458 0.737510 0.471095
0.388357 0.739464 0.472919
0.470684 0.742171 0.475432
0.561042 0.745443 0.478477
0.656054 0.748961 0.481842
0.753897 0.752805 0.485623
0.853958 0.757504 0.490339
0.308259 0.850004 0.488106
0.325841 0.850239 0.488365
0.366149 0.850840 0.489031
0.427058 0.851916 0.490237
0.502440 0.853543 0.492108
0.587198 0.855793 0.494816
0.677974 0.858736 0.498614
0.772808 0.862417 0.503605
0.870504 0.866878 0.510014
0.000000 0.049945 0.362508
0.007383 0.051781 0.367045
0.114799 0.056386 0.376766
0.209285 0.064296 0.390190
0.305132 0.075434 0.405551
0.405389 0.089445 0.422016
0.511011 0.106133 0.439395
0.622278 0.126089 0.457969
0.738785 0.151076 0.478649
0.000000 0.092374 0.376141
0.019717 0.094146 0.379485
0.123549 0.098442 0.387053
0.216507 0.105535 0.398265
0.311571 0.115285 0.411905
0.411295 0.127519 0.427167
0.516508 0.142286 0.443748
0.627373 0.160312 0.461879
0.743435 0.182924 0.482259
0.000000 0.166657 0.399324
0.050110 0.168152 0.401479
0.141890 0.171814 0.406645
0.232276 0.177939 0.414962
0.326211 0.186459 0.425958
0.425139 0.197292 0.439132
0.529609 0.210607 0.454256
0.639571 0.227207 0.471685
0.754668 0.246919 0.491078
0.033526 0.259862 0.426491
0.090323 0.261114 0.427977
0.168774 0.264235 0.431655
0.255843 0.269605 0.437895
0.348615 0.277330 0.446688
0.446781 0.287501 0.457965
0.550293 0.300442 0.471907
0.659100 0.315933 0.488121
0.772712 0.333180 0.505571
0.096544 0.366759 0.456432
0.134866 0.367888 0.457607
0.202637 0.370740 0.460573
0.285564 0.375761 0.465801
0.376673 0.383208 0.473580
0.473940 0.392994 0.483751
0.576639 0.404870 0.495971
0.684148 0.418486 0.509801
0.795496 0.433330 0.524623
0.149145 0.486386 0.491166
0.179559 0.487394 0.492162
0.239699 0.489929 0.494666
0.318671 0.494340 0.499025
0.408131 0.500720 0.505331
0.504417 0.508985 0.513502
0.605816 0.518874 0.523283
0.711136 0.529948 0.534243
0.819126 0.541564 0.545579
0.200940 0.612896 0.526603
0.226300 0.613666 0.527345
0.279895 0.615595 0.529208
0.354173 0.618927 0.532439
0.440662 0.623683 0.537080
0.534637 0.629700 0.542934
0.633513 0.636636 0.549583
0.735679 0.644058 0.556318
0.839471 0.651397 0.562438
0.253435 0.737348 0.556012
0.274808 0.737792 0.556407
0.322075 0.738893 0.557380
0.390562 0.740760 0.559013
0.472528 0.743339 0.561238
0.562550 0.746443 0.563882
0.657226 0.749771 0.566712
0.754931 0.753622 0.569985
0.854875 0.758332 0.574124
0.310952 0.850755 0.572158
0.328368 0.850991 0.572386
0.368358 0.851594 0.572971
0.428903 0.852673 0.574034
0.503959 0.854305 0.575688
0.588450 0.856562 0.578088
0.679024 0.859512 0.581439
0.773716 0.863196 0.585816
0.871294 0.867660 0.591473
0.000000 0.057407 0.451976
0.022448 0.059173 0.455695
0.125347 0.063579 0.464158
0.218024 0.071116 0.476778
0.312950 0.081749 0.492201
0.412578 0.095250 0.509482
0.517712 0.111602 0.528202
0.628491 0.131620 0.548420
0.744459 0.156608 0.570496
0.000000 0.099373 0.463595
0.034638 0.100971 0.466634
0.132862 0.104901 0.473745
0.224447 0.111519 0.484780
0.318870 0.120789 0.498799
0.418142 0.132625 0.514994
0.522959 0.147186 0.532933
0.633374 0.165372 0.552671
0.748943 0.187883 0.574268
0.000000 0.172614 0.485847
0.062436 0.173989 0.488032
0.149641 0.177389 0.493330
0.239050 0.183156 0.502008
0.332628 0.191312 0.513696
0.431313 0.201865 0.527916
0.535506 0.215085 0.544377
0.645088 0.231798 0.563196
0.759778 0.251179 0.583439
0.048027 0.264926 0.514268
0.099330 0.266122 0.515864
0.175339 0.269116 0.519824
0.261609 0.274304 0.526575
0.354096 0.281843 0.536133
0.452078 0.291896 0.548416
0.555371 0.304789 0.563429
0.663952 0.319971 0.580370
0.777169 0.336873 0.598359
0.104815 0.371377 0.546746
0.141562 0.372488 0.548025
0.207990 0.375298 0.551252
0.290256 0.380269 0.556924
0.381134 0.387578 0.565185
0.478315 0.397124 0.575823
0.580882 0.408712 0.588498
0.688137 0.421995 0.602671
0.799061 0.436455 0.617602
0.154975 0.490493 0.583530
0.184734 0.491473 0.584562
0.244111 0.493937 0.587152
0.322609 0.498223 0.591645
0.411814 0.504421 0.598113
0.507915 0.512444 0.606428
0.609092 0.522031 0.616265
0.714083 0.532746 0.627106
0.821641 0.543927 0.637981
0.205528 0.616023 0.619571
0.230504 0.616765 0.620308
0.283532 0.618624 0.622153
0.357335 0.621831 0.625337
0.443492 0.626399 0.629859
0.537211 0.632160 0.635467
0.635818 0.638789 0.641735
0.737666 0.645869 0.647920
0.840977 0.652825 0.653358
0.257637 0.739136 0.647643
0.278709 0.739554 0.648000
0.325450 0.740592 0.648881
0.393390 0.742347 0.650347
0.474870 0.744763 0.652315
0.564443 0.747654 0.654593
0.658745 0.750818 0.656998
0.756267 0.754682 0.659925
0.856056 0.759408 0.663676
0.314380 0.851730 0.661889
0.331589 0.851967 0.662096
0.371176 0.852572 0.662627
0.431257 0.853655 0.663594
0.505896 0.855295 0.665104
0.590043 0.857561 0.667301
0.680370 0.860517 0.670326
0.774877 0.864205 0.674272
0.872305 0.868672 0.679399
0.000000 0.066239 0.545613
0.041035 0.067903 0.548807
0.136528 0.072051 0.556350
0.227615 0.079158 0.568205
0.321828 0.089254 0.583459
0.420950 0.102256 0.601243
0.525622 0.118356 0.621016
0.635855 0.138643 0.642663
0.751231 0.163324 0.665870
0.000000 0.107247 0.555837
0.052243 0.108707 0.558622
0.143194 0.112335 0.565297
0.233413 0.118529 0.576030
0.327285 0.127352 0.590178
0.426169 0.138830 0.607022
0.530592 0.153281 0.626065
0.640488 0.171819 0.647217
0.755518 0.193927 0.669789
0.012511 0.179428 0.577089
0.076004 0.180701 0.579267
0.158703 0.183871 0.584601
0.246998 0.189316 0.593480
0.340191 0.197143 0.605658
0.438626 0.207466 0.620712
0.542502 0.220693 0.638324
0.651683 0.237397 0.658265
0.765876 0.256374 0.679283
0.063519 0.270935 0.606259
0.109830 0.272079 0.607938
0.183189 0.274956 0.612119
0.268502 0.279978 0.619283
0.360628 0.287359 0.629488
0.458370 0.297353 0.642658
0.561456 0.310071 0.658509
0.669756 0.324879 0.676112
0.782476 0.341359 0.694594
0.114273 0.377027 0.640867
0.149383 0.378122 0.642239
0.214313 0.380901 0.645701
0.295873 0.385775 0.651714
0.386524 0.392859 0.660340
0.483581 0.402118 0.671403
0.585970 0.413359 0.684495
0.692897 0.426233 0.698981
0.803282 0.440223 0.714002
0.162010 0.495438 0.679377
0.191013 0.496384 0.680441
0.249483 0.498761 0.683109
0.327391 0.502896 0.687727
0.416263 0.508872 0.694343
0.512116 0.516599 0.702787
0.613001 0.525817 0.712670
0.717582 0.536086 0.723366
0.824604 0.546739 0.733777
0.211088 0.619751 0.715960
0.235607 0.620459 0.716690
0.287948 0.622231 0.718516
0.361169 0.625284 0.721647
0.446933 0.629618 0.726024
0.540304 0.635067 0.731398
0.638601 0.641333 0.737266
0.740019 0.647997 0.742909
0.842711 0.654488 0.747653
0.262835 0.741214 0.742659
0.283533 0.741602 0.742980
0.329614 0.742563 0.743767
0.396854 0.744183 0.745063
0.477709 0.746402 0.746769
0.566702 0.749037 0.748673
0.660635 0.752125 0.750798
0.757923 0.756005 0.753505
0.857509 0.760749 0.757021
0.318547 0.852947 0.755340
0.335507 0.853186 0.755534
0.374610 0.853794 0.756033
0.434128 0.854883 0.756943
0.508255 0.856530 0.758367
0.591986 0.858808 0.760437
0.682022 0.861768 0.763231
0.776299 0.865460 0.766894
0.873564 0.869938 0.771657
0.000000 0.076219 0.643123
0.060656 0.077770 0.645973
0.148491 0.081643 0.652862
0.238043 0.088319 0.664082
0.331672 0.097914 0.679083
0.430390 0.110508 0.697146
0.534624 0.126547 0.717704
0.644261 0.147272 0.740477
0.759012 0.171205 0.764422
0.004595 0.115969 0.652387
0.069886 0.117320 0.654978
0.154554 0.120697 0.661290
0.243356 0.126532 0.671709
0.336723 0.134979 0.685847
0.435270 0.146204 0.703113
0.539291 0.160730 0.723006
0.648650 0.179524 0.745196
0.763072 0.201049 0.768445
0.034055 0.187060 0.672752
0.090655 0.188249 0.674907
0.169013 0.191231 0.680226
0.256052 0.196412 0.689199
0.348814 0.203984 0.701701
0.446974 0.214185 0.717385
0.550477 0.227593 0.735932
0.659276 0.244002 0.756596
0.772875 0.262499 0.778159
0.079577 0.277885 0.702323
0.121620 0.278986 0.704062
0.192229 0.281766 0.708407
0.276436 0.286662 0.715888
0.368109 0.293951 0.726609
0.465568 0.303924 0.740472
0.568485 0.316273 0.756847
0.676438 0.330643 0.774921
0.788550 0.346620 0.793698
0.124638 0.383747 0.738601
0.158170 0.384815 0.740035
0.221619 0.387504 0.743628
0.302457 0.392197 0.749839
0.392810 0.399023 0.758733
0.489692 0.407949 0.770100
0.591842 0.418782 0.783469
0.698353 0.431171 0.798114
0.808073 0.444600 0.813060
0.170209 0.501178 0.778255
0.198375 0.502083 0.779341
0.255801 0.504358 0.782059
0.332998 0.508315 0.786752
0.421448 0.514028 0.793445
0.516976 0.521406 0.801927
0.617483 0.530185 0.811748
0.721580 0.539913 0.822143
0.827978 0.549964 0.831951
0.217598 0.624020 0.814985
0.241597 0.624687 0.815700
0.293154 0.626354 0.817476
0.365712 0.629219 0.820494
0.450969 0.633275 0.824682
0.543917 0.638364 0.829753
0.641831 0.644212 0.835140
0.742682 0.650385 0.840166
0.844602 0.656333 0.844125
0.269038 0.743518 0.839949
0.289290 0.743869 0.840228
0.334569 0.744740 0.840907
0.400947 0.746202 0.842010
0.481018 0.748191 0.843420
0.569354 0.750608 0.844991
0.662915 0.753710 0.846990
0.759908 0.757608 0.849575
0.859239 0.762376 0.852976
0.323427 0.854426 0.851346
0.340100 0.854666 0.851534
0.378643 0.855278 0.852018
0.437502 0.856373 0.852901
0.511024 0.858031 0.854286
0.594295 0.860315 0.856260
0.683983 0.863280 0.858915
0.777979 0.866977 0.862414
0.875097 0.871480 0.866930
