RedKomodo_Tungsten_Dramatic.cube
TITLE "Red Komodo X - Tungsten Dramatic"
# Deep warm amber indoor look - strong 3200K push, warm shadows, orange highlights
# Apply AFTER CST (REDWideGamutRGB/Log3G10 > Rec.709) in DaVinci Resolve
LUT_3D_SIZE 33
0.146041 0.087202 0.000000
0.146041 0.087202 0.000000
0.146041 0.087202 0.000000
0.259665 0.094240 0.000000
0.288584 0.096592 0.000000
0.299991 0.097577 0.000000
0.310903 0.098548 0.000000
0.322009 0.099565 0.000000
0.333658 0.100661 0.000000
0.346017 0.101857 0.000000
0.359149 0.103163 0.000000
0.373062 0.104585 0.000000
0.387730 0.106123 0.000000
0.403110 0.107779 0.000000
0.419152 0.109550 0.000000
0.435806 0.111427 0.000000
0.312510 0.098693 0.000000
0.337450 0.101025 0.000000
0.363506 0.103604 0.000000
0.390217 0.106388 0.000000
0.417384 0.109352 0.000000
0.444918 0.112467 0.000000
0.472793 0.115684 0.000000
0.501009 0.118950 0.000000
0.529594 0.122191 0.000000
0.558597 0.125303 0.000000
0.588089 0.128140 0.000000
0.618165 0.130504 0.000000
0.648947 0.132117 0.000000
0.680431 0.132872 0.000000
0.712318 0.133202 0.000000
0.744905 0.132454 0.000000
0.778231 0.130348 0.000000
0.149551 0.139391 0.000000
0.186730 0.140620 0.000000
0.218123 0.139962 0.000000
0.241645 0.133623 0.000000
0.261769 0.128234 0.000000
0.279169 0.124041 0.000000
0.294821 0.120981 0.000000
0.309550 0.118882 0.000000
0.323940 0.117563 0.000000
0.338373 0.116869 0.000000
0.353084 0.116678 0.000000
0.368207 0.116897 0.000000
0.383812 0.117455 0.000000
0.399923 0.118300 0.000000
0.416541 0.119389 0.000000
0.291846 0.100892 0.000000
0.314673 0.103100 0.000000
0.339582 0.105636 0.000000
0.365489 0.108385 0.000000
0.392033 0.111304 0.000000
0.419041 0.114374 0.000000
0.446437 0.117563 0.000000
0.474194 0.120831 0.000000
0.502313 0.124129 0.000000
0.530819 0.127384 0.000000
0.559759 0.130499 0.000000
0.589206 0.133331 0.000000
0.619252 0.135688 0.000000
0.650018 0.137301 0.000000
0.681481 0.138095 0.000000
0.713356 0.138467 0.000000
0.745934 0.137791 0.000000
0.779255 0.135802 0.000000
0.152002 0.167939 0.000000
0.179216 0.162457 0.000000
0.200915 0.157499 0.000000
0.223163 0.151998 0.000000
0.244332 0.146592 0.000000
0.263847 0.141757 0.000000
0.281870 0.137718 0.000000
0.298824 0.134522 0.000000
0.315144 0.132117 0.000000
0.331184 0.130414 0.000000
0.347208 0.129316 0.000000
0.363394 0.128733 0.000000
0.379854 0.128587 0.000000
0.396655 0.128813 0.000000
0.413830 0.129357 0.000000
0.293869 0.105582 0.000000
0.317098 0.108050 0.000000
0.341925 0.110785 0.000000
0.367663 0.113692 0.000000
0.394026 0.116739 0.000000
0.420866 0.119906 0.000000
0.448115 0.123165 0.000000
0.475747 0.126480 0.000000
0.503761 0.129805 0.000000
0.532183 0.133073 0.000000
0.561058 0.136187 0.000000
0.590456 0.139013 0.000000
0.620471 0.141361 0.000000
0.651222 0.142971 0.000000
0.682663 0.143806 0.000000
0.714524 0.144219 0.000000
0.747094 0.143616 0.000000
0.780409 0.141747 0.000000
0.152970 0.178227 0.000000
0.172327 0.174765 0.000000
0.189710 0.171375 0.000000
0.209356 0.167286 0.000000
0.229707 0.162877 0.000000
0.249716 0.158540 0.000000
0.268977 0.154558 0.000000
0.287473 0.151099 0.000000
0.305369 0.148232 0.000000
0.322878 0.145961 0.000000
0.340203 0.144253 0.000000
0.357506 0.143059 0.000000
0.374911 0.142324 0.000000
0.392502 0.141994 0.000000
0.276439 0.110033 0.000000
0.297084 0.112313 0.000000
0.320486 0.115078 0.000000
0.345153 0.118037 0.000000
0.370656 0.121123 0.000000
0.396778 0.124312 0.000000
0.423395 0.127587 0.000000
0.450450 0.130923 0.000000
0.477916 0.134288 0.000000
0.505792 0.137642 0.000000
0.534102 0.140919 0.000000
0.562891 0.144029 0.000000
0.592226 0.146842 0.000000
0.622201 0.149176 0.000000
0.652934 0.150778 0.000000
0.684344 0.151665 0.000000
0.716187 0.152130 0.000000
0.748746 0.151618 0.000000
0.782054 0.149898 0.000000
0.153988 0.188592 0.000000
0.168674 0.186363 0.000000
0.182818 0.184080 0.000000
0.199860 0.181183 0.000000
0.218634 0.177867 0.000000
0.238090 0.174384 0.000000
0.257588 0.170963 0.000000
0.276828 0.167781 0.000000
0.295729 0.164954 0.000000
0.314335 0.162545 0.000000
0.332740 0.160577 0.000000
0.351047 0.159044 0.000000
0.369352 0.157926 0.000000
0.387734 0.157191 0.000000
0.279702 0.118513 0.000000
0.301464 0.121318 0.000000
0.324829 0.124365 0.000000
0.349252 0.127536 0.000000
0.374461 0.130792 0.000000
0.400289 0.134114 0.000000
0.426641 0.137487 0.000000
0.453463 0.140891 0.000000
0.480729 0.144300 0.000000
0.508439 0.147674 0.000000
0.536615 0.150954 0.000000
0.565300 0.154052 0.000000
0.594561 0.156844 0.000000
0.624490 0.159154 0.000000
0.655208 0.160740 0.000000
0.686578 0.161687 0.000000
0.718401 0.162210 0.000000
0.750947 0.161802 0.000000
0.784247 0.160251 0.000000
0.155144 0.199883 0.000000
0.166933 0.198409 0.000000
0.178780 0.196857 0.000000
0.193663 0.194825 0.000000
0.210774 0.192405 0.000000
0.229221 0.189747 0.000000
0.248336 0.187006 0.000000
0.267689 0.184325 0.000000
0.287048 0.181815 0.000000
0.306315 0.179558 0.000000
0.325477 0.177605 0.000000
0.344563 0.175979 0.000000
0.363622 0.174688 0.000000
0.264686 0.126687 0.000000
0.284875 0.129536 0.000000
0.306821 0.132670 0.000000
0.329995 0.135933 0.000000
0.354113 0.139268 0.000000
0.378989 0.142652 0.000000
0.404496 0.146073 0.000000
0.430556 0.149517 0.000000
0.457121 0.152968 0.000000
0.484167 0.156402 0.000000
0.511693 0.159782 0.000000
0.539720 0.163051 0.000000
0.568292 0.166124 0.000000
0.597475 0.168883 0.000000
0.627360 0.171158 0.000000
0.658067 0.172718 0.000000
0.689390 0.173730 0.000000
0.721191 0.174309 0.000000
0.753726 0.174007 0.000000
0.787018 0.172633 0.000000
0.156474 0.212354 0.000000
0.166378 0.211354 0.000000
0.176600 0.210283 0.000000
0.189800 0.208852 0.000000
0.205431 0.207102 0.000000
0.222774 0.205117 0.000000
0.241215 0.202998 0.000000
0.260295 0.200845 0.000000
0.279704 0.198749 0.000000
0.299258 0.196785 0.000000
0.318860 0.195009 0.000000
0.338472 0.193459 0.000000
0.251671 0.136908 0.000000
0.270526 0.139826 0.000000
0.291059 0.143011 0.000000
0.312900 0.146325 0.000000
0.335805 0.149709 0.000000
0.359592 0.153134 0.000000
0.384124 0.156587 0.000000
0.409305 0.160057 0.000000
0.435069 0.163533 0.000000
0.461371 0.166999 0.000000
0.488190 0.170433 0.000000
0.515526 0.173798 0.000000
0.543402 0.177038 0.000000
0.571861 0.180071 0.000000
0.600969 0.182782 0.000000
0.630818 0.185008 0.000000
0.661527 0.186526 0.000000
0.692794 0.187606 0.000000
0.724577 0.188237 0.000000
0.757101 0.188038 0.000000
0.790386 0.186838 0.000000
0.157991 0.226017 0.000000
0.166609 0.225325 0.000000
0.175662 0.224575 0.000000
0.187570 0.223557 0.000000
0.201964 0.222289 0.000000
0.218270 0.220820 0.000000
0.235951 0.219210 0.000000
0.254561 0.217528 0.000000
0.273768 0.215839 0.000000
0.293339 0.214206 0.000000
0.224642 0.146835 0.000000
0.240464 0.149386 0.000000
0.258113 0.152333 0.000000
0.277298 0.155492 0.000000
0.297803 0.158775 0.000000
0.319444 0.162134 0.000000
0.342064 0.165541 0.000000
0.365529 0.168979 0.000000
0.389739 0.172436 0.000000
0.414612 0.175901 0.000000
0.440093 0.179365 0.000000
0.466142 0.182811 0.000000
0.492743 0.186216 0.000000
0.519900 0.189541 0.000000
0.547633 0.192731 0.000000
0.575989 0.195707 0.000000
0.605035 0.198353 0.000000
0.634863 0.200513 0.000000
0.665595 0.201974 0.000000
0.696797 0.203121 0.000000
0.728566 0.203795 0.000000
0.761082 0.203690 0.000000
0.794362 0.202656 0.000000
0.159695 0.240788 0.000000
0.167398 0.240300 0.000000
0.175586 0.239767 0.000000
0.186496 0.239036 0.000000
0.199878 0.238114 0.000000
0.215270 0.237027 0.000000
0.232206 0.235813 0.000000
0.191184 0.157782 0.000000
0.202641 0.159513 0.000000
0.215874 0.161765 0.000000
0.230780 0.164356 0.000000
0.247254 0.167191 0.000000
0.265171 0.170204 0.000000
0.284397 0.173346 0.000000
0.304795 0.176580 0.000000
0.326234 0.179880 0.000000
0.348597 0.183228 0.000000
0.371784 0.186608 0.000000
0.395711 0.190010 0.000000
0.420312 0.193423 0.000000
0.445540 0.196835 0.000000
0.471364 0.200227 0.000000
0.497770 0.203573 0.000000
0.524767 0.206835 0.000000
0.552378 0.209954 0.000000
0.580651 0.212852 0.000000
0.609657 0.215416 0.000000
0.639489 0.217494 0.000000
0.670269 0.218879 0.000000
0.701396 0.220095 0.000000
0.733157 0.220801 0.000000
0.765671 0.220778 0.000000
0.798946 0.219896 0.000000
0.152223 0.170329 0.000000
0.155041 0.170691 0.000000
0.158203 0.171134 0.000000
0.162697 0.171809 0.000000
0.168664 0.172758 0.000000
0.176177 0.174002 0.000000
0.185282 0.175548 0.000000
0.195995 0.177387 0.000000
0.208303 0.179497 0.000000
0.222166 0.181851 0.000000
0.237513 0.184416 0.000000
0.254259 0.187158 0.000000
0.272299 0.190045 0.000000
0.291525 0.193049 0.000000
0.311829 0.196147 0.000000
0.333109 0.199318 0.000000
0.355272 0.202546 0.000000
0.378236 0.205819 0.000000
0.401934 0.209122 0.000000
0.426312 0.212445 0.000000
0.451330 0.215770 0.000000
0.476966 0.219079 0.000000
0.503213 0.222341 0.000000
0.530081 0.225516 0.000000
0.557600 0.228545 0.000000
0.585820 0.231347 0.000000
0.614815 0.233812 0.000000
0.644682 0.235790 0.000000
0.675544 0.237080 0.000000
0.706579 0.238369 0.000000
0.738342 0.239096 0.000000
0.770857 0.239143 0.000000
0.804130 0.238398 0.000000
0.154372 0.192396 0.000000
0.157471 0.192872 0.000000
0.160941 0.193406 0.000000
0.165851 0.194165 0.000000
0.172330 0.195169 0.000000
0.180418 0.196426 0.000000
0.190118 0.197934 0.000000
0.201404 0.199685 0.000000
0.214223 0.201666 0.000000
0.228508 0.203857 0.000000
0.244174 0.206237 0.000000
0.261130 0.208784 0.000000
0.279281 0.211475 0.000000
0.298530 0.214289 0.000000
0.318788 0.217207 0.000000
0.339967 0.220210 0.000000
0.361993 0.223285 0.000000
0.384797 0.226418 0.000000
0.408325 0.229594 0.000000
0.432534 0.232798 0.000000
0.457393 0.236013 0.000000
0.482887 0.239216 0.000000
0.509016 0.242374 0.000000
0.535795 0.245443 0.000000
0.563260 0.248364 0.000000
0.591465 0.251054 0.000000
0.620487 0.253403 0.000000
0.650426 0.255265 0.000000
0.681298 0.256536 0.000000
0.712328 0.257811 0.000000
0.744100 0.258548 0.000000
0.776622 0.258655 0.000000
0.809890 0.258034 0.000000
0.156970 0.216881 0.000000
0.160328 0.217312 0.000000
0.164073 0.217795 0.000000
0.169346 0.218480 0.000000
0.176260 0.219385 0.000000
0.184826 0.220516 0.000000
0.195015 0.221872 0.000000
0.206771 0.223448 0.000000
0.220014 0.225235 0.000000
0.234657 0.227220 0.000000
0.250606 0.229386 0.000000
0.267765 0.231717 0.000000
0.286043 0.234195 0.000000
0.305353 0.236805 0.000000
0.325613 0.239528 0.000000
0.346749 0.242350 0.000000
0.368698 0.245257 0.000000
0.391404 0.248234 0.000000
0.414822 0.251266 0.000000
0.438919 0.254337 0.000000
0.463673 0.257425 0.000000
0.489075 0.260506 0.000000
0.515133 0.263544 0.000000
0.541869 0.266494 0.000089
0.569323 0.269292 0.001798
0.597555 0.271857 0.001374
0.626646 0.274077 0.000000
0.656699 0.275808 0.000000
0.687564 0.277076 0.000000
0.718614 0.278316 0.000000
0.750404 0.279055 0.000000
0.782934 0.279212 0.000000
0.816193 0.278706 0.000000
0.159887 0.242417 0.000000
0.163462 0.242795 0.000000
0.167437 0.243220 0.000000
0.173012 0.243823 0.000000
0.180287 0.244621 0.000000
0.189252 0.245621 0.000000
0.199851 0.246825 0.000000
0.212004 0.248229 0.000000
0.225613 0.249830 0.000000
0.240575 0.251617 0.000000
0.256786 0.253579 0.000000
0.274150 0.255705 0.000000
0.292574 0.257980 0.000000
0.311976 0.260392 0.000000
0.332282 0.262926 0.000000
0.353426 0.265568 0.000000
0.375353 0.268306 0.000000
0.398017 0.271124 0.000000
0.421381 0.274007 0.000000
0.445421 0.276936 0.000000
0.470123 0.279889 0.000000
0.495485 0.282839 0.000000
0.521522 0.285748 0.002494
0.548262 0.288567 0.004256
0.575752 0.291232 0.004170
0.604056 0.293660 0.001468
0.633261 0.295741 0.000000
0.663473 0.297331 0.000000
0.694316 0.298603 0.000000
0.725399 0.299804 0.000000
0.757211 0.300539 0.000000
0.789747 0.300739 0.000000
0.822997 0.300354 0.000000
0.163062 0.268639 0.000000
0.166815 0.268972 0.000000
0.170977 0.269346 0.000000
0.176800 0.269878 0.000000
0.184373 0.270584 0.000000
0.193668 0.271471 0.000000
0.204611 0.272542 0.000000
0.217103 0.273798 0.000000
0.231030 0.275236 0.000000
0.246278 0.276850 0.000000
0.262736 0.278633 0.000000
0.280302 0.280575 0.000000
0.298886 0.282668 0.000000
0.318406 0.284899 0.000000
0.338793 0.287258 0.000000
0.359986 0.289731 0.000000
0.381938 0.292307 0.000000
0.404609 0.294971 0.000000
0.427971 0.297706 0.000000
0.452005 0.300493 0.000000
0.476705 0.303309 0.003063
0.502077 0.306123 0.005786
0.528142 0.308897 0.007385
0.554935 0.311580 0.007335
0.582508 0.314107 0.004963
0.610932 0.316391 0.000000
0.640296 0.318325 0.000000
0.670708 0.319768 0.000000
0.701505 0.321057 0.000000
0.732627 0.322213 0.000000
0.764464 0.322942 0.000000
0.797004 0.323192 0.000000
0.830355 0.323064 0.000000
0.166445 0.295408 0.000000
0.170342 0.295704 0.000000
0.174656 0.296036 0.000000
0.180681 0.296510 0.000000
0.188499 0.297141 0.000000
0.198068 0.297935 0.000000
0.209300 0.298897 0.000000
0.222081 0.300029 0.000000
0.236287 0.301331 0.000000
0.251792 0.302799 0.000000
0.268481 0.304429 0.000000
0.286247 0.306214 0.000000
0.304997 0.308146 0.000000
0.324653 0.310218 0.000000
0.345147 0.312419 0.000000
0.366424 0.314739 0.000000
0.388440 0.317165 0.000000
0.411160 0.319683 0.001381
0.434563 0.322277 0.004767
0.458637 0.324927 0.007750
0.483383 0.327607 0.010054
0.508812 0.330287 0.011317
0.534953 0.332925 0.011069
0.561845 0.335469 0.008706
0.589548 0.337854 0.003467
0.618136 0.339992 0.000000
0.647700 0.341777 0.000000
0.678352 0.343072 0.000000
0.709064 0.344390 0.000000
0.740230 0.345504 0.000000
0.772093 0.346235 0.000000
0.804763 0.346673 0.000000
0.838216 0.346806 0.000000
0.169985 0.322666 0.000000
0.173997 0.322932 0.000000
0.178436 0.323232 0.000000
0.184627 0.323659 0.000000
0.192646 0.324229 0.000000
0.202443 0.324948 0.000000
0.213919 0.325822 0.000000
0.226949 0.326853 0.000000
0.241400 0.328043 0.000000
0.257138 0.329390 0.000000
0.274041 0.330891 0.000000
0.292000 0.332542 0.000000
0.310922 0.334339 0.000000
0.330726 0.336272 0.000000
0.351347 0.338335 0.002121
0.372732 0.340517 0.005243
0.394842 0.342808 0.008301
0.417647 0.345192 0.011148
0.441129 0.347655 0.013592
0.465284 0.350174 0.015375
0.490117 0.352724 0.016164
0.515646 0.355272 0.015528
0.541905 0.357777 0.012921
0.568941 0.360185 0.007657
0.596815 0.362428 0.000000
0.625606 0.364422 0.000000
0.655409 0.366061 0.000000
0.686330 0.367213 0.000000
0.716909 0.368574 0.000000
0.748139 0.369668 0.000000
0.780181 0.370551 0.000000
0.812974 0.371172 0.000000
0.846302 0.371332 0.000000
0.173632 0.350393 0.000000
0.177739 0.350636 0.000000
0.182279 0.350909 0.000000
0.188605 0.351300 0.000000
0.196791 0.351820 0.000000
0.206779 0.352479 0.000000
0.218462 0.353282 0.000000
0.231707 0.354231 0.000000
0.246373 0.355329 0.000000
0.262321 0.356577 0.001903
0.279423 0.357971 0.004070
0.297569 0.359511 0.006419
0.316661 0.361191 0.008912
0.336620 0.363007 0.011493
0.357381 0.364950 0.014084
0.378895 0.367012 0.016580
0.401122 0.369181 0.018841
0.424040 0.371446 0.020680
0.447633 0.373787 0.021855
0.471903 0.376185 0.022054
0.496858 0.378613 0.020878
0.522525 0.381036 0.017824
0.548940 0.383413 0.012268
0.576156 0.385689 0.003443
0.604237 0.387797 0.000000
0.633265 0.389653 0.000000
0.663332 0.391154 0.000000
0.694335 0.392269 0.000000
0.725001 0.393641 0.000000
0.756479 0.394871 0.000000
0.788631 0.395842 0.000000
0.821304 0.396425 0.000000
0.854433 0.396596 0.000000
0.177340 0.378582 0.007472
0.181523 0.378806 0.007835
0.186145 0.379059 0.008243
0.192582 0.379420 0.008826
0.200907 0.379902 0.009601
0.211054 0.380512 0.010576
0.222913 0.381257 0.011757
0.236344 0.382141 0.013140
0.251199 0.383165 0.014716
0.267336 0.384331 0.016469
0.284622 0.385638 0.018371
0.302943 0.387085 0.020381
0.322202 0.388668 0.022442
0.342318 0.390383 0.024475
0.363228 0.392223 0.026376
0.384882 0.394181 0.028006
0.407245 0.396245 0.029183
0.430297 0.398402 0.029676
0.454026 0.400636 0.029189
0.478437 0.402923 0.027347
0.503545 0.405238 0.023685
0.529380 0.407546 0.017628
0.555982 0.409803 0.008478
0.583406 0.411956 0.000000
0.611721 0.413938 0.000000
0.641006 0.415667 0.000000
0.671378 0.417058 0.000000
0.702532 0.418284 0.000000
0.733486 0.419754 0.000000
0.765017 0.420958 0.000000
0.797058 0.421844 0.000000
0.829549 0.422389 0.000000
0.862408 0.422577 0.000000
0.181070 0.407229 0.024438
0.185314 0.407438 0.024768
0.190002 0.407675 0.025137
0.196529 0.408012 0.025661
0.204966 0.408463 0.026354
0.215246 0.409036 0.027219
0.227252 0.409735 0.028254
0.240841 0.410565 0.029449
0.255861 0.411529 0.030784
0.272165 0.412629 0.032230
0.289617 0.413865 0.033745
0.308102 0.415236 0.035268
0.327520 0.416739 0.036719
0.347791 0.418370 0.037993
0.368851 0.420124 0.038952
0.390652 0.421993 0.039418
0.413162 0.423966 0.039167
0.436361 0.426030 0.037916
0.460244 0.428168 0.035310
0.484817 0.430357 0.030916
0.510099 0.432571 0.024201
0.536123 0.434774 0.014528
0.562932 0.436923 0.001136
0.590585 0.438964 0.000000
0.619166 0.440842 0.000000
0.648865 0.442533 0.000000
0.679801 0.443959 0.000000
0.710987 0.445277 0.000000
0.741934 0.446625 0.000000
0.773373 0.447715 0.000000
0.805248 0.448522 0.000000
0.837486 0.449034 0.000000
0.869993 0.449248 0.000000
0.184801 0.436326 0.043382
0.189091 0.436524 0.043643
0.193830 0.436747 0.043933
0.200426 0.437067 0.044339
0.208951 0.437494 0.044867
0.219336 0.438036 0.045511
0.231462 0.438699 0.046257
0.245182 0.439487 0.047085
0.260339 0.440404 0.047964
0.276786 0.441451 0.048852
0.294385 0.442630 0.049695
0.313016 0.443939 0.050426
0.332581 0.445377 0.050956
0.352998 0.446940 0.051174
0.374204 0.448623 0.050934
0.396152 0.450417 0.050043
0.418812 0.452314 0.048239
0.442166 0.454298 0.045146
0.466211 0.456354 0.040181
0.490956 0.458458 0.032705
0.516424 0.460583 0.022378
0.542650 0.462694 0.008514
0.569722 0.464767 0.000000
0.597778 0.466787 0.000000
0.626897 0.468698 0.000000
0.657035 0.470358 0.000000
0.688228 0.471648 0.000000
0.719147 0.472917 0.000000
0.750024 0.474125 0.000000
0.781317 0.475103 0.000000
0.812957 0.475836 0.000000
0.844860 0.476322 0.000000
0.876903 0.476560 0.000000
0.188544 0.465858 0.061634
0.192865 0.466047 0.061784
0.197638 0.466260 0.061949
0.204282 0.466566 0.062177
0.212869 0.466974 0.062467
0.223329 0.467493 0.062809
0.235542 0.468128 0.063187
0.249360 0.468884 0.063577
0.264625 0.469764 0.063944
0.281185 0.470771 0.064244
0.298903 0.471905 0.064416
0.317658 0.473166 0.064385
0.337350 0.474552 0.064051
0.357897 0.476061 0.063287
0.379237 0.477687 0.061923
0.401324 0.479421 0.059732
0.424128 0.481255 0.056394
0.447635 0.483174 0.051436
0.471842 0.485161 0.044092
0.496793 0.487205 0.032842
0.522576 0.489303 0.016764
0.549241 0.491431 0.000000
0.576799 0.493531 0.000000
0.605211 0.495504 0.000000
0.634536 0.497282 0.000000
0.664838 0.498785 0.000000
0.696182 0.499924 0.000000
0.726756 0.501129 0.000000
0.757512 0.502197 0.000000
0.788592 0.503065 0.000000
0.819914 0.503727 0.000000
0.851338 0.504163 0.000000
0.882740 0.504389 0.000000
0.192365 0.495796 0.079127
0.196698 0.495979 0.079187
0.201485 0.496185 0.079250
0.208150 0.496480 0.079332
0.216766 0.496875 0.079425
0.227266 0.497377 0.079515
0.239527 0.497992 0.079582
0.253403 0.498724 0.079596
0.268735 0.499578 0.079520
0.285372 0.500554 0.079300
0.303174 0.501655 0.078872
0.322020 0.502880 0.078148
0.341809 0.504227 0.077019
0.362461 0.505695 0.075338
0.383913 0.507276 0.072915
0.406144 0.508971 0.069336
0.429164 0.510782 0.063861
0.452971 0.512701 0.055551
0.477576 0.514719 0.042606
0.502946 0.516794 0.023290
0.529047 0.518875 0.000000
0.555914 0.520922 0.000000
0.583590 0.522890 0.000000
0.612125 0.524721 0.000000
0.641570 0.526354 0.000000
0.671978 0.527714 0.000000
0.703286 0.528742 0.000000
0.733563 0.529833 0.000000
0.764131 0.530759 0.000000
0.794881 0.531497 0.000000
0.825713 0.532045 0.000000
0.856520 0.532418 0.000000
0.887177 0.532650 0.000000
0.196412 0.526101 0.097030
0.200733 0.526279 0.097010
0.205508 0.526480 0.096983
0.212160 0.526768 0.096935
0.220765 0.527154 0.096852
0.231256 0.527645 0.096718
0.243515 0.528246 0.096507
0.257397 0.528963 0.096185
0.272756 0.529799 0.095672
0.289452 0.530762 0.094866
0.307350 0.531853 0.093653
0.326337 0.533076 0.091881
0.346318 0.534431 0.089349
0.367219 0.535920 0.085779
0.388981 0.537538 0.080792
0.411510 0.539264 0.073988
0.434765 0.541081 0.064600
0.458734 0.542973 0.051151
0.483416 0.544919 0.030724
0.508824 0.546892 0.004294
0.534980 0.548860 0.000000
0.561915 0.550786 0.000000
0.589666 0.552623 0.000000
0.618272 0.554320 0.000000
0.647774 0.555817 0.000000
0.678204 0.557046 0.000000
0.709180 0.557992 0.000000
0.739260 0.558891 0.000000
0.769484 0.559632 0.000000
0.799770 0.560216 0.000000
0.830019 0.560658 0.000000
0.860114 0.560984 0.000000
0.889932 0.561235 0.000000
0.201853 0.556833 0.114440
0.206158 0.557015 0.114250
0.210919 0.557221 0.114027
0.217559 0.557517 0.113690
0.226159 0.557913 0.113206
0.236660 0.558417 0.112537
0.248941 0.559035 0.111644
0.262857 0.559770 0.110470
0.278254 0.560626 0.108941
0.294979 0.561605 0.106962
0.312894 0.562707 0.104407
0.331878 0.563931 0.101110
0.351830 0.565274 0.096849
0.372668 0.566732 0.091311
0.394330 0.568296 0.084042
0.416772 0.569956 0.074319
0.439964 0.571700 0.060862
0.463894 0.573509 0.040832
0.488558 0.575362 0.012452
0.513966 0.577233 0.000000
0.540135 0.579089 0.000000
0.567091 0.580894 0.000000
0.594860 0.582603 0.000000
0.623468 0.584166 0.000000
0.652907 0.585519 0.000000
0.683180 0.586598 0.000000
0.713677 0.587396 0.000000
0.743452 0.588080 0.000000
0.773261 0.588638 0.000000
0.803010 0.589080 0.000000
0.832598 0.589427 0.000000
0.862095 0.589658 0.000000
0.891543 0.589748 0.000000
0.209979 0.588032 0.128432
0.214139 0.588211 0.128092
0.218747 0.588414 0.127698
0.225180 0.588703 0.127119
0.233524 0.589091 0.126312
0.243732 0.589583 0.125233
0.255703 0.590185 0.123825
0.269304 0.590901 0.122019
0.284393 0.591735 0.119724
0.300826 0.592686 0.116824
0.318470 0.593756 0.113165
0.337209 0.594943 0.108544
0.356942 0.596243 0.102678
0.377590 0.597650 0.095162
0.399091 0.599156 0.085372
0.421399 0.600751 0.072246
0.444485 0.602419 0.053628
0.468331 0.604142 0.025041
0.492934 0.605899 0.000000
0.518297 0.607662 0.000000
0.544421 0.609398 0.000000
0.571300 0.611062 0.000000
0.598948 0.612613 0.000000
0.627374 0.614004 0.000000
0.656578 0.615188 0.000000
0.686548 0.616114 0.000000
0.716563 0.616741 0.000000
0.745983 0.617216 0.000000
0.775333 0.617595 0.000000
0.804660 0.617869 0.000000
0.833958 0.618025 0.000000
0.863208 0.618054 0.000000
0.892432 0.617975 0.000000
0.218190 0.619186 0.141649
0.222179 0.619361 0.141164
0.226604 0.619559 0.140606
0.232795 0.619842 0.139789
0.240845 0.620220 0.138659
0.250719 0.620700 0.137162
0.262331 0.621287 0.135230
0.275566 0.621985 0.132781
0.290293 0.622795 0.129708
0.306377 0.623719 0.125874
0.323694 0.624756 0.121099
0.342131 0.625904 0.115137
0.361593 0.627158 0.107644
0.382001 0.628511 0.098110
0.403292 0.629954 0.085708
0.425418 0.631475 0.068943
0.448333 0.633053 0.044410
0.472014 0.634668 0.008867
0.496450 0.636298 0.000000
0.521636 0.637914 0.000000
0.547572 0.639485 0.000000
0.574258 0.640977 0.000000
0.601692 0.642350 0.000000
0.629864 0.643565 0.000000
0.658750 0.644580 0.000000
0.688312 0.645357 0.000000
0.717896 0.645804 0.000000
0.747087 0.646068 0.000000
0.776258 0.646237 0.000000
0.805397 0.646299 0.000000
0.834549 0.646295 0.000000
0.863775 0.646272 0.000000
0.893084 0.646232 0.000000
0.226466 0.650140 0.154339
0.230273 0.650311 0.153715
0.234504 0.650504 0.152999
0.240434 0.650779 0.151954
0.248164 0.651147 0.150516
0.257672 0.651614 0.148626
0.268886 0.652183 0.146211
0.281707 0.652857 0.143183
0.296014 0.653638 0.139432
0.311685 0.654525 0.134816
0.328603 0.655517 0.129148
0.346661 0.656609 0.122178
0.365764 0.657796 0.113551
0.385836 0.659068 0.102738
0.406814 0.660415 0.088871
0.428647 0.661823 0.070312
0.451301 0.663275 0.042989
0.474747 0.664750 0.004030
0.498968 0.666227 0.000000
0.523949 0.667676 0.000000
0.549678 0.669070 0.000000
0.576140 0.670376 0.000000
0.603310 0.671563 0.000000
