RedKomodo_Cinematic_Teal.cube
TITLE "Red Komodo X - Cinematic Teal Shadow"
# Apply AFTER Color Space Transform (REDWideGamutRGB/Log3G10 > Rec.709) in DaVinci Resolve
LUT_3D_SIZE 5
0.000000 0.036213 0.091980
0.078237 0.041298 0.094668
0.286300 0.061872 0.106218
0.496493 0.094917 0.126277
0.726776 0.139638 0.158500
0.000000 0.152431 0.103174
0.124306 0.159062 0.106779
0.312150 0.176076 0.117727
0.517012 0.201601 0.136719
0.743863 0.238168 0.173042
0.077906 0.357196 0.138372
0.191250 0.361368 0.141637
0.367301 0.374201 0.153176
0.567722 0.396886 0.178935
0.787893 0.426813 0.215606
0.191431 0.606281 0.218305
0.272384 0.609182 0.221896
0.434776 0.617902 0.233058
0.628685 0.632020 0.252233
0.836154 0.648282 0.274188
0.303898 0.848813 0.293338
0.362582 0.849646 0.294864
0.499989 0.852335 0.299871
0.676287 0.857503 0.310216
0.869227 0.865635 0.328201
0.000000 0.037112 0.127432
0.087043 0.043483 0.159549
0.289441 0.063934 0.182566
0.498719 0.096585 0.206643
0.728587 0.141328 0.238023
0.000000 0.154801 0.178063
0.127124 0.161111 0.183350
0.314329 0.177662 0.197053
0.518922 0.202926 0.217591
0.745490 0.239464 0.250458
0.080824 0.358625 0.219251
0.192966 0.362762 0.222472
0.368717 0.375527 0.233283
0.569059 0.398076 0.255489
0.789042 0.427786 0.286764
0.192846 0.607276 0.289062
0.273500 0.610148 0.292117
0.435656 0.618774 0.301598
0.629413 0.632721 0.317779
0.836664 0.648759 0.336176
0.304942 0.849096 0.351916
0.363435 0.849929 0.353180
0.500575 0.852622 0.357352
0.676691 0.857796 0.366059
0.869532 0.865930 0.381320
0.000000 0.044064 0.278074
0.104773 0.050613 0.295213
0.298502 0.070355 0.324026
0.505600 0.101859 0.355043
0.734257 0.146718 0.391089
0.000000 0.161635 0.318114
0.135513 0.167204 0.325054
0.321005 0.182575 0.342865
0.524879 0.207146 0.368479
0.750592 0.243578 0.403108
0.089708 0.363126 0.370454
0.198347 0.367169 0.374224
0.373144 0.379756 0.386230
0.573266 0.401835 0.407880
0.792637 0.430856 0.436409
0.197322 0.610399 0.438425
0.277033 0.613176 0.441088
0.438431 0.621505 0.449220
0.631692 0.634905 0.462520
0.838239 0.650236 0.476804
0.308259 0.850004 0.488106
0.366149 0.850840 0.489031
0.502440 0.853543 0.492108
0.677974 0.858736 0.498614
0.870504 0.866878 0.510014
0.000000 0.057407 0.451976
0.125347 0.063579 0.464158
0.312950 0.081749 0.492201
0.517712 0.111602 0.528202
0.744459 0.156608 0.570496
0.000000 0.172614 0.485847
0.149641 0.177389 0.493330
0.332628 0.191312 0.513696
0.535506 0.215085 0.544377
0.759778 0.251179 0.583439
0.104815 0.371377 0.546746
0.207990 0.375298 0.551252
0.381134 0.387578 0.565185
0.580882 0.408712 0.588498
0.799061 0.436455 0.617602
0.205528 0.616023 0.619571
0.283532 0.618624 0.622153
0.443492 0.626399 0.629859
0.635818 0.638789 0.641735
0.840977 0.652825 0.653358
0.314380 0.851730 0.661889
0.371176 0.852572 0.662627
0.505896 0.855295 0.665104
0.680370 0.860517 0.670326
0.872305 0.868672 0.679399
0.000000 0.076219 0.643123
0.148491 0.081643 0.652862
0.331672 0.097914 0.679083
0.534624 0.126547 0.717704
0.759012 0.171205 0.764422
0.034055 0.187060 0.672752
0.169013 0.191231 0.680226
0.348814 0.203984 0.701701
0.550477 0.227593 0.735932
0.772875 0.262499 0.778159
0.124638 0.383747 0.738601
0.221619 0.387504 0.743628
0.392810 0.399023 0.758733
0.591842 0.418782 0.783469
0.808073 0.444600 0.813060
0.217598 0.624020 0.814985
0.293154 0.626354 0.817476
0.450969 0.633275 0.824682
0.641831 0.644212 0.835140
0.844602 0.656333 0.844125
0.323427 0.854426 0.851346
0.378643 0.855278 0.852018
0.511024 0.858031 0.854286
0.683983 0.863280 0.858915
0.875097 0.871480 0.866930
