RedKomodo_Cinematic_Teal_v2.cube
TITLE "Red Komodo X - Cinematic Teal v2"
# v2: stronger contrast, harder black crush, teal shadows, warm highlights
# Apply AFTER Color Space Transform (REDWideGamutRGB/Log3G10 > Rec.709)
LUT_3D_SIZE 9
0.000000 0.080825 0.154858
0.000000 0.080832 0.154862
0.000000 0.080922 0.154911
0.000000 0.081350 0.155144
0.000000 0.082625 0.155840
0.020921 0.085533 0.157434
0.159910 0.091030 0.160473
0.181038 0.092407 0.161305
0.335553 0.103782 0.168802
0.000000 0.081594 0.154909
0.000000 0.081867 0.154943
0.000000 0.082634 0.155072
0.000000 0.084247 0.155446
0.000000 0.087228 0.156346
0.051400 0.092276 0.158198
0.000000 0.084985 0.156252
0.207056 0.101305 0.162876
0.349967 0.115374 0.169929
0.000000 0.090616 0.155525
0.000000 0.091488 0.155638
0.000000 0.093739 0.155965
0.000000 0.097863 0.156683
0.000000 0.104287 0.158073
0.000000 0.080957 0.154879
0.105346 0.106083 0.160044
0.256506 0.127582 0.166696
0.382093 0.145160 0.172420
0.000000 0.124676 0.158265
0.000000 0.126143 0.158503
0.000000 0.129849 0.159143
0.000000 0.136361 0.160389
0.000000 0.106803 0.157556
0.079610 0.132420 0.161630
0.207099 0.156134 0.166987
0.316766 0.177891 0.172527
0.428620 0.196806 0.175480
0.000000 0.156459 0.161368
0.000000 0.159596 0.161808
0.000000 0.167093 0.162932
0.000000 0.179033 0.164941
0.096072 0.194470 0.167961
0.191957 0.212301 0.172024
0.283061 0.231565 0.176454
0.379531 0.250865 0.178488
0.483639 0.269093 0.176840
0.000000 0.271001 0.175559
0.000000 0.272828 0.175980
0.003436 0.277363 0.177045
0.106512 0.285073 0.178921
0.187225 0.295891 0.181691
0.266547 0.309527 0.185034
0.350111 0.325466 0.187135
0.442020 0.342490 0.182335
0.542396 0.359609 0.174456
0.040125 0.389554 0.192348
0.072276 0.390913 0.192744
0.125396 0.394327 0.193757
0.188608 0.400267 0.195594
0.257951 0.408884 0.198457
0.332674 0.420165 0.202672
0.412719 0.434206 0.205075
0.500935 0.450496 0.194476
0.599171 0.467391 0.177346
0.147361 0.517243 0.218855
0.164430 0.518400 0.219574
0.201574 0.521329 0.221460
0.254825 0.526497 0.224983
0.318984 0.534075 0.230299
0.391162 0.544074 0.237281
0.470186 0.556327 0.245130
0.555475 0.571011 0.241259
0.653178 0.586837 0.177671
0.220782 0.653613 0.258880
0.234960 0.654543 0.259330
0.267548 0.656890 0.260459
0.317154 0.661013 0.262432
0.379408 0.667066 0.265326
0.450834 0.675094 0.269245
0.529244 0.685045 0.274441
0.613268 0.696798 0.281535
0.702332 0.710920 0.264587
0.000000 0.080825 0.154858
0.000000 0.080838 0.154998
0.000000 0.080944 0.155354
0.000000 0.081399 0.156138
0.000000 0.082713 0.157652
0.024187 0.085670 0.160336
0.000000 0.081008 0.155029
0.184001 0.092690 0.164853
0.337038 0.104059 0.174928
0.000000 0.081690 0.155342
0.000000 0.081969 0.155499
0.000000 0.082751 0.155936
0.000000 0.084388 0.156857
0.000000 0.087403 0.158567
0.054141 0.092490 0.161492
0.000000 0.085417 0.157414
0.209463 0.101665 0.166983
0.351320 0.115697 0.176460
0.000000 0.090929 0.157025
0.000000 0.091804 0.157257
0.000000 0.094062 0.157886
0.000000 0.098196 0.159136
0.000000 0.104632 0.161306
0.000000 0.081893 0.155148
0.109206 0.106692 0.163102
0.258164 0.128039 0.172035
0.383198 0.145546 0.179907
0.000000 0.125206 0.161591
0.000000 0.126671 0.161941
0.000000 0.130371 0.162861
0.000000 0.136873 0.164597
0.000000 0.107990 0.159449
0.082795 0.133242 0.165315
0.208628 0.156746 0.172379
0.317855 0.178375 0.179637
0.429450 0.197224 0.184518
0.000000 0.157604 0.164955
0.000000 0.160700 0.165559
0.000000 0.168103 0.167081
0.000000 0.179916 0.169735
0.097625 0.195218 0.173599
0.193034 0.212927 0.178645
0.283943 0.232092 0.184218
0.380254 0.251321 0.187791
0.484235 0.269503 0.188087
0.000000 0.271663 0.182892
0.000000 0.273481 0.183394
0.004856 0.277993 0.184660
0.107440 0.285666 0.186876
0.187960 0.296439 0.190119
0.267221 0.310022 0.194109
0.350723 0.325909 0.197190
0.442524 0.342893 0.194299
0.542801 0.359994 0.188797
0.041451 0.390045 0.202298
0.073225 0.391400 0.202741
0.126080 0.394806 0.203872
0.189172 0.400732 0.205909
0.258462 0.409329 0.209051
0.333157 0.420588 0.213602
0.413181 0.434598 0.216791
0.501307 0.450859 0.208613
0.599425 0.467741 0.194979
0.147820 0.517660 0.230427
0.164860 0.518816 0.231158
0.201959 0.521743 0.233069
0.255181 0.526903 0.236614
0.319331 0.534469 0.241938
0.391516 0.544449 0.248910
0.470548 0.556681 0.256781
0.555834 0.571325 0.254091
0.653513 0.587102 0.197186
0.221202 0.653949 0.270691
0.235365 0.654877 0.271148
0.267927 0.657221 0.272297
0.317507 0.661337 0.274305
0.379740 0.667381 0.277253
0.451152 0.675397 0.281242
0.529548 0.685333 0.286511
0.613555 0.697071 0.293652
0.702588 0.711168 0.278443
0.000000 0.080836 0.155300
0.000000 0.080864 0.155727
0.000000 0.081008 0.156863
0.000000 0.081532 0.159021
0.000000 0.082945 0.162543
0.032518 0.086026 0.167849
0.000000 0.081705 0.156517
0.191227 0.093412 0.174082
0.340748 0.104775 0.189937
0.000000 0.081946 0.156828
0.000000 0.082239 0.157289
0.000000 0.083057 0.158498
0.000000 0.084756 0.160770
0.000000 0.087855 0.164448
0.060730 0.093040 0.169932
0.000000 0.086508 0.161133
0.215387 0.102579 0.177480
0.354707 0.116526 0.192357
0.000000 0.091732 0.161155
0.000000 0.092613 0.161680
0.000000 0.094887 0.163044
0.000000 0.099047 0.165577
0.000000 0.105514 0.169602
0.000000 0.084203 0.156754
0.118379 0.108217 0.171213
0.262290 0.129195 0.185292
0.385970 0.146534 0.197893
0.000000 0.126551 0.170105
0.000000 0.128010 0.170718
0.000000 0.131696 0.172296
0.000000 0.085044 0.156109
0.000000 0.110919 0.164874
0.090392 0.135294 0.174856
0.212434 0.158286 0.185750
0.320587 0.179604 0.196799
0.431540 0.198289 0.205835
0.000000 0.160450 0.174271
0.000000 0.163444 0.175249
0.000000 0.170624 0.177671
0.000000 0.182126 0.181776
0.101466 0.197098 0.187522
0.195737 0.214505 0.194736
0.286167 0.233426 0.202805
0.382077 0.252479 0.209672
0.485736 0.270548 0.214021
0.000000 0.273332 0.200552
0.000000 0.275126 0.201232
0.008481 0.279582 0.202939
0.109773 0.287165 0.205899
0.189816 0.297824 0.210172
0.268925 0.311274 0.215556
0.352273 0.327034 0.220718
0.443798 0.343921 0.221733
0.543822 0.360976 0.220915
0.044716 0.391289 0.225663
0.075603 0.392635 0.226208
0.127810 0.396019 0.227595
0.190599 0.401908 0.230068
0.259755 0.410457 0.233818
0.334382 0.421662 0.239110
0.414352 0.435596 0.243949
0.502249 0.451786 0.240586
0.600068 0.468633 0.233449
0.148977 0.518721 0.257405
0.165944 0.519874 0.258166
0.202932 0.522793 0.260145
0.256086 0.527934 0.263751
0.320211 0.535467 0.269132
0.392416 0.545401 0.276123
0.471470 0.557577 0.284088
0.556746 0.572123 0.283855
0.654363 0.587775 0.239319
0.222269 0.654801 0.298423
0.236395 0.655725 0.298899
0.268892 0.658060 0.300097
0.318404 0.662159 0.302193
0.380586 0.668180 0.305274
0.451957 0.676166 0.309434
0.530318 0.686067 0.314892
0.614284 0.697766 0.322176
0.703237 0.711798 0.310583
0.000000 0.080890 0.157417
0.000000 0.080944 0.158385
0.000000 0.081158 0.160869
0.000000 0.081803 0.165345
0.000000 0.083392 0.172163
0.047004 0.086689 0.181619
0.000000 0.082955 0.162187
0.203136 0.094711 0.191050
0.347128 0.106088 0.214999
0.000000 0.082434 0.160793
0.000000 0.082754 0.161774
0.000000 0.083635 0.164284
0.000000 0.085441 0.168796
0.000000 0.088687 0.175652
0.071371 0.094043 0.185134
0.000000 0.088414 0.170137
0.225302 0.104206 0.196242
0.360547 0.118032 0.218639
0.000000 0.093178 0.169538
0.000000 0.094071 0.170539
0.000000 0.096373 0.173092
0.000000 0.100576 0.177667
0.000000 0.107094 0.184584
0.000000 0.088088 0.162602
0.132881 0.110855 0.186597
0.269336 0.131238 0.207917
0.390777 0.148309 0.227019
0.000000 0.128936 0.185423
0.000000 0.130385 0.186437
0.000000 0.134045 0.189019
0.000000 0.092273 0.161472
0.000000 0.115842 0.176383
0.102474 0.138819 0.192274
0.218941 0.160975 0.208518
0.325320 0.181780 0.224796
0.435183 0.200198 0.239421
0.000000 0.165298 0.191371
0.000000 0.168130 0.192879
0.000000 0.174945 0.196573
0.000000 0.185938 0.202714
0.107955 0.200363 0.211083
0.200411 0.217268 0.221274
0.290053 0.235775 0.232744
0.385269 0.254542 0.243995
0.488364 0.272424 0.253605
0.000000 0.276256 0.229276
0.000000 0.278009 0.230202
0.014987 0.282367 0.232515
0.113831 0.289796 0.236497
0.193077 0.300261 0.242186
0.271930 0.313484 0.249445
0.355010 0.329029 0.257357
0.446045 0.345759 0.263279
0.545613 0.362745 0.268147
0.050226 0.393488 0.262233
0.079721 0.394818 0.262920
0.130848 0.398163 0.264660
0.193119 0.403990 0.267738
0.262041 0.412455 0.272337
0.336547 0.423566 0.278672
0.416425 0.437371 0.285666
0.503915 0.453447 0.288140
0.601211 0.470234 0.288295
0.150998 0.520606 0.299172
0.167841 0.521754 0.299983
0.204641 0.524659 0.302078
0.257693 0.529761 0.305803
0.321774 0.537238 0.311332
0.394020 0.547088 0.318435
0.473111 0.559166 0.326637
0.558370 0.573541 0.329555
0.655870 0.588967 0.298866
0.224167 0.656312 0.341733
0.238229 0.657230 0.342241
0.270608 0.659548 0.343521
0.320000 0.663618 0.345764
0.382087 0.669597 0.349063
0.453387 0.677530 0.353511
0.531683 0.687369 0.359295
0.615574 0.698999 0.366866
0.704383 0.712917 0.359936
0.000000 0.081054 0.163774
0.000000 0.081149 0.165488
0.000000 0.081466 0.169809
0.000000 0.082292 0.177370
0.000000 0.084138 0.188418
0.064990 0.087751 0.202992
0.000000 0.084853 0.176591
0.219128 0.096700 0.217230
0.356205 0.108158 0.249653
0.000000 0.083248 0.169679
0.000000 0.083605 0.171361
0.000000 0.084578 0.175602
0.000000 0.086541 0.183027
0.000000 0.090001 0.193887
0.085444 0.095601 0.208229
0.056001 0.091199 0.188047
0.238888 0.106655 0.224288
0.368892 0.120369 0.254565
0.000000 0.095389 0.184225
0.000000 0.096298 0.185832
0.000000 0.098639 0.189886
0.000000 0.102902 0.196995
0.000000 0.109491 0.207414
0.000000 0.093462 0.177194
0.151456 0.114649 0.211162
0.279265 0.134283 0.239988
0.397701 0.151023 0.265911
0.000000 0.132494 0.208655
0.000000 0.133928 0.210148
0.000000 0.082951 0.156906
0.000000 0.101790 0.175551
0.000000 0.122638 0.196911
0.118076 0.143837 0.218958
0.228174 0.164872 0.240773
0.332129 0.185033 0.262479
0.440477 0.203099 0.282950
0.000000 0.172113 0.217725
0.000000 0.174734 0.219784
0.000000 0.181076 0.224805
0.000000 0.191395 0.233073
0.116984 0.205083 0.244195
0.207153 0.221298 0.257529
0.295721 0.239251 0.272476
0.389939 0.257640 0.288248
0.492206 0.275276 0.303275
0.000000 0.280533 0.267857
0.000000 0.282229 0.269044
0.024881 0.286450 0.272005
0.119713 0.293662 0.277084
0.197871 0.303852 0.284297
0.276353 0.316762 0.293492
0.359063 0.332005 0.304229
0.449363 0.348540 0.314962
0.548240 0.365447 0.325416
0.057896 0.396749 0.309307
0.085650 0.398056 0.310151
0.135315 0.401346 0.312282
0.196850 0.407082 0.316031
0.265431 0.415428 0.321579
0.339758 0.426404 0.329096
0.419508 0.440032 0.338281
0.506384 0.455972 0.346283
0.602924 0.472671 0.353014
0.153937 0.523427 0.352256
0.170609 0.524566 0.353133
0.207189 0.527441 0.355353
0.260093 0.532484 0.359267
0.324131 0.539873 0.365026
0.396432 0.549600 0.372372
0.475572 0.561534 0.380968
0.560812 0.575665 0.387024
0.657406 0.590778 0.372698
0.227011 0.658565 0.397131
0.240976 0.659473 0.397682
0.273180 0.661766 0.399071
0.322390 0.665794 0.401508
0.384333 0.671712 0.405097
0.455523 0.679566 0.409928
0.533718 0.689313 0.416161
0.617492 0.700842 0.424171
0.706081 0.714588 0.422023
0.000000 0.081443 0.177915
0.000000 0.081593 0.180468
0.000000 0.082050 0.186831
0.000000 0.083117 0.197743
0.000000 0.085304 0.213258
0.084968 0.089328 0.233082
0.054220 0.087481 0.203880
0.238306 0.099391 0.253499
0.367748 0.111197 0.292959
0.000000 0.084512 0.186641
0.000000 0.084918 0.189093
0.000000 0.086013 0.195215
0.000000 0.088181 0.205745
0.000000 0.091915 0.220774
0.102178 0.097826 0.240057
0.104582 0.094885 0.217876
0.255492 0.109989 0.261996
0.379562 0.123733 0.298983
0.000000 0.098485 0.207425
0.000000 0.099414 0.209667
0.000000 0.101803 0.215285
0.000000 0.106139 0.225003
0.013726 0.112811 0.238977
0.000000 0.100105 0.204617
0.172653 0.119560 0.246111
0.291742 0.138441 0.280991
0.406644 0.154844 0.312953
0.000000 0.082141 0.156845
0.000000 0.086865 0.163963
0.000000 0.097484 0.179849
0.000000 0.112913 0.202609
0.000000 0.131002 0.228706
0.136053 0.150243 0.255620
0.239915 0.169947 0.282152
0.340898 0.189488 0.308352
0.447391 0.207146 0.334158
0.000000 0.180675 0.254116
0.000000 0.183060 0.256627
0.000000 0.188864 0.262743
0.013675 0.198405 0.272803
0.128227 0.211221 0.286301
0.215904 0.226600 0.302427
0.303265 0.243871 0.320371
0.396101 0.261894 0.340019
0.497266 0.279260 0.360047
0.000000 0.286179 0.314875
0.000000 0.287804 0.316303
0.038655 0.291855 0.319864
0.127399 0.298795 0.325964
0.204244 0.308637 0.334611
0.282232 0.321163 0.345607
0.364505 0.336050 0.358689
0.453800 0.352398 0.373523
0.551711 0.369241 0.389040
0.067471 0.401133 0.364412
0.093330 0.402412 0.365410
0.141248 0.405631 0.367927
0.201850 0.411251 0.372342
0.269984 0.419444 0.378839
0.344072 0.430249 0.387559
0.423667 0.443667 0.398642
0.509719 0.459484 0.411150
0.605262 0.476073 0.423310
0.157847 0.527255 0.413542
0.174337 0.528376 0.414476
0.210648 0.531205 0.416837
0.263353 0.536170 0.420994
0.327374 0.543435 0.427017
0.399736 0.552997 0.434716
0.478931 0.564738 0.443826
0.564155 0.578561 0.452568
0.659481 0.593333 0.451099
0.230886 0.661617 0.461267
0.244721 0.662512 0.461867
0.276685 0.664772 0.463383
0.325645 0.668743 0.466045
0.387387 0.674578 0.469969
0.458419 0.682328 0.475245
0.536469 0.691951 0.482013
0.620077 0.703345 0.490581
0.708329 0.716798 0.494024
0.000000 0.082220 0.203300
0.000000 0.082441 0.206607
0.000000 0.083072 0.214799
0.000000 0.084440 0.228694
0.000000 0.087044 0.248159
0.000000 0.081497 0.164289
0.114057 0.090915 0.245502
0.259643 0.102855 0.299831
0.381349 0.115505 0.343903
0.000000 0.086388 0.214555
0.000000 0.086853 0.217694
0.000000 0.088096 0.225491
0.000000 0.090510 0.238772
0.000000 0.094571 0.257483
0.000000 0.086184 0.194593
0.143744 0.099463 0.260583
0.274503 0.114073 0.309339
0.392210 0.128391 0.350770
0.000000 0.102586 0.240877
0.000000 0.103537 0.243682
0.000000 0.105978 0.250680
0.000000 0.110393 0.262702
0.000000 0.089990 0.190398
0.051551 0.107765 0.246291
0.195285 0.125500 0.291605
0.306665 0.143461 0.330581
0.417372 0.159993 0.366787
0.000000 0.100585 0.196723
0.000000 0.104141 0.203887
0.000000 0.112406 0.220174
0.000000 0.125017 0.244144
0.028931 0.140577 0.272396
0.155455 0.157861 0.302200
0.253765 0.176145 0.332048
0.351630 0.195104 0.361307
0.455791 0.212532 0.391367
0.000000 0.190676 0.300521
0.000000 0.192820 0.303326
0.000000 0.198071 0.310177
0.037567 0.206792 0.321489
0.141282 0.218667 0.336745
0.226506 0.233117 0.355058
0.312705 0.249555 0.375519
0.403697 0.267436 0.397532
0.503474 0.284559 0.421912
0.000000 0.293147 0.369245
0.000000 0.294691 0.370875
0.054977 0.298546 0.374940
0.136789 0.305172 0.381909
0.212179 0.314609 0.391799
0.289595 0.326686 0.404386
0.371502 0.341134 0.419346
0.459362 0.357481 0.436777
0.555991 0.374320 0.456736
0.078633 0.406667 0.425905
0.102609 0.407912 0.427045
0.148616 0.411047 0.429919
0.208124 0.416530 0.434955
0.275713 0.424543 0.442348
0.349499 0.435148 0.452218
0.428878 0.448366 0.464730
0.514003 0.464090 0.480182
0.608273 0.480587 0.496629
0.162819 0.532118 0.480935
0.179086 0.533217 0.481931
0.215063 0.535990 0.484447
0.267568 0.540850 0.488834
0.331585 0.547953 0.495139
0.404001 0.557310 0.503255
0.483246 0.568810 0.512944
0.568472 0.582282 0.523651
0.662201 0.596768 0.531276
0.235848 0.665502 0.531762
0.249518 0.666380 0.532416
0.281178 0.668598 0.534066
0.329812 0.672497 0.536966
0.391286 0.678230 0.541246
0.462105 0.685848 0.546998
0.539957 0.695318 0.554343
0.623341 0.706543 0.563541
0.711239 0.719627 0.571787
0.000000 0.083605 0.241951
0.000000 0.083908 0.245796
0.000000 0.084745 0.255307
0.000000 0.086462 0.271396
0.000000 0.089542 0.293850
0.000000 0.085676 0.226027
0.157461 0.095215 0.300212
0.282298 0.107143 0.355597
0.396678 0.121242 0.401648
0.000000 0.089072 0.255024
0.000000 0.089605 0.258664
0.000000 0.091015 0.267692
0.000000 0.093703 0.283034
0.000000 0.081361 0.161216
0.000000 0.092373 0.252217
0.178128 0.104914 0.315219
0.295106 0.119009 0.365618
0.406483 0.134594 0.408974
0.000000 0.107808 0.285462
0.000000 0.108781 0.288694
0.000000 0.111273 0.296752
0.000000 0.086813 0.187389
0.000000 0.100916 0.248474
0.101840 0.116226 0.300989
0.218553 0.132363 0.346995
0.323590 0.149255 0.388276
0.429550 0.166777 0.426296
0.000000 0.117943 0.254131
0.000000 0.120699 0.260635
0.000000 0.127259 0.275776
0.000000 0.137653 0.298877
0.070389 0.151038 0.327185
0.175633 0.166497 0.358086
0.269326 0.183362 0.389853
0.364819 0.201250 0.421575
0.465464 0.219514 0.453344
0.000000 0.201796 0.356320
0.000000 0.203712 0.359271
0.000000 0.208430 0.366505
0.062847 0.216347 0.378536
0.155778 0.227270 0.394912
0.238750 0.240753 0.414761
0.323810 0.256301 0.437139
0.413824 0.273515 0.461248
0.510702 0.291417 0.487494
0.000000 0.301343 0.430257
0.000000 0.302801 0.432043
0.071802 0.306445 0.436503
0.147740 0.312729 0.444163
0.221607 0.321725 0.455064
0.298400 0.333308 0.468981
0.379914 0.347266 0.485570
0.466900 0.363432 0.504537
0.561002 0.380933 0.527008
0.091067 0.413347 0.492851
0.113283 0.414554 0.494117
0.157325 0.417597 0.497309
0.215623 0.422928 0.502900
0.282581 0.430744 0.511102
0.356001 0.441133 0.522028
0.435079 0.454158 0.535812
0.519673 0.469724 0.552385
0.612008 0.486394 0.571304
0.168881 0.538028 0.553225
0.184907 0.539098 0.554275
0.220556 0.541797 0.556912
0.272870 0.546523 0.561491
0.336838 0.553434 0.568097
0.409282 0.562546 0.576646
0.488558 0.573759 0.586929
0.573791 0.586884 0.598684
0.665646 0.601258 0.611586
0.241923 0.670231 0.607132
0.255395 0.671090 0.607838
0.286681 0.673259 0.609622
0.334911 0.677072 0.612761
0.396044 0.682683 0.617396
0.466585 0.690145 0.623625
0.544177 0.699432 0.631558
0.627265 0.710458 0.641415
0.714952 0.723175 0.652579
0.000000 0.085855 0.294104
0.000000 0.086251 0.298254
0.000000 0.087315 0.308537
0.000000 0.089411 0.325982
0.000000 0.083506 0.212640
0.047547 0.090815 0.300212
0.193879 0.100419 0.365748
0.305687 0.112280 0.419912
0.414829 0.126205 0.467285
0.000000 0.092778 0.308231
0.000000 0.093383 0.312172
0.000000 0.094968 0.321961
0.000000 0.081018 0.157981
0.000000 0.089234 0.251959
0.084496 0.099332 0.322258
0.209380 0.111212 0.380053
0.316753 0.124782 0.430070
0.423782 0.139925 0.474965
0.000000 0.083120 0.172285
0.000000 0.085575 0.189237
0.000000 0.091363 0.224326
0.000000 0.100421 0.270260
0.000000 0.111980 0.319028
0.139071 0.125332 0.366480
0.241992 0.140045 0.411270
0.341958 0.155900 0.453358
0.444947 0.172813 0.493118
0.000000 0.134328 0.323919
0.000000 0.136529 0.329612
0.000000 0.141859 0.343145
0.000000 0.150552 0.364490
0.102122 0.162138 0.391670
0.196203 0.175970 0.422426
0.286239 0.191484 0.454994
0.379614 0.208301 0.488251
0.478214 0.226257 0.521589
0.000000 0.213758 0.420642
0.000000 0.215466 0.423625
0.000000 0.219696 0.430973
0.085728 0.226861 0.443296
0.171419 0.236869 0.460254
0.252423 0.249393 0.481056
0.336424 0.264036 0.504780
0.425615 0.280471 0.530604
0.520645 0.298577 0.557970
0.000000 0.310652 0.497456
0.015469 0.312020 0.499355
0.089103 0.315448 0.504102
0.160092 0.321381 0.512279
0.232426 0.329919 0.523957
0.308560 0.340988 0.538935
0.389645 0.354439 0.556870
0.476198 0.370175 0.577452
0.568216 0.388321 0.600614
0.104473 0.421154 0.564765
0.125106 0.422321 0.566138
0.167223 0.425267 0.569602
0.224243 0.430441 0.575674
0.290496 0.438055 0.584585
0.363487 0.448230 0.596454
0.442228 0.461053 0.611369
0.526846 0.476177 0.628796
0.617729 0.493030 0.647594
0.176297 0.544950 0.629666
0.192061 0.545985 0.630756
0.227315 0.548594 0.633495
0.279342 0.553167 0.638260
0.343193 0.559859 0.645157
0.415619 0.568692 0.654125
0.494888 0.579578 0.664975
0.580050 0.592343 0.677466
0.670423 0.606770 0.691412
0.249096 0.675801 0.686495
0.262337 0.676637 0.687251
0.293186 0.678750 0.689163
0.340930 0.682466 0.692529
0.401643 0.687937 0.697505
0.471831 0.695220 0.704192
0.549088 0.704298 0.712695
0.631798 0.715097 0.723202
0.719548 0.727507 0.735220
