RedKomodo_Cinematic_Teal_v2.cube
TITLE "Red Komodo X - Cinematic Teal v2"
# v2: stronger contrast, harder black crush, teal shadows, warm highlights
# Apply AFTER Color Space Transform (REDWideGamutRGB/Log3G10 > Rec.709)
LUT_3D_SIZE 33
0.000000 0.080825 0.154858
0.000000 0.080825 0.154858
0.000000 0.080825 0.154858
0.000000 0.080828 0.154860
0.000000 0.080832 0.154862
0.000000 0.080840 0.154867
0.000000 0.080856 0.154875
0.000000 0.080882 0.154889
0.000000 0.080922 0.154911
0.000000 0.080982 0.154944
0.000000 0.081069 0.154991
0.000000 0.081189 0.155056
0.000000 0.081350 0.155144
0.000000 0.081563 0.155260
0.000000 0.081839 0.155410
0.000000 0.082188 0.155601
0.000000 0.082625 0.155840
0.000000 0.083163 0.156134
0.000000 0.083817 0.156492
0.000000 0.084601 0.156922
0.020921 0.085533 0.157434
0.066043 0.086626 0.158036
0.100942 0.087898 0.158738
0.131427 0.089361 0.159547
0.159910 0.091030 0.160473
0.000000 0.083392 0.156259
0.052023 0.086233 0.157819
0.129409 0.089254 0.159488
0.181038 0.092407 0.161305
0.224253 0.095534 0.163260
0.263348 0.098527 0.165224
0.300239 0.101201 0.167096
0.335553 0.103782 0.168802
0.000000 0.080825 0.154858
0.000000 0.080848 0.154860
0.000000 0.080857 0.154861
0.000000 0.080870 0.154864
0.000000 0.080891 0.154868
0.000000 0.080920 0.154875
0.000000 0.080962 0.154887
0.000000 0.081019 0.154904
0.000000 0.081096 0.154931
0.000000 0.081198 0.154968
0.000000 0.081333 0.155021
0.000000 0.081507 0.155093
0.000000 0.081728 0.155188
0.000000 0.082007 0.155311
0.000000 0.082355 0.155470
0.000000 0.082782 0.155670
0.000000 0.083302 0.155918
0.000000 0.083928 0.156222
0.000000 0.084675 0.156591
0.000000 0.085558 0.157033
0.026218 0.086591 0.157556
0.070108 0.087789 0.158171
0.104134 0.089168 0.158884
0.134184 0.090740 0.159706
0.000000 0.081219 0.155050
0.000000 0.084159 0.156506
0.065728 0.087247 0.158070
0.136118 0.090486 0.159742
0.185822 0.093817 0.161572
0.228069 0.097098 0.163520
0.266575 0.100221 0.165469
0.303073 0.103006 0.167315
0.338069 0.105721 0.168997
0.000000 0.080912 0.154864
0.000000 0.080928 0.154866
0.000000 0.080947 0.154868
0.000000 0.080974 0.154872
0.000000 0.081014 0.154879
0.000000 0.081067 0.154889
0.000000 0.081138 0.154903
0.000000 0.081231 0.154925
0.000000 0.081349 0.154957
0.000000 0.081499 0.155000
0.000000 0.081688 0.155059
0.000000 0.081922 0.155137
0.000000 0.082211 0.155240
0.000000 0.082564 0.155373
0.000000 0.082991 0.155541
0.000000 0.083505 0.155751
0.000000 0.084117 0.156010
0.000000 0.084842 0.156326
0.000000 0.085693 0.156707
0.000000 0.086683 0.157161
0.032223 0.087828 0.157698
0.074504 0.089142 0.158326
0.107647 0.090638 0.159053
0.137243 0.092328 0.159889
0.000000 0.081887 0.155324
0.000000 0.085125 0.156785
0.078788 0.088476 0.158355
0.143234 0.091944 0.160031
0.191020 0.095460 0.161873
0.232261 0.098902 0.163812
0.270144 0.102162 0.165743
0.306200 0.105085 0.167561
0.340872 0.107925 0.169216
0.000000 0.081120 0.154878
0.000000 0.081148 0.154881
0.000000 0.081181 0.154885
0.000000 0.081229 0.154891
0.000000 0.081295 0.154901
0.000000 0.081383 0.154915
0.000000 0.081496 0.154935
0.000000 0.081639 0.154962
0.000000 0.081816 0.155001
0.000000 0.082034 0.155052
0.000000 0.082299 0.155120
0.000000 0.082619 0.155209
0.000000 0.083003 0.155323
0.000000 0.083459 0.155468
0.000000 0.084000 0.155649
0.000000 0.084635 0.155874
0.000000 0.085377 0.156148
0.000000 0.086239 0.156481
0.000000 0.087233 0.156879
0.000000 0.088374 0.157352
0.040849 0.089674 0.157907
0.080479 0.091146 0.158554
0.112517 0.092803 0.159300
0.141522 0.094657 0.160155
0.000000 0.083057 0.155719
0.000000 0.086684 0.157188
0.094574 0.090375 0.158764
0.152690 0.094144 0.160446
0.198115 0.097898 0.162302
0.238058 0.101549 0.164227
0.275119 0.104986 0.166131
0.310576 0.108094 0.167909
0.344813 0.111096 0.169525
0.000000 0.081594 0.154909
0.000000 0.081639 0.154914
0.000000 0.081690 0.154920
0.000000 0.081765 0.154930
0.000000 0.081867 0.154943
0.000000 0.082000 0.154963
0.000000 0.082169 0.154989
0.000000 0.082379 0.155025
0.000000 0.082634 0.155072
0.000000 0.082941 0.155134
0.000000 0.083307 0.155215
0.000000 0.083739 0.155317
0.000000 0.084247 0.155446
0.000000 0.084839 0.155608
0.000000 0.085526 0.155807
0.000000 0.086319 0.156051
0.000000 0.087228 0.156346
0.000000 0.088266 0.156701
0.000000 0.089446 0.157122
0.006661 0.090778 0.157618
0.051400 0.092276 0.158198
0.087989 0.093950 0.158870
0.118780 0.095812 0.159642
0.000000 0.080887 0.154878
0.000000 0.084985 0.156252
0.027921 0.089066 0.157732
0.112221 0.093157 0.159316
0.164255 0.097273 0.161010
0.207056 0.101305 0.162876
0.245481 0.105199 0.164779
0.281553 0.108845 0.166643
0.316271 0.112176 0.168368
0.349967 0.115374 0.169929
0.000000 0.082518 0.154970
0.000000 0.082583 0.154977
0.000000 0.082658 0.154986
0.000000 0.082766 0.155000
0.000000 0.082913 0.155019
0.000000 0.083103 0.155045
0.000000 0.083341 0.155080
0.000000 0.083633 0.155126
0.000000 0.083985 0.155185
0.000000 0.084402 0.155261
0.000000 0.084892 0.155356
0.000000 0.085463 0.155476
0.000000 0.086123 0.155624
0.000000 0.086880 0.155806
0.000000 0.087746 0.156028
0.000000 0.088729 0.156297
0.000000 0.089841 0.156618
0.000000 0.091091 0.157000
0.000000 0.092492 0.157450
0.020000 0.094053 0.157976
0.063087 0.095786 0.158586
0.096871 0.097699 0.159289
0.126367 0.099802 0.160092
0.000000 0.083327 0.155551
0.000000 0.087967 0.156939
0.067199 0.092526 0.158430
0.130918 0.097038 0.160024
0.177523 0.101504 0.161749
0.217631 0.105838 0.163600
0.254417 0.109991 0.165472
0.289389 0.113857 0.167280
0.323258 0.117439 0.168938
0.356328 0.120851 0.170428
0.000000 0.084132 0.155077
0.000000 0.084222 0.155088
0.000000 0.084325 0.155100
0.000000 0.084472 0.155119
0.000000 0.084672 0.155145
0.000000 0.084929 0.155179
0.000000 0.085249 0.155224
0.000000 0.085638 0.155283
0.000000 0.086102 0.155356
0.000000 0.086648 0.155448
0.000000 0.087283 0.155562
0.000000 0.088014 0.155703
0.000000 0.088850 0.155874
0.000000 0.089799 0.156082
0.000000 0.090869 0.156331
0.000000 0.092071 0.156629
0.000000 0.093413 0.156981
0.000000 0.094904 0.157396
0.000000 0.096555 0.157880
0.036522 0.098373 0.158442
0.075622 0.100368 0.159089
0.106944 0.102548 0.159829
0.000000 0.081829 0.155086
0.000000 0.087163 0.156388
0.013484 0.092309 0.157791
0.098450 0.097319 0.159295
0.150095 0.102234 0.160899
0.192054 0.107027 0.162652
0.229575 0.111649 0.164480
0.264700 0.116051 0.166305
0.298524 0.120130 0.168038
0.331466 0.123975 0.169616
0.363853 0.127606 0.171018
0.000000 0.086726 0.155253
0.000000 0.086844 0.155268
0.000000 0.086977 0.155284
0.000000 0.087168 0.155308
0.000000 0.087427 0.155342
0.000000 0.087758 0.155386
0.000000 0.088170 0.155444
0.000000 0.088667 0.155517
0.000000 0.089257 0.155607
0.000000 0.089945 0.155719
0.000000 0.090740 0.155855
0.000000 0.091649 0.156020
0.000000 0.092677 0.156218
0.000000 0.093835 0.156456
0.000000 0.095129 0.156737
0.000000 0.096567 0.157069
0.000000 0.098157 0.157458
0.000000 0.099907 0.157911
0.012534 0.101825 0.158435
0.054692 0.103918 0.159038
0.088805 0.106192 0.159727
0.000000 0.080838 0.154861
0.000000 0.086929 0.156083
0.000000 0.092720 0.157404
0.067680 0.098283 0.158822
0.125653 0.103673 0.160339
0.169388 0.108925 0.161965
0.207471 0.113994 0.163723
0.242617 0.118866 0.165514
0.276141 0.123485 0.167274
0.308822 0.127752 0.168905
0.340798 0.131858 0.170394
0.372471 0.135696 0.171687
0.000000 0.090616 0.155525
0.000000 0.090762 0.155543
0.000000 0.090928 0.155564
0.000000 0.091167 0.155595
0.000000 0.091488 0.155638
0.000000 0.091898 0.155694
0.000000 0.092406 0.155765
0.000000 0.093018 0.155855
0.000000 0.093739 0.155965
0.000000 0.094578 0.156099
0.000000 0.095540 0.156260
0.000000 0.096633 0.156454
0.000000 0.097863 0.156683
0.000000 0.099237 0.156954
0.000000 0.100761 0.157272
0.000000 0.102442 0.157643
0.000000 0.104287 0.158073
0.000000 0.106301 0.158569
0.033623 0.108491 0.159138
0.071901 0.110861 0.159786
0.000000 0.080957 0.154879
0.000000 0.087743 0.156028
0.000000 0.094139 0.157271
0.040264 0.100231 0.158610
0.105346 0.106083 0.160044
0.150356 0.111750 0.161572
0.188576 0.117234 0.163229
0.223463 0.122518 0.164959
0.256506 0.127582 0.166696
0.288545 0.132369 0.168366
0.320087 0.136823 0.169879
0.351137 0.141137 0.171259
0.382093 0.145160 0.172420
0.000000 0.096116 0.155923
0.000000 0.096292 0.155946
0.000000 0.096490 0.155973
0.000000 0.096776 0.156011
0.000000 0.097159 0.156064
0.000000 0.097649 0.156133
0.000000 0.098253 0.156220
0.000000 0.098979 0.156329
0.000000 0.099832 0.156461
0.000000 0.100819 0.156620
0.000000 0.101947 0.156810
0.000000 0.103222 0.157034
0.000000 0.104650 0.157298
0.000000 0.106236 0.157606
0.000000 0.107985 0.157965
0.000000 0.109904 0.158378
0.000000 0.111996 0.158854
0.016008 0.114267 0.159397
0.056135 0.116719 0.160014
0.000000 0.082967 0.155147
0.000000 0.090236 0.156229
0.000000 0.097077 0.157400
0.022487 0.103576 0.158664
0.090400 0.109801 0.160019
0.135552 0.115806 0.161466
0.173276 0.121625 0.163017
0.207498 0.127242 0.164670
0.239796 0.132660 0.166353
0.271024 0.137848 0.168012
0.301731 0.142748 0.169563
0.332163 0.147376 0.170949
0.362359 0.151838 0.172192
0.392621 0.156014 0.173196
0.000000 0.103503 0.156486
0.000000 0.103706 0.156514
0.000000 0.103936 0.156546
0.000000 0.104265 0.156593
0.000000 0.104708 0.156657
0.000000 0.105272 0.156740
0.000000 0.105967 0.156845
0.000000 0.106799 0.156974
0.000000 0.107775 0.157130
0.000000 0.108902 0.157316
0.000000 0.110185 0.157537
0.000000 0.111630 0.157796
0.000000 0.113241 0.158097
0.000000 0.115024 0.158446
0.000000 0.116983 0.158847
0.000000 0.119121 0.159307
0.002506 0.121442 0.159831
0.041341 0.123949 0.160424
0.000000 0.087649 0.155675
0.000000 0.095061 0.156693
0.000000 0.102082 0.157798
0.017073 0.108780 0.158990
0.081545 0.115211 0.160270
0.125263 0.121422 0.161639
0.161739 0.127452 0.163096
0.194830 0.133296 0.164664
0.226078 0.138961 0.166277
0.256296 0.144432 0.167891
0.285993 0.149675 0.169442
0.315539 0.154629 0.170838
0.344941 0.159394 0.172089
0.374345 0.163962 0.173170
0.403950 0.168255 0.173988
0.000000 0.112983 0.157252
0.000000 0.113210 0.157286
0.000000 0.113467 0.157325
0.000000 0.113836 0.157380
0.000000 0.114331 0.157456
0.000000 0.114961 0.157555
0.000000 0.115736 0.157678
0.000000 0.116662 0.157829
0.000000 0.117747 0.158011
0.000000 0.118996 0.158226
0.000000 0.120416 0.158480
0.000000 0.122010 0.158775
0.000000 0.123784 0.159115
0.000000 0.125740 0.159507
0.000000 0.127883 0.159954
0.000000 0.130214 0.160461
0.000000 0.088035 0.155595
0.000000 0.095544 0.156473
0.000000 0.102718 0.157432
0.000000 0.109605 0.158472
0.020452 0.116243 0.159596
0.078429 0.122667 0.160805
0.119253 0.128908 0.162098
0.153798 0.134993 0.163476
0.185343 0.140931 0.164951
0.215267 0.146718 0.166485
0.244284 0.152349 0.168035
0.272846 0.157803 0.169551
0.301275 0.163039 0.170959
0.329827 0.167997 0.172157
0.358293 0.172858 0.173271
0.386981 0.177490 0.174161
0.415981 0.181863 0.174763
0.000000 0.124676 0.158265
0.000000 0.124924 0.158304
0.000000 0.125204 0.158350
0.000000 0.125605 0.158415
0.000000 0.126143 0.158503
0.000000 0.126828 0.158618
0.000000 0.127669 0.158760
0.000000 0.128674 0.158934
0.000000 0.129849 0.159143
0.000000 0.131201 0.159388
0.000000 0.132734 0.159676
0.000000 0.134453 0.160008
0.000000 0.136361 0.160389
0.000000 0.085992 0.155302
0.000000 0.093090 0.155982
0.000000 0.100027 0.156732
0.000000 0.106803 0.157556
0.000000 0.113422 0.158456
0.000000 0.119891 0.159434
0.029286 0.126220 0.160492
0.079610 0.132420 0.161630
0.116749 0.138503 0.162850
0.148942 0.144481 0.164151
0.178684 0.150360 0.165538
0.207099 0.156134 0.166987
0.234784 0.161796 0.168462
0.262117 0.167332 0.169921
0.289371 0.172712 0.171305
0.316766 0.177891 0.172527
0.344393 0.182860 0.173541
0.372112 0.187728 0.174460
0.400165 0.192387 0.175129
0.428620 0.196806 0.175480
0.000000 0.138622 0.159566
0.000000 0.138886 0.159611
0.000000 0.139184 0.159663
0.000000 0.139610 0.159738
0.000000 0.140182 0.159839
0.000000 0.140910 0.159970
0.000000 0.141802 0.160132
0.000000 0.142868 0.160329
0.000000 0.081941 0.154938
0.000000 0.087060 0.155325
0.000000 0.092433 0.155768
0.000000 0.097999 0.156271
0.000000 0.103702 0.156837
0.000000 0.109495 0.157467
0.000000 0.115343 0.158166
0.000000 0.121214 0.158935
0.000000 0.127086 0.159777
0.000000 0.132944 0.160693
0.040745 0.138774 0.161685
0.083241 0.144571 0.162754
0.116682 0.150329 0.163901
0.146447 0.156049 0.165126
0.174320 0.161728 0.166428
0.201167 0.167357 0.167790
0.227470 0.172927 0.169182
0.253538 0.178421 0.170570
0.279596 0.183819 0.171905
0.305826 0.189084 0.173116
0.332391 0.194167 0.174103
0.359226 0.199115 0.174924
0.386307 0.203955 0.175617
0.413809 0.208608 0.176030
0.441780 0.213044 0.176095
0.000000 0.094621 0.155813
0.000000 0.095528 0.155884
0.000000 0.096540 0.155963
0.000000 0.097966 0.156078
0.000000 0.099834 0.156232
0.000000 0.102146 0.156430
0.000000 0.104889 0.156673
0.000000 0.108037 0.156966
0.000000 0.111560 0.157310
0.000000 0.115419 0.157710
0.000000 0.119573 0.158167
0.000000 0.123982 0.158684
0.000000 0.128607 0.159265
0.000000 0.133409 0.159910
0.000000 0.138357 0.160623
0.000000 0.143420 0.161405
0.006943 0.148574 0.162258
0.051586 0.153797 0.163184
0.087773 0.159073 0.164183
0.117997 0.164388 0.165257
0.145531 0.169731 0.166404
0.171642 0.175094 0.167625
0.196981 0.180466 0.168897
0.221941 0.185831 0.170202
0.246773 0.191175 0.171511
0.271660 0.196478 0.172781
0.296754 0.201710 0.173953
0.322188 0.206835 0.174944
0.348097 0.211797 0.175637
0.374259 0.216697 0.176261
0.400805 0.221483 0.176694
0.427833 0.226105 0.176817
0.455385 0.230534 0.176559
0.000000 0.126614 0.158440
0.000000 0.127287 0.158512
0.000000 0.128041 0.158595
0.000000 0.129109 0.158713
0.000000 0.130521 0.158872
0.000000 0.132284 0.159075
0.000000 0.134398 0.159325
0.000000 0.136857 0.159625
0.000000 0.139646 0.159978
0.000000 0.142745 0.160387
0.000000 0.146133 0.160854
0.000000 0.149783 0.161381
0.000000 0.153670 0.161970
0.000000 0.157767 0.162625
0.000000 0.162049 0.163345
0.020317 0.166492 0.164134
0.060408 0.171074 0.164991
0.092213 0.175776 0.165919
0.119866 0.180579 0.166918
0.145509 0.185470 0.167987
0.170073 0.190435 0.169127
0.194053 0.195465 0.170309
0.217779 0.200540 0.171525
0.241458 0.205643 0.172749
0.265244 0.210757 0.173944
0.289262 0.215858 0.175061
0.313626 0.220913 0.176028
0.338447 0.225883 0.176746
0.363835 0.230713 0.177088
0.389443 0.235541 0.177506
0.415543 0.240255 0.177645
0.442171 0.244827 0.177441
0.469360 0.249230 0.176822
0.000000 0.156459 0.161368
0.000000 0.156996 0.161442
0.000000 0.157600 0.161526
0.000000 0.158458 0.161647
0.000000 0.159596 0.161808
0.000000 0.161027 0.162015
0.000000 0.162754 0.162269
0.000000 0.164778 0.162574
0.000000 0.167093 0.162932
0.000000 0.169690 0.163345
0.000000 0.172556 0.163817
0.000000 0.175676 0.164348
0.000000 0.179033 0.164941
0.000000 0.182610 0.165597
0.031466 0.186387 0.166319
0.067295 0.190346 0.167106
0.096072 0.194470 0.167961
0.121757 0.198742 0.168883
0.145873 0.203146 0.169872
0.169143 0.207668 0.170929
0.191957 0.212301 0.172024
0.214598 0.217025 0.173149
0.237245 0.221822 0.174286
0.260030 0.226675 0.175402
0.283061 0.231565 0.176454
0.306435 0.236465 0.177379
0.330248 0.241342 0.178093
0.354599 0.246152 0.178480
0.379531 0.250865 0.178488
0.404735 0.255586 0.178608
0.430469 0.260215 0.178419
0.456761 0.264727 0.177854
0.483639 0.269093 0.176840
0.000000 0.185340 0.164579
0.000000 0.185789 0.164654
0.000000 0.186295 0.164738
0.000000 0.187016 0.164859
0.000000 0.187975 0.165022
0.000000 0.189184 0.165230
0.000000 0.190650 0.165485
0.000000 0.192377 0.165790
0.000000 0.194364 0.166149
0.000000 0.196607 0.166563
0.000000 0.199099 0.167033
0.000000 0.201833 0.167563
0.005479 0.204795 0.168153
0.040577 0.207976 0.168805
0.072607 0.211360 0.169520
0.099229 0.214936 0.170299
0.123413 0.218688 0.171142
0.146319 0.222604 0.172050
0.168531 0.226670 0.173023
0.190374 0.230880 0.174033
0.212089 0.235217 0.175070
0.233837 0.239665 0.176120
0.255737 0.244209 0.177157
0.277883 0.248830 0.178140
0.300363 0.253508 0.179016
0.323257 0.258216 0.179712
0.346652 0.262920 0.180125
0.370642 0.267576 0.180119
0.395221 0.272165 0.179733
0.420101 0.276776 0.179525
0.445534 0.281317 0.178977
0.471544 0.285762 0.178021
0.498156 0.290087 0.176584
0.000000 0.213853 0.168041
0.000000 0.214241 0.168116
0.000000 0.214679 0.168200
0.000000 0.215303 0.168320
0.000000 0.216136 0.168482
0.000000 0.217188 0.168688
0.000000 0.218469 0.168941
0.000000 0.219982 0.169244
0.000000 0.221730 0.169599
0.000000 0.223712 0.170008
0.000000 0.225926 0.170473
0.013983 0.228366 0.170995
0.047744 0.231025 0.171576
0.076836 0.233897 0.172218
0.101812 0.236970 0.172920
0.124802 0.240236 0.173683
0.146724 0.243683 0.174508
0.168064 0.247302 0.175396
0.189100 0.251085 0.176325
0.210033 0.255023 0.177279
0.231011 0.259100 0.178248
0.252140 0.263303 0.179210
0.273507 0.267618 0.180128
0.295188 0.272028 0.180955
0.317257 0.276511 0.181626
0.339787 0.281041 0.182054
0.362860 0.285584 0.182118
0.386569 0.290097 0.181659
0.410886 0.294563 0.180788
0.435503 0.299065 0.180227
0.460688 0.303518 0.179296
0.486461 0.307898 0.177930
0.512842 0.312182 0.176052
0.000000 0.242337 0.171716
0.000000 0.242681 0.171789
0.000000 0.243069 0.171871
0.000000 0.243623 0.171989
0.000000 0.244362 0.172148
0.000000 0.245299 0.172350
0.000000 0.246440 0.172599
0.000000 0.247793 0.172896
0.000000 0.249360 0.173243
0.000000 0.251143 0.173644
0.022097 0.253141 0.174098
0.053853 0.255353 0.174609
0.080557 0.257773 0.175176
0.104109 0.260397 0.175801
0.126056 0.263218 0.176485
0.147121 0.266230 0.177228
0.167705 0.269424 0.178031
0.188047 0.272794 0.178884
0.208310 0.276335 0.179764
0.228623 0.280036 0.180663
0.249082 0.283886 0.181559
0.269764 0.287873 0.182422
0.290738 0.291985 0.183209
0.312069 0.296206 0.183863
0.333821 0.300513 0.184307
0.356067 0.304883 0.184436
0.378884 0.309282 0.184111
0.402365 0.313667 0.183144
0.426498 0.318014 0.181644
0.450901 0.322416 0.180715
0.475877 0.326788 0.179391
0.501443 0.331109 0.177609
0.527618 0.335359 0.175297
0.000000 0.271001 0.175559
0.000000 0.271311 0.175630
0.000000 0.271660 0.175711
0.000000 0.272160 0.175826
0.000000 0.272828 0.175980
0.000000 0.273675 0.176177
0.000000 0.274709 0.176418
0.000000 0.275937 0.176707
0.003436 0.277363 0.177045
0.031039 0.278990 0.177434
0.059957 0.280817 0.177875
0.084379 0.282846 0.178371
0.106512 0.285073 0.178921
0.127425 0.287496 0.179528
0.147658 0.290110 0.180191
0.167524 0.292910 0.180912
0.187225 0.295891 0.181691
0.206887 0.299049 0.182513
0.226609 0.302380 0.183359
0.246473 0.305875 0.184208
0.266547 0.309527 0.185034
0.286891 0.313326 0.185800
0.307561 0.317259 0.186455
0.328614 0.321312 0.186930
0.350111 0.325466 0.187135
0.372120 0.329696 0.186948
0.394720 0.333971 0.186206
0.418003 0.338249 0.184693
0.442020 0.342490 0.182335
0.466241 0.346803 0.181041
0.491033 0.351106 0.179338
0.516414 0.355381 0.177165
0.542396 0.359609 0.174456
0.000000 0.299976 0.179537
0.000000 0.300259 0.179606
0.000000 0.300579 0.179684
0.000000 0.301036 0.179795
0.000000 0.301648 0.179944
0.000000 0.302424 0.180135
0.000000 0.303373 0.180369
0.015983 0.304502 0.180648
0.042039 0.305814 0.180975
0.066889 0.307314 0.181352
0.088894 0.309004 0.181780
0.109460 0.310883 0.182260
0.129232 0.312952 0.182794
0.148564 0.315208 0.183383
0.167675 0.317649 0.184028
0.186713 0.320272 0.184730
0.205781 0.323072 0.185490
0.224957 0.326045 0.186310
0.244287 0.329189 0.187165
0.263805 0.332507 0.187983
0.283576 0.335987 0.188758
0.303646 0.339622 0.189444
0.324064 0.343401 0.189982
0.344881 0.347310 0.190292
0.366154 0.351333 0.190268
0.387951 0.355446 0.189771
0.410348 0.359620 0.188612
0.433441 0.363816 0.186545
0.457339 0.367983 0.183229
0.481451 0.372214 0.181347
0.506073 0.376466 0.179311
0.531274 0.380712 0.176814
0.557067 0.384937 0.173802
0.000000 0.329352 0.183633
0.000000 0.329614 0.183700
0.000000 0.329910 0.183775
0.000000 0.330333 0.183883
0.000000 0.330899 0.184028
0.012321 0.331618 0.184213
0.032301 0.332498 0.184440
0.054711 0.333546 0.184712
0.075231 0.334766 0.185031
0.094614 0.336162 0.185398
0.113382 0.337737 0.185815
0.131821 0.339493 0.186284
0.150108 0.341430 0.186807
0.168361 0.343546 0.187385
0.186665 0.345842 0.188020
0.205083 0.348314 0.188714
0.223666 0.350961 0.189468
0.242453 0.353778 0.190286
0.261476 0.356762 0.191169
0.280761 0.359909 0.192122
0.300277 0.363240 0.192895
0.320109 0.366735 0.193542
0.340300 0.370382 0.194004
0.360897 0.374171 0.194191
0.381956 0.378087 0.193981
0.403540 0.382108 0.193216
0.425729 0.386208 0.191686
0.448615 0.390351 0.189111
0.472310 0.394489 0.185111
0.496433 0.398651 0.181904
0.520885 0.402873 0.179639
0.545901 0.407114 0.176949
0.571492 0.411361 0.173800
0.000000 0.359195 0.187873
0.004892 0.359439 0.187938
0.011972 0.359715 0.188012
0.022160 0.360110 0.188119
0.035909 0.360638 0.188262
0.052294 0.361310 0.188444
0.068761 0.362133 0.188669
0.085281 0.363114 0.188938
0.101893 0.364258 0.189253
0.118627 0.365568 0.189618
0.135506 0.367049 0.190033
0.152556 0.368701 0.190502
0.169796 0.370527 0.191026
0.187247 0.372527 0.191607
0.204926 0.374699 0.192249
0.222851 0.377045 0.192955
0.241039 0.379560 0.193726
0.259503 0.382245 0.194569
0.278256 0.385096 0.195486
0.297312 0.388110 0.196485
0.316679 0.391285 0.197571
0.336318 0.394646 0.198406
0.356286 0.398185 0.198870
0.376661 0.401878 0.199014
0.397493 0.405712 0.198707
0.418847 0.409669 0.197774
0.440799 0.413725 0.195984
0.463441 0.417847 0.193034
0.486885 0.421992 0.188507
0.511059 0.426129 0.183182
0.535325 0.430349 0.180862
0.560137 0.434613 0.178198
0.585501 0.438912 0.175182
0.040125 0.389554 0.192348
0.046542 0.389784 0.192415
0.053190 0.390043 0.192490
0.061853 0.390415 0.192598
0.072276 0.390913 0.192744
0.084108 0.391546 0.192930
0.097050 0.392322 0.193159
0.110869 0.393247 0.193434
0.125396 0.394327 0.193757
0.140506 0.395566 0.194132
0.156115 0.396968 0.194561
0.172163 0.398534 0.195048
0.188608 0.400267 0.195594
0.205424 0.402169 0.196204
0.222593 0.404239 0.196881
0.240104 0.406477 0.197630
0.257951 0.408884 0.198457
0.276132 0.411457 0.199366
0.294645 0.414196 0.200366
0.313492 0.417099 0.201465
0.332674 0.420165 0.202672
0.352192 0.423392 0.204000
0.372008 0.426805 0.205090
0.392140 0.430427 0.205328
0.412719 0.434206 0.205075
0.433804 0.438127 0.204146
0.455472 0.442169 0.202300
0.477813 0.446305 0.199219
0.500935 0.450496 0.194476
0.524966 0.454694 0.187476
0.549217 0.458923 0.183744
0.573881 0.463170 0.180952
0.599171 0.467391 0.177346
0.076074 0.420479 0.197254
0.080599 0.420697 0.197325
0.085487 0.420943 0.197405
0.092124 0.421295 0.197521
0.100455 0.421768 0.197676
0.110295 0.422369 0.197875
0.121439 0.423106 0.198121
0.133694 0.423986 0.198417
0.146887 0.425013 0.198766
0.160879 0.426193 0.199172
0.175558 0.427530 0.199639
0.190836 0.429025 0.200171
0.206645 0.430682 0.200772
0.222937 0.432503 0.201447
0.239671 0.434489 0.202201
0.256820 0.436640 0.203042
0.274362 0.438956 0.203976
0.292284 0.441439 0.205013
0.310572 0.444088 0.206162
0.329219 0.446902 0.207435
0.348219 0.449881 0.208847
0.367567 0.453025 0.210412
0.387258 0.456335 0.212151
0.407273 0.459822 0.213889
0.427556 0.463573 0.213913
0.448323 0.467487 0.213249
0.469642 0.471550 0.211656
0.491609 0.475732 0.208799
0.514381 0.479965 0.204014
0.538109 0.484184 0.196524
0.562760 0.488324 0.187175
0.587464 0.492431 0.183237
0.612843 0.496496 0.177979
0.103879 0.452023 0.202926
0.107614 0.452231 0.203007
0.111707 0.452466 0.203098
0.117355 0.452803 0.203228
0.124577 0.453255 0.203405
0.133271 0.453830 0.203631
0.143301 0.454536 0.203911
0.154517 0.455379 0.204249
0.166775 0.456364 0.204649
0.179941 0.457497 0.205116
0.193903 0.458781 0.205655
0.208566 0.460220 0.206272
0.223851 0.461816 0.206972
0.239695 0.463573 0.207763
0.256049 0.465491 0.208652
0.272873 0.467573 0.209647
0.290135 0.469821 0.210761
0.307811 0.472234 0.212003
0.325882 0.474814 0.213388
0.344331 0.477561 0.214931
0.363146 0.480478 0.216650
0.382317 0.483564 0.218566
0.401834 0.486822 0.220701
