RedKomodo_TealAmber_Cinema.cube
TITLE "Red Komodo X - Teal + Amber Cinema"
# Split-tone: teal shadows + amber highlights, v1-style contrast
# Apply AFTER CST (REDWideGamutRGB/Log3G10 > Rec.709) in DaVinci Resolve
LUT_3D_SIZE 9
0.000000 0.066254 0.133351
0.000000 0.066273 0.133361
0.000000 0.066533 0.133501
0.000000 0.067741 0.134156
0.075882 0.071249 0.136071
0.083129 0.071489 0.136202
0.316188 0.088467 0.145684
0.472292 0.107886 0.156553
0.615344 0.127729 0.167038
0.000000 0.068813 0.133486
0.000000 0.069701 0.133581
0.000000 0.072123 0.133937
0.000000 0.076962 0.134964
0.106627 0.085268 0.137391
0.159931 0.086564 0.138817
0.340293 0.110875 0.148237
0.486456 0.133198 0.158764
0.625564 0.153756 0.168524
0.000000 0.095367 0.135101
0.000000 0.097718 0.135403
0.000000 0.103626 0.136273
0.029822 0.113912 0.138159
0.080989 0.105418 0.138182
0.249961 0.138194 0.145531
0.386093 0.165027 0.154411
0.517039 0.188549 0.163928
0.649181 0.209067 0.171559
0.000000 0.137773 0.138461
0.000000 0.144417 0.139249
0.000000 0.159118 0.141259
0.099715 0.179794 0.144812
0.214756 0.202869 0.149971
0.325762 0.226001 0.156551
0.440158 0.248296 0.164084
0.559507 0.269330 0.171032
0.685086 0.288105 0.174069
0.000000 0.284799 0.155670
0.000000 0.287467 0.156345
0.097026 0.293905 0.158033
0.193119 0.304316 0.160931
0.288175 0.317981 0.165008
0.388038 0.333916 0.169905
0.494283 0.351137 0.174378
0.608060 0.368422 0.175145
0.727608 0.385698 0.180046
0.060579 0.420076 0.174087
0.104331 0.421676 0.174601
0.174519 0.425646 0.175901
0.256746 0.432438 0.177788
0.346417 0.441968 0.179959
0.442099 0.454101 0.183308
0.544294 0.468174 0.186017
0.654999 0.482267 0.179582
0.771827 0.495175 0.170168
0.147539 0.556909 0.205070
0.175679 0.558066 0.206034
0.231600 0.561035 0.207737
0.305455 0.566301 0.208620
0.390655 0.573776 0.207460
0.484371 0.583090 0.200095
0.586425 0.593318 0.177577
0.696195 0.602784 0.148121
0.809074 0.611116 0.129458
0.215012 0.691938 0.240673
0.237547 0.692659 0.241208
0.282791 0.694936 0.237919
0.348083 0.698890 0.230183
0.427444 0.704390 0.215242
0.517338 0.710960 0.187555
0.616302 0.717674 0.135558
0.722835 0.722675 0.117629
0.830536 0.727268 0.112206
0.276734 0.816632 0.269695
0.292564 0.817290 0.267177
0.329276 0.818939 0.260498
0.385881 0.821778 0.247478
0.457995 0.825797 0.224374
0.542133 0.830812 0.182869
0.636681 0.836308 0.098508
0.742388 0.839920 0.087813
0.849724 0.844158 0.073029
0.000000 0.066254 0.133351
0.000000 0.066290 0.133831
0.000000 0.066590 0.134998
0.000000 0.067869 0.137460
0.079421 0.071473 0.141981
0.094171 0.071960 0.140415
0.318848 0.088930 0.156807
0.473792 0.108298 0.171827
0.616400 0.128058 0.185034
0.000000 0.069110 0.134909
0.000000 0.070011 0.135407
0.000000 0.072463 0.136778
0.000000 0.077348 0.139572
0.109319 0.085708 0.144522
0.165305 0.087380 0.145496
0.342482 0.111450 0.160560
0.487807 0.133642 0.174652
0.626563 0.154081 0.186915
0.000000 0.096168 0.139891
0.000000 0.098512 0.140572
0.000000 0.104406 0.142389
0.000000 0.067527 0.133623
0.087548 0.106954 0.144317
0.252375 0.139114 0.156576
0.387594 0.165647 0.169032
0.518123 0.189005 0.181112
0.650057 0.209388 0.190917
0.000000 0.140093 0.144838
0.000000 0.146549 0.146280
0.000000 0.160881 0.149780
0.102169 0.181131 0.155482
0.216333 0.203846 0.163013
0.326970 0.226720 0.171824
0.441131 0.248840 0.181289
0.560316 0.269754 0.190033
0.685814 0.288404 0.195161
0.000000 0.285715 0.170682
0.000000 0.288355 0.171558
0.098189 0.294729 0.173724
0.194002 0.305047 0.177373
0.288964 0.318609 0.182395
0.388757 0.334446 0.188365
0.494931 0.351582 0.194120
0.608607 0.368808 0.196913
0.728159 0.385976 0.203169
0.061795 0.420622 0.193110
0.105197 0.422214 0.193702
0.175168 0.426165 0.195193
0.257342 0.432917 0.197517
0.346952 0.442408 0.200307
0.442533 0.454516 0.204584
0.544670 0.468540 0.208464
0.655425 0.482547 0.204044
0.772230 0.495377 0.197557
0.148005 0.557303 0.225081
0.176102 0.558456 0.226019
0.232447 0.561349 0.228231
0.306119 0.566596 0.229476
0.391179 0.574045 0.229145
0.484768 0.583327 0.223664
0.586679 0.593522 0.205736
0.696456 0.602965 0.181099
0.809290 0.611249 0.167718
0.215424 0.692184 0.259897
0.237928 0.692903 0.260420
0.284568 0.694978 0.259283
0.349406 0.698924 0.252771
0.428375 0.704414 0.240210
0.517934 0.710974 0.217334
0.616607 0.717685 0.176917
0.722956 0.722770 0.160226
0.830642 0.727351 0.156696
0.278086 0.816651 0.288872
0.295347 0.817139 0.288206
0.331611 0.818793 0.282300
0.387684 0.821640 0.270851
0.459301 0.825672 0.250816
0.543014 0.830704 0.216066
0.636899 0.836348 0.149247
0.742497 0.840001 0.140854
0.849827 0.844235 0.132131
0.000000 0.066283 0.134804
0.000000 0.066358 0.136225
0.000000 0.066761 0.139921
0.000000 0.068217 0.146665
0.087908 0.072061 0.157062
0.117584 0.073170 0.152922
0.325369 0.090102 0.183107
0.477535 0.109342 0.205996
0.619049 0.128902 0.224376
0.000000 0.069887 0.139655
0.000000 0.070818 0.141124
0.000000 0.073345 0.144903
0.000000 0.078344 0.151756
0.115922 0.086837 0.162251
0.177910 0.089410 0.163088
0.347881 0.112893 0.189146
0.491185 0.134762 0.209985
0.629078 0.154902 0.227006
0.000000 0.098196 0.152484
0.000000 0.100526 0.154012
0.000000 0.106384 0.157918
0.000000 0.073349 0.137280
0.102249 0.110707 0.160806
0.258287 0.141399 0.182727
0.391334 0.167201 0.201968
0.520844 0.190155 0.218905
0.652269 0.210197 0.232833
0.000000 0.145705 0.161820
0.000000 0.151725 0.164581
0.000000 0.165188 0.171038
0.108090 0.184427 0.180912
0.220236 0.206276 0.192966
0.329987 0.228519 0.205992
0.443574 0.250210 0.219121
0.562352 0.270825 0.231279
0.687650 0.289163 0.240289
0.000000 0.288001 0.204357
0.000000 0.290573 0.205613
0.101090 0.296790 0.208682
0.196219 0.306881 0.213754
0.290949 0.320187 0.220573
0.390569 0.335782 0.228593
0.496561 0.352707 0.236774
0.609976 0.369794 0.243252
0.729553 0.386677 0.252064
0.064823 0.422000 0.234443
0.107379 0.423572 0.235188
0.176810 0.427476 0.237050
0.258859 0.434127 0.240197
0.348305 0.443522 0.244167
0.443631 0.455566 0.250185
0.545616 0.469468 0.256230
0.656502 0.483255 0.255269
0.773249 0.495886 0.253429
0.149188 0.558301 0.268829
0.177180 0.559442 0.269733
0.233513 0.562293 0.271977
0.307842 0.567340 0.274769
0.392534 0.574725 0.275942
0.485787 0.583930 0.273696
0.587328 0.594045 0.262950
0.697113 0.603420 0.244788
0.809835 0.611583 0.237802
0.216468 0.692806 0.302711
0.238893 0.693517 0.303218
0.287526 0.695293 0.304494
0.352795 0.699011 0.301552
0.430764 0.704476 0.292975
0.519468 0.711013 0.277457
0.617392 0.717722 0.251361
0.723262 0.723008 0.235088
0.830912 0.727561 0.233450
0.278877 0.816973 0.329814
0.297131 0.817345 0.330192
0.337501 0.818429 0.330077
0.392259 0.821298 0.321365
0.462628 0.825362 0.306386
0.545268 0.830436 0.281483
0.638256 0.836135 0.239055
0.742773 0.840205 0.224770
0.850087 0.844433 0.220160
0.000000 0.066419 0.141437
0.000000 0.066566 0.144526
0.000000 0.067151 0.152217
0.000000 0.068918 0.165357
0.101568 0.073176 0.183953
0.149413 0.075345 0.179577
0.336203 0.092174 0.225023
0.483961 0.111186 0.256617
0.623659 0.130399 0.280981
0.000000 0.071338 0.151677
0.000000 0.072323 0.154639
0.000000 0.074976 0.162021
0.000000 0.080169 0.174676
0.000000 0.068591 0.139902
0.197358 0.092882 0.195469
0.356951 0.115402 0.233564
0.497009 0.136728 0.261929
0.633416 0.156422 0.284521
0.000000 0.101781 0.175974
0.000000 0.104086 0.178670
0.000000 0.109884 0.185414
0.000000 0.083513 0.153061
0.123576 0.116897 0.191963
0.268092 0.145283 0.224479
0.397728 0.169894 0.251203
0.525567 0.192171 0.273691
0.656151 0.211606 0.292480
0.000000 0.154798 0.193525
0.000000 0.160162 0.197748
0.000000 0.172299 0.207452
0.117674 0.189960 0.221878
0.226830 0.210420 0.238886
0.335175 0.231628 0.256612
0.447817 0.252601 0.273949
0.565902 0.272714 0.290116
0.690869 0.290505 0.303694
0.000000 0.291934 0.254421
0.000000 0.294392 0.256105
0.106065 0.300349 0.260198
0.200069 0.310060 0.266895
0.294414 0.322937 0.275800
0.393737 0.338121 0.286233
0.499412 0.354690 0.297264
0.612334 0.371566 0.307952
0.732010 0.387902 0.319874
0.070008 0.424414 0.293439
0.111188 0.425953 0.294370
0.179700 0.429774 0.296690
0.261412 0.436283 0.300666
0.350677 0.445491 0.306177
0.445572 0.457420 0.314206
0.547270 0.471117 0.322751
0.657875 0.484649 0.326778
0.775042 0.496772 0.328339
0.151302 0.560055 0.331509
0.179106 0.561178 0.332403
0.235222 0.563982 0.334624
0.310220 0.568795 0.338398
0.395025 0.575921 0.341889
0.487643 0.584999 0.343003
0.588494 0.594985 0.339026
0.698265 0.604215 0.326453
0.810781 0.612168 0.324392
0.218316 0.693899 0.365245
0.240604 0.694599 0.365745
0.289015 0.696344 0.367003
0.357937 0.699336 0.369192
0.435095 0.704598 0.365499
0.522252 0.711101 0.356689
0.618830 0.717813 0.341554
0.723798 0.723426 0.325168
0.831394 0.727936 0.324830
0.280281 0.817547 0.390685
0.298451 0.817919 0.391027
0.339713 0.818866 0.391896
0.400359 0.820718 0.392296
0.468569 0.824838 0.382255
0.549321 0.829989 0.365904
0.640714 0.835786 0.339549
0.743264 0.840568 0.320519
0.850551 0.844785 0.318168
0.000000 0.066832 0.160024
0.000000 0.067087 0.165025
0.000000 0.067941 0.177178
0.000000 0.070160 0.197149
0.119576 0.075010 0.224112
0.184564 0.078632 0.224491
0.350883 0.095246 0.280579
0.493089 0.113914 0.319244
0.630337 0.132643 0.349070
0.000000 0.073673 0.176337
0.000000 0.074733 0.180928
0.000000 0.077561 0.192161
0.000000 0.083020 0.210826
0.000000 0.075281 0.173420
0.221409 0.097785 0.244180
0.369431 0.119038 0.291060
0.505327 0.139614 0.325719
0.639708 0.158698 0.353472
0.000000 0.107105 0.212703
0.000000 0.109374 0.216582
0.000000 0.068734 0.138295
0.000000 0.096790 0.191044
0.148469 0.125197 0.239846
0.281352 0.150726 0.279911
0.406756 0.173774 0.312638
0.532379 0.195128 0.340059
0.661647 0.213878 0.363549
0.000000 0.166702 0.241778
0.000000 0.171301 0.246994
0.000000 0.181855 0.258963
0.130273 0.197567 0.276715
0.235988 0.216251 0.297581
0.342559 0.236088 0.319235
0.453945 0.256085 0.340344
0.571057 0.275514 0.360300
0.695575 0.292500 0.378474
0.000000 0.297532 0.316564
0.006213 0.299838 0.318617
0.113135 0.305446 0.323602
0.205638 0.314641 0.331746
0.299453 0.326930 0.342548
0.398361 0.341546 0.355244
0.503565 0.357628 0.368994
0.615680 0.374271 0.383730
0.735638 0.389678 0.398934
0.077364 0.427951 0.363809
0.116741 0.429441 0.364925
0.183961 0.433147 0.367699
0.265095 0.439472 0.372434
0.354058 0.448449 0.379365
0.448457 0.460171 0.389296
0.549683 0.473589 0.400217
0.659628 0.486831 0.408899
0.777678 0.498057 0.413650
0.154493 0.562641 0.406141
0.182013 0.563736 0.407051
0.237795 0.566471 0.409314
0.312587 0.571166 0.413165
0.398429 0.577821 0.418552
0.490536 0.586600 0.422989
0.590274 0.596419 0.424431
0.699079 0.605498 0.419901
0.812148 0.613024 0.418420
0.221065 0.695510 0.440621
0.243149 0.696192 0.441127
0.291231 0.697892 0.442396
0.359843 0.700807 0.444595
0.441270 0.704918 0.447768
0.526554 0.711280 0.444644
0.621084 0.718016 0.437199
0.724526 0.723983 0.422960
0.832121 0.728497 0.422148
0.282381 0.818411 0.465013
0.300428 0.818783 0.465325
0.341478 0.819727 0.466107
0.402962 0.821403 0.467457
0.477524 0.824122 0.468258
0.555499 0.829390 0.458346
0.644506 0.835336 0.442444
0.744001 0.841113 0.420672
0.851244 0.845313 0.419724
0.000000 0.067802 0.196861
0.000000 0.068200 0.203375
0.000000 0.069406 0.219067
0.000000 0.072209 0.244497
0.000000 0.069950 0.190430
0.219703 0.083111 0.287504
0.368499 0.099372 0.347798
0.504684 0.117577 0.391009
0.639016 0.135742 0.425187
0.000000 0.077146 0.217988
0.000000 0.078296 0.223874
0.000000 0.081337 0.238182
0.026693 0.087116 0.261696
0.074392 0.083794 0.235285
0.247673 0.103982 0.308306
0.384683 0.123784 0.359395
0.515968 0.143454 0.398351
0.647894 0.161839 0.430317
0.000000 0.066491 0.134112
0.000000 0.073068 0.154322
0.000000 0.089320 0.199066
0.014098 0.111598 0.253067
0.174474 0.135053 0.303692
0.297240 0.157539 0.347062
0.418147 0.178799 0.383545
0.541194 0.199062 0.414714
0.668755 0.217080 0.442213
0.000000 0.180439 0.305746
0.000000 0.184274 0.311312
0.019702 0.193214 0.324189
0.144988 0.206862 0.343545
0.247326 0.223576 0.366657
0.351973 0.241828 0.390990
0.461890 0.260671 0.414994
0.577771 0.279297 0.438122
0.700984 0.295901 0.460746
0.000000 0.304667 0.387972
0.021109 0.306795 0.390291
0.122162 0.311990 0.395934
0.212890 0.320570 0.405181
0.306058 0.332147 0.417495
0.404465 0.346071 0.432019
0.509003 0.361587 0.448042
0.619958 0.378015 0.466273
0.739940 0.392342 0.485128
0.086736 0.432626 0.441833
0.124039 0.434056 0.443111
0.189647 0.437617 0.446288
0.270006 0.443712 0.451715
0.358226 0.452505 0.459895
0.452346 0.463886 0.471046
0.552877 0.476975 0.483948
0.661825 0.489898 0.496376
0.781176 0.499728 0.505126
0.158880 0.566085 0.488331
0.186011 0.567143 0.489272
0.241324 0.569786 0.491612
0.315816 0.574326 0.495600
0.401486 0.580762 0.501184
0.494455 0.588880 0.508113
0.592782 0.598448 0.513938
0.699690 0.607425 0.516600
0.813911 0.614153 0.516345
0.224771 0.697653 0.524031
0.246583 0.698310 0.524549
0.294220 0.699951 0.525846
0.362408 0.702762 0.528084
0.443487 0.706726 0.531287
0.532481 0.711676 0.535409
0.624348 0.718427 0.533736
0.725252 0.724500 0.527777
0.833121 0.729265 0.522313
0.285266 0.819593 0.547816
0.303156 0.819963 0.548104
0.343918 0.820903 0.548825
0.405093 0.822572 0.550076
0.480482 0.825065 0.551883
0.564121 0.828712 0.553096
0.649888 0.834864 0.544541
0.746255 0.841121 0.530511
0.852186 0.846034 0.522941
0.000000 0.069715 0.254238
0.000000 0.070286 0.261575
0.000000 0.071916 0.279300
0.000000 0.066552 0.142257
0.089374 0.075699 0.280246
0.253072 0.088794 0.365463
0.388030 0.104561 0.424998
0.518344 0.122222 0.470327
0.649467 0.139893 0.507548
0.000000 0.082043 0.278078
0.000000 0.083292 0.284743
0.000000 0.086563 0.300972
0.000000 0.076599 0.225500
0.135757 0.093427 0.317945
0.274339 0.111281 0.385465
0.401927 0.129575 0.436967
0.528593 0.148281 0.478210
0.657754 0.166037 0.513226
0.000000 0.092570 0.234447
0.000000 0.097906 0.251519
0.000000 0.109822 0.287292
0.074733 0.126752 0.333684
0.200093 0.145891 0.380977
0.314850 0.165465 0.424244
0.431480 0.184876 0.462354
0.551778 0.204018 0.495930
0.677288 0.221389 0.526508
0.000000 0.195083 0.382972
0.000000 0.198236 0.388404
0.049358 0.205697 0.401127
0.161005 0.217377 0.420648
0.260360 0.232121 0.444537
0.363137 0.248708 0.470298
0.471499 0.266312 0.496190
0.585864 0.284167 0.521625
0.707143 0.300743 0.547977
0.000000 0.313118 0.467072
0.040784 0.315055 0.469550
0.132928 0.319807 0.475599
0.221714 0.327718 0.485570
0.314147 0.338506 0.498949
0.412014 0.351640 0.514855
0.515692 0.366599 0.532404
0.625000 0.382952 0.553220
0.743408 0.396996 0.575381
0.097885 0.438403 0.525659
0.133002 0.439764 0.527069
0.196741 0.443158 0.530576
0.275854 0.449051 0.536741
0.363208 0.457637 0.545980
0.457176 0.468568 0.557758
0.556985 0.481321 0.571328
0.664333 0.494050 0.586425
0.782168 0.503535 0.600540
0.164561 0.570371 0.575742
0.191194 0.571384 0.576716
0.245883 0.573914 0.579138
0.319957 0.578261 0.583270
0.405376 0.584427 0.589059
0.498132 0.592206 0.596244
0.596159 0.601220 0.604412
0.700453 0.610164 0.612377
0.813882 0.616374 0.617483
0.229450 0.700314 0.612679
0.250923 0.700941 0.613210
0.297998 0.702507 0.614535
0.365639 0.705189 0.616813
0.446265 0.708968 0.620051
0.534909 0.713697 0.624127
0.628864 0.719192 0.628607
0.726430 0.725443 0.628812
0.833693 0.730407 0.625355
0.289028 0.821114 0.636004
0.306716 0.821483 0.636276
0.347103 0.822418 0.636962
0.407871 0.824078 0.638156
0.482920 0.826558 0.639889
0.567363 0.829926 0.642167
0.657152 0.834508 0.643961
0.749883 0.841096 0.637918
0.853390 0.846960 0.627154
0.000000 0.073045 0.330986
0.000000 0.073807 0.338609
0.000000 0.067203 0.168818
0.000000 0.073282 0.289981
0.153000 0.082925 0.383296
0.283972 0.095631 0.454731
0.408592 0.110789 0.510720
0.533596 0.127905 0.556233
0.661294 0.145524 0.595101
0.000000 0.068093 0.161778
0.000000 0.070974 0.197906
0.000000 0.078199 0.266061
0.026316 0.089594 0.343198
0.179175 0.103734 0.413573
0.300328 0.119487 0.473015
0.420431 0.136323 0.522521
0.542797 0.154126 0.564349
0.668898 0.171705 0.601104
0.000000 0.116220 0.349436
0.000000 0.119972 0.361680
0.000000 0.128621 0.388791
0.114499 0.141606 0.426842
0.224608 0.157267 0.468865
0.333415 0.174252 0.509982
0.446305 0.191879 0.548087
0.563844 0.210018 0.582758
0.686831 0.227248 0.615242
0.000000 0.209959 0.470706
0.000000 0.212544 0.475748
0.075824 0.218746 0.487711
0.177750 0.228683 0.506475
0.274628 0.241595 0.530071
0.375724 0.256559 0.556224
0.482621 0.272868 0.583147
0.595167 0.290187 0.609725
0.713775 0.307292 0.638493
0.000041 0.322627 0.552912
0.061981 0.324375 0.555456
0.145200 0.328682 0.561689
0.231955 0.335913 0.572036
0.323588 0.345886 0.586048
0.420869 0.358188 0.602873
0.523638 0.372559 0.621871
0.630776 0.389161 0.643199
0.746777 0.403385 0.667221
0.110393 0.445220 0.614412
0.143241 0.446519 0.615949
0.204626 0.449793 0.619833
0.282204 0.455529 0.626683
0.369128 0.463732 0.636446
0.462922 0.474141 0.648696
0.562593 0.486253 0.662631
0.667319 0.499403 0.677217
0.781915 0.509300 0.695013
0.171605 0.575445 0.667159
0.197629 0.576404 0.668158
0.251528 0.578802 0.670644
0.325041 0.582923 0.674886
0.410106 0.588770 0.680831
0.502562 0.596149 0.688208
0.600225 0.604700 0.696575
0.701553 0.613943 0.705408
0.811273 0.620509 0.716245
0.235079 0.703453 0.704991
0.256148 0.704045 0.705528
0.302544 0.705521 0.706868
0.369514 0.708049 0.709163
0.449572 0.711610 0.712402
0.537873 0.716097 0.716346
0.631463 0.721314 0.720633
0.728342 0.727108 0.725097
0.832250 0.732666 0.728445
0.293738 0.822995 0.727774
0.311177 0.823360 0.728039
0.351096 0.824289 0.728707
0.411351 0.825938 0.729873
0.485965 0.828403 0.731576
0.570070 0.831751 0.733831
0.660521 0.836030 0.736659
0.754834 0.841475 0.739405
0.854323 0.847843 0.737131
0.000000 0.070634 0.277542
0.000000 0.072016 0.304416
0.000000 0.075599 0.358755
0.068024 0.082014 0.426379
0.196611 0.091401 0.492991
0.312346 0.103533 0.552378
0.429540 0.118008 0.603692
0.550065 0.134506 0.648111
0.674095 0.153091 0.687056
0.000000 0.085048 0.355395
0.000000 0.087475 0.373154
0.000000 0.093274 0.411359
0.098475 0.102507 0.462817
0.213968 0.114473 0.517295
0.325160 0.128442 0.568696
0.439620 0.143939 0.614996
0.558290 0.160802 0.656250
0.680936 0.179278 0.693125
0.000000 0.136477 0.467359
0.000000 0.139221 0.476437
0.020817 0.145720 0.497306
0.145612 0.155924 0.528351
0.247822 0.168898 0.564954
0.352391 0.183691 0.602991
0.462202 0.199694 0.640004
0.577337 0.216715 0.674915
0.696794 0.235438 0.707749
0.000000 0.224670 0.566611
0.000000 0.226803 0.571172
0.099362 0.231982 0.582126
0.194896 0.240451 0.599665
0.289766 0.251750 0.622309
0.389423 0.265212 0.648103
0.494966 0.280278 0.675312
0.606020 0.296801 0.702833
0.720661 0.315840 0.731150
0.027373 0.332945 0.644799
0.082526 0.334515 0.647335
0.158767 0.338401 0.653576
0.243446 0.344978 0.664010
0.334217 0.354153 0.678279
0.430864 0.365630 0.695598
0.532301 0.379622 0.715837
0.638761 0.395381 0.737674
0.750050 0.411746 0.759188
0.122281 0.453140 0.707895
0.153132 0.454400 0.709556
0.212519 0.457551 0.713700
0.289275 0.462974 0.720786
0.375928 0.470699 0.730775
0.469578 0.480501 0.743243
0.569085 0.491880 0.757327
0.673388 0.504263 0.772085
0.781174 0.517029 0.786547
0.180040 0.581218 0.761908
0.205349 0.582117 0.762919
0.258281 0.584366 0.765435
0.331072 0.588231 0.769727
0.415653 0.593717 0.775741
0.507700 0.600641 0.783194
0.604887 0.608664 0.791619
0.705589 0.617336 0.800450
0.808403 0.626221 0.808991
0.241586 0.707005 0.800035
0.262194 0.707556 0.800569
0.307802 0.708931 0.801899
0.373973 0.711282 0.804168
0.453478 0.714616 0.807298
0.541356 0.718835 0.811036
0.634439 0.723735 0.815064
0.731051 0.729442 0.819446
0.831054 0.736115 0.824500
0.299454 0.825248 0.822077
0.316594 0.825611 0.822339
0.355948 0.826532 0.823000
0.415577 0.828169 0.824160
0.489652 0.830615 0.825863
0.573335 0.833940 0.828136
0.663451 0.838188 0.831013
0.758053 0.843386 0.834573
0.855995 0.849528 0.838879
