RedKomodo_Cinematic_Teal_v2.cube
TITLE "Red Komodo X - Cinematic Teal v2"
# v2: stronger contrast, harder black crush, teal shadows, warm highlights
# Apply AFTER Color Space Transform (REDWideGamutRGB/Log3G10 > Rec.709)
LUT_3D_SIZE 5
0.000000 0.080825 0.154858
0.000000 0.080922 0.154911
0.000000 0.082625 0.155840
0.159910 0.091030 0.160473
0.335553 0.103782 0.168802
0.000000 0.090616 0.155525
0.000000 0.093739 0.155965
0.000000 0.104287 0.158073
0.105346 0.106083 0.160044
0.382093 0.145160 0.172420
0.000000 0.156459 0.161368
0.000000 0.167093 0.162932
0.096072 0.194470 0.167961
0.283061 0.231565 0.176454
0.483639 0.269093 0.176840
0.040125 0.389554 0.192348
0.125396 0.394327 0.193757
0.257951 0.408884 0.198457
0.412719 0.434206 0.205075
0.599171 0.467391 0.177346
0.220782 0.653613 0.258880
0.267548 0.656890 0.260459
0.379408 0.667066 0.265326
0.529244 0.685045 0.274441
0.702332 0.710920 0.264587
0.000000 0.080836 0.155300
0.000000 0.081008 0.156863
0.000000 0.082945 0.162543
0.000000 0.081705 0.156517
0.340748 0.104775 0.189937
0.000000 0.091732 0.161155
0.000000 0.094887 0.163044
0.000000 0.105514 0.169602
0.118379 0.108217 0.171213
0.385970 0.146534 0.197893
0.000000 0.160450 0.174271
0.000000 0.170624 0.177671
0.101466 0.197098 0.187522
0.286167 0.233426 0.202805
0.485736 0.270548 0.214021
0.044716 0.391289 0.225663
0.127810 0.396019 0.227595
0.259755 0.410457 0.233818
0.414352 0.435596 0.243949
0.600068 0.468633 0.233449
0.222269 0.654801 0.298423
0.268892 0.658060 0.300097
0.380586 0.668180 0.305274
0.530318 0.686067 0.314892
0.703237 0.711798 0.310583
0.000000 0.081054 0.163774
0.000000 0.081466 0.169809
0.000000 0.084138 0.188418
0.000000 0.084853 0.176591
0.356205 0.108158 0.249653
0.000000 0.095389 0.184225
0.000000 0.098639 0.189886
0.000000 0.109491 0.207414
0.151456 0.114649 0.211162
0.397701 0.151023 0.265911
0.000000 0.172113 0.217725
0.000000 0.181076 0.224805
0.116984 0.205083 0.244195
0.295721 0.239251 0.272476
0.492206 0.275276 0.303275
0.057896 0.396749 0.309307
0.135315 0.401346 0.312282
0.265431 0.415428 0.321579
0.419508 0.440032 0.338281
0.602924 0.472671 0.353014
0.227011 0.658565 0.397131
0.273180 0.661766 0.399071
0.384333 0.671712 0.405097
0.533718 0.689313 0.416161
0.706081 0.714588 0.422023
0.000000 0.082220 0.203300
0.000000 0.083072 0.214799
0.000000 0.087044 0.248159
0.114057 0.090915 0.245502
0.381349 0.115505 0.343903
0.000000 0.102586 0.240877
0.000000 0.105978 0.250680
0.000000 0.089990 0.190398
0.195285 0.125500 0.291605
0.417372 0.159993 0.366787
0.000000 0.190676 0.300521
0.000000 0.198071 0.310177
0.141282 0.218667 0.336745
0.312705 0.249555 0.375519
0.503474 0.284559 0.421912
0.078633 0.406667 0.425905
0.148616 0.411047 0.429919
0.275713 0.424543 0.442348
0.428878 0.448366 0.464730
0.608273 0.480587 0.496629
0.235848 0.665502 0.531762
0.281178 0.668598 0.534066
0.391286 0.678230 0.541246
0.539957 0.695318 0.554343
0.711239 0.719627 0.571787
0.000000 0.085855 0.294104
0.000000 0.087315 0.308537
0.000000 0.083506 0.212640
0.193879 0.100419 0.365748
0.414829 0.126205 0.467285
0.000000 0.083120 0.172285
0.000000 0.091363 0.224326
0.000000 0.111980 0.319028
0.241992 0.140045 0.411270
0.444947 0.172813 0.493118
0.000000 0.213758 0.420642
0.000000 0.219696 0.430973
0.171419 0.236869 0.460254
0.336424 0.264036 0.504780
0.520645 0.298577 0.557970
0.104473 0.421154 0.564765
0.167223 0.425267 0.569602
0.290496 0.438055 0.584585
0.442228 0.461053 0.611369
0.617729 0.493030 0.647594
0.249096 0.675801 0.686495
0.293186 0.678750 0.689163
0.401643 0.687937 0.697505
0.549088 0.704298 0.712695
0.719548 0.727507 0.735220
