RedKomodo_TealAmber_Cinema.cube
TITLE "Red Komodo X - Teal + Amber Cinema"
# Split-tone: teal shadows + amber highlights, v1-style contrast
# Apply AFTER CST (REDWideGamutRGB/Log3G10 > Rec.709) in DaVinci Resolve
LUT_3D_SIZE 5
0.000000 0.066254 0.133351
0.000000 0.066533 0.133501
0.075882 0.071249 0.136071
0.316188 0.088467 0.145684
0.615344 0.127729 0.167038
0.000000 0.095367 0.135101
0.000000 0.103626 0.136273
0.080989 0.105418 0.138182
0.386093 0.165027 0.154411
0.649181 0.209067 0.171559
0.000000 0.284799 0.155670
0.097026 0.293905 0.158033
0.288175 0.317981 0.165008
0.494283 0.351137 0.174378
0.727608 0.385698 0.180046
0.147539 0.556909 0.205070
0.231600 0.561035 0.207737
0.390655 0.573776 0.207460
0.586425 0.593318 0.177577
0.809074 0.611116 0.129458
0.276734 0.816632 0.269695
0.329276 0.818939 0.260498
0.457995 0.825797 0.224374
0.636681 0.836308 0.098508
0.849724 0.844158 0.073029
0.000000 0.066283 0.134804
0.000000 0.066761 0.139921
0.087908 0.072061 0.157062
0.325369 0.090102 0.183107
0.619049 0.128902 0.224376
0.000000 0.098196 0.152484
0.000000 0.106384 0.157918
0.102249 0.110707 0.160806
0.391334 0.167201 0.201968
0.652269 0.210197 0.232833
0.000000 0.288001 0.204357
0.101090 0.296790 0.208682
0.290949 0.320187 0.220573
0.496561 0.352707 0.236774
0.729553 0.386677 0.252064
0.149188 0.558301 0.268829
0.233513 0.562293 0.271977
0.392534 0.574725 0.275942
0.587328 0.594045 0.262950
0.809835 0.611583 0.237802
0.278877 0.816973 0.329814
0.337501 0.818429 0.330077
0.462628 0.825362 0.306386
0.638256 0.836135 0.239055
0.850087 0.844433 0.220160
0.000000 0.066832 0.160024
0.000000 0.067941 0.177178
0.119576 0.075010 0.224112
0.350883 0.095246 0.280579
0.630337 0.132643 0.349070
0.000000 0.107105 0.212703
0.000000 0.068734 0.138295
0.148469 0.125197 0.239846
0.406756 0.173774 0.312638
0.661647 0.213878 0.363549
0.000000 0.297532 0.316564
0.113135 0.305446 0.323602
0.299453 0.326930 0.342548
0.503565 0.357628 0.368994
0.735638 0.389678 0.398934
0.154493 0.562641 0.406141
0.237795 0.566471 0.409314
0.398429 0.577821 0.418552
0.590274 0.596419 0.424431
0.812148 0.613024 0.418420
0.282381 0.818411 0.465013
0.341478 0.819727 0.466107
0.477524 0.824122 0.468258
0.644506 0.835336 0.442444
0.851244 0.845313 0.419724
0.000000 0.069715 0.254238
0.000000 0.071916 0.279300
0.089374 0.075699 0.280246
0.388030 0.104561 0.424998
0.649467 0.139893 0.507548
0.000000 0.092570 0.234447
0.000000 0.109822 0.287292
0.200093 0.145891 0.380977
0.431480 0.184876 0.462354
0.677288 0.221389 0.526508
0.000000 0.313118 0.467072
0.132928 0.319807 0.475599
0.314147 0.338506 0.498949
0.515692 0.366599 0.532404
0.743408 0.396996 0.575381
0.164561 0.570371 0.575742
0.245883 0.573914 0.579138
0.405376 0.584427 0.589059
0.596159 0.601220 0.604412
0.813882 0.616374 0.617483
0.289028 0.821114 0.636004
0.347103 0.822418 0.636962
0.482920 0.826558 0.639889
0.657152 0.834508 0.643961
0.853390 0.846960 0.627154
0.000000 0.070634 0.277542
0.000000 0.075599 0.358755
0.196611 0.091401 0.492991
0.429540 0.118008 0.603692
0.674095 0.153091 0.687056
0.000000 0.136477 0.467359
0.020817 0.145720 0.497306
0.247822 0.168898 0.564954
0.462202 0.199694 0.640004
0.696794 0.235438 0.707749
0.027373 0.332945 0.644799
0.158767 0.338401 0.653576
0.334217 0.354153 0.678279
0.532301 0.379622 0.715837
0.750050 0.411746 0.759188
0.180040 0.581218 0.761908
0.258281 0.584366 0.765435
0.415653 0.593717 0.775741
0.604887 0.608664 0.791619
0.808403 0.626221 0.808991
0.299454 0.825248 0.822077
0.355948 0.826532 0.823000
0.489652 0.830615 0.825863
0.663451 0.838188 0.831013
0.855995 0.849528 0.838879
