RedKomodo_TealAmber_Cinema.cube
TITLE "Red Komodo X - Teal + Amber Cinema"
# Split-tone: teal shadows + amber highlights, v1-style contrast
# Apply AFTER CST (REDWideGamutRGB/Log3G10 > Rec.709) in DaVinci Resolve
LUT_3D_SIZE 33
0.000000 0.066254 0.133351
0.000000 0.066254 0.133351
0.000000 0.066254 0.133351
0.000000 0.066261 0.133355
0.000000 0.066273 0.133361
0.000000 0.066298 0.133375
0.000000 0.066343 0.133399
0.000000 0.066417 0.133439
0.000000 0.066533 0.133501
0.000000 0.066704 0.133594
0.000000 0.066949 0.133727
0.000000 0.067287 0.133910
0.000000 0.067741 0.134156
0.000000 0.068336 0.134479
0.000000 0.069099 0.134895
0.027775 0.070061 0.135419
0.075882 0.071249 0.136071
0.113774 0.072696 0.136866
0.148123 0.074429 0.137823
0.000000 0.068017 0.134305
0.083129 0.071489 0.136202
0.164108 0.075373 0.138347
0.222290 0.079538 0.140666
0.271649 0.083917 0.143122
0.316188 0.088467 0.145684
0.357709 0.093159 0.148328
0.397196 0.097970 0.151033
0.435256 0.102883 0.153780
0.472292 0.107886 0.156553
0.508594 0.112958 0.159330
0.544407 0.118021 0.162055
0.579932 0.122986 0.164658
0.615344 0.127729 0.167038
0.000000 0.066310 0.133354
0.000000 0.066335 0.133356
0.000000 0.066364 0.133360
0.000000 0.066409 0.133366
0.000000 0.066476 0.133378
0.000000 0.066572 0.133398
0.000000 0.066703 0.133431
0.000000 0.066881 0.133481
0.000000 0.067118 0.133555
0.000000 0.067428 0.133661
0.000000 0.067830 0.133809
0.000000 0.068342 0.134008
0.000000 0.068988 0.134273
0.000000 0.069791 0.134616
0.000000 0.070777 0.135054
0.036066 0.071973 0.135602
0.081722 0.073408 0.136277
0.118495 0.075107 0.137097
0.152273 0.077098 0.138079
0.000000 0.069333 0.134703
0.100895 0.073524 0.136636
0.173858 0.077994 0.138793
0.229230 0.082633 0.141114
0.277049 0.087393 0.143565
0.320597 0.092247 0.146119
0.361422 0.097180 0.148751
0.400395 0.102179 0.151443
0.438061 0.107238 0.154175
0.474787 0.112352 0.156932
0.510843 0.117501 0.159688
0.546460 0.122614 0.162388
0.581828 0.127607 0.164958
0.617111 0.132370 0.167300
0.000000 0.066555 0.133367
0.000000 0.066608 0.133372
0.000000 0.066671 0.133378
0.000000 0.066763 0.133389
0.000000 0.066892 0.133407
0.000000 0.067067 0.133435
0.000000 0.067295 0.133477
0.000000 0.067589 0.133538
0.000000 0.067960 0.133625
0.000000 0.068425 0.133747
0.000000 0.068999 0.133911
0.000000 0.069704 0.134130
0.000000 0.070559 0.134415
0.000000 0.071588 0.134781
0.000000 0.072814 0.135243
0.045223 0.074263 0.135816
0.087951 0.075960 0.136518
0.123641 0.077929 0.137366
0.000000 0.066761 0.133527
0.000000 0.071212 0.135166
0.117696 0.076116 0.137131
0.183979 0.081157 0.139298
0.236628 0.086255 0.141620
0.282885 0.091383 0.144066
0.325403 0.096531 0.146609
0.365494 0.101696 0.149228
0.403920 0.106877 0.151904
0.441164 0.112077 0.154619
0.477555 0.117299 0.157357
0.513345 0.122522 0.160091
0.548750 0.127683 0.162761
0.583946 0.132704 0.165293
0.619087 0.137485 0.167590
0.000000 0.067252 0.133403
0.000000 0.067346 0.133412
0.000000 0.067454 0.133423
0.000000 0.067612 0.133441
0.000000 0.067830 0.133467
0.000000 0.068116 0.133506
0.000000 0.068480 0.133561
0.000000 0.068935 0.133639
0.000000 0.069494 0.133744
0.000000 0.070171 0.133887
0.000000 0.070984 0.134076
0.000000 0.071950 0.134321
0.000000 0.073090 0.134636
0.000000 0.074424 0.135034
0.008154 0.075973 0.135530
0.056723 0.077760 0.136140
0.096297 0.079805 0.136879
0.130697 0.082129 0.137766
0.000000 0.068928 0.134105
0.047000 0.074542 0.135851
0.137794 0.080289 0.137848
0.197102 0.085997 0.140025
0.246498 0.091628 0.142345
0.290793 0.097182 0.144780
0.331981 0.102669 0.147307
0.371111 0.108104 0.149907
0.408809 0.113498 0.152560
0.445487 0.118865 0.155250
0.481426 0.124214 0.157962
0.516857 0.129522 0.160661
0.551973 0.134738 0.163287
0.586936 0.139788 0.165762
0.621882 0.144590 0.167997
0.000000 0.068813 0.133486
0.000000 0.068960 0.133500
0.000000 0.069128 0.133517
0.000000 0.069370 0.133543
0.000000 0.069701 0.133581
0.000000 0.070129 0.133635
0.000000 0.070668 0.133708
0.000000 0.071328 0.133807
0.000000 0.072123 0.133937
0.000000 0.073068 0.134108
0.000000 0.074178 0.134329
0.000000 0.075470 0.134610
0.000000 0.076962 0.134964
0.000000 0.078669 0.135404
0.023951 0.080612 0.135945
0.070019 0.082806 0.136602
0.106627 0.085268 0.137391
0.000000 0.066817 0.133471
0.000000 0.073249 0.134971
0.091141 0.079985 0.136793
0.159931 0.086564 0.138817
0.212672 0.092925 0.141001
0.258584 0.099078 0.143313
0.300658 0.105051 0.145732
0.340293 0.110875 0.148237
0.378274 0.116579 0.150810
0.415091 0.122187 0.153432
0.451074 0.127721 0.156089
0.486456 0.133198 0.158764
0.521441 0.138591 0.161413
0.556195 0.143859 0.163978
0.590866 0.148933 0.166374
0.625564 0.153756 0.168524
0.000000 0.071789 0.133648
0.000000 0.071998 0.133669
0.000000 0.072236 0.133693
0.000000 0.072578 0.133730
0.000000 0.073041 0.133783
0.000000 0.073637 0.133854
0.000000 0.074377 0.133950
0.000000 0.075275 0.134076
0.000000 0.076344 0.134238
0.000000 0.077596 0.134445
0.000000 0.079045 0.134705
0.000000 0.080705 0.135031
0.000000 0.082591 0.135434
0.000000 0.084715 0.135926
0.044100 0.087092 0.136523
0.084630 0.089734 0.137239
0.118663 0.092653 0.138088
0.000000 0.072609 0.134484
0.044128 0.080507 0.136144
0.127186 0.088122 0.138018
0.182921 0.095360 0.140061
0.229908 0.102242 0.142243
0.272401 0.108816 0.144541
0.312167 0.115132 0.146936
0.350132 0.121235 0.149410
0.386848 0.127165 0.151946
0.422677 0.132956 0.154528
0.457868 0.138636 0.157143
0.492614 0.144218 0.159766
0.527083 0.149680 0.162351
0.561417 0.154986 0.164833
0.595748 0.160072 0.167124
0.630152 0.164910 0.169165
0.000000 0.076817 0.133932
0.000000 0.077093 0.133961
0.000000 0.077405 0.133995
0.000000 0.077854 0.134045
0.000000 0.078459 0.134115
0.000000 0.079232 0.134209
0.000000 0.080188 0.134332
0.000000 0.081337 0.134490
0.000000 0.082693 0.134690
0.000000 0.084266 0.134939
0.000000 0.086067 0.135248
0.000000 0.088108 0.135627
0.000000 0.090399 0.136088
0.020291 0.092949 0.136642
0.064597 0.095767 0.137305
0.100219 0.098862 0.138089
0.000000 0.073521 0.134375
0.008562 0.082572 0.135902
0.101646 0.091199 0.137639
0.158913 0.099302 0.139544
0.205923 0.106917 0.141592
0.248088 0.114108 0.143762
0.287431 0.120941 0.146036
0.324953 0.127475 0.148398
0.361234 0.133762 0.150831
0.396641 0.139845 0.153321
0.431427 0.145763 0.155854
0.465771 0.151544 0.158415
0.499830 0.157193 0.160969
0.533737 0.162694 0.163468
0.567610 0.168015 0.165842
0.601566 0.173092 0.167994
0.635637 0.177937 0.169904
0.000000 0.084515 0.134394
0.000000 0.084856 0.134433
0.000000 0.085241 0.134477
0.000000 0.085794 0.134543
0.000000 0.086536 0.134633
0.000000 0.087481 0.134753
0.000000 0.088643 0.134908
0.000000 0.090034 0.135104
0.000000 0.091664 0.135347
0.000000 0.093543 0.135646
0.000000 0.095679 0.136011
0.000000 0.098080 0.136451
0.003005 0.100753 0.136977
0.046253 0.103702 0.137602
0.000000 0.067527 0.133483
0.000000 0.077385 0.134646
0.000000 0.087298 0.136074
0.086044 0.096648 0.137690
0.141944 0.105388 0.139464
0.187493 0.113565 0.141379
0.228380 0.121253 0.143416
0.266624 0.128519 0.145561
0.303196 0.135430 0.147800
0.338644 0.142039 0.150117
0.373312 0.148398 0.152500
0.407433 0.154546 0.154934
0.441170 0.160520 0.157407
0.474655 0.166342 0.159897
0.508009 0.172012 0.162363
0.541332 0.177516 0.164752
0.574724 0.182819 0.166986
0.608287 0.187860 0.168958
0.641994 0.192702 0.170714
0.000000 0.095367 0.135101
0.000000 0.095765 0.135150
0.000000 0.096214 0.135207
0.000000 0.096857 0.135289
0.000000 0.097718 0.135403
0.000000 0.098813 0.135552
0.000000 0.100156 0.135743
0.000000 0.101757 0.135981
0.000000 0.103626 0.136273
0.000000 0.105770 0.136627
0.000000 0.108196 0.137053
0.000000 0.110909 0.137560
0.029822 0.113912 0.138159
0.000000 0.075249 0.134170
0.000000 0.085779 0.135330
0.004836 0.095890 0.136676
0.080989 0.105418 0.138182
0.132202 0.114361 0.139834
0.174792 0.122765 0.141617
0.213474 0.130690 0.143519
0.249961 0.138194 0.145531
0.285081 0.145332 0.147638
0.319299 0.152154 0.149828
0.352905 0.158706 0.152090
0.386093 0.165027 0.154411
0.418999 0.171153 0.156778
0.451730 0.177110 0.159178
0.484382 0.182909 0.161575
0.517039 0.188549 0.163928
0.549781 0.194013 0.166176
0.582692 0.199264 0.168231
0.615861 0.204240 0.169976
0.649181 0.209067 0.171559
0.000000 0.109642 0.136127
0.000000 0.110084 0.136188
0.000000 0.110583 0.136258
0.000000 0.111297 0.136360
0.000000 0.112253 0.136498
0.000000 0.113466 0.136680
0.000000 0.114950 0.136909
0.000000 0.116717 0.137192
0.000000 0.118775 0.137537
0.000000 0.121130 0.137951
0.000000 0.069932 0.133609
0.000000 0.079731 0.134392
0.000000 0.089808 0.135355
0.000000 0.099665 0.136472
0.021356 0.109145 0.137734
0.083638 0.118197 0.139134
0.128380 0.126818 0.140663
0.167092 0.135024 0.142316
0.202951 0.142842 0.144083
0.237212 0.150307 0.145955
0.270500 0.157453 0.147924
0.303170 0.164313 0.149979
0.335441 0.170921 0.152109
0.367462 0.177308 0.154303
0.399335 0.183501 0.156552
0.431138 0.189526 0.158841
0.462942 0.195395 0.161144
0.494812 0.201113 0.163425
0.526807 0.206674 0.165634
0.558993 0.212056 0.167702
0.591442 0.217218 0.169529
0.624193 0.222134 0.171044
0.657147 0.226901 0.172389
0.000000 0.127395 0.137553
0.000000 0.127869 0.137627
0.000000 0.128403 0.137711
0.000000 0.129168 0.137832
0.000000 0.130190 0.137997
0.000000 0.066261 0.133351
0.000000 0.071481 0.133658
0.000000 0.078232 0.134101
0.000000 0.085789 0.134661
0.000000 0.093829 0.135339
0.000000 0.102126 0.136138
0.000000 0.110511 0.137059
0.000000 0.118862 0.138103
0.040833 0.127094 0.139269
0.089619 0.135149 0.140557
0.128190 0.142991 0.141962
0.162956 0.150601 0.143482
0.195850 0.157972 0.145110
0.227719 0.165107 0.146840
0.259002 0.172014 0.148666
0.289950 0.178706 0.150577
0.320720 0.185199 0.152567
0.351415 0.191509 0.154624
0.382106 0.197654 0.156741
0.412845 0.203650 0.158904
0.443681 0.209508 0.161092
0.474657 0.215232 0.163273
0.505816 0.220820 0.165407
0.537204 0.226259 0.167434
0.568877 0.231520 0.169272
0.600899 0.236558 0.170808
0.633234 0.241399 0.172073
0.665830 0.246086 0.173139
0.000000 0.094083 0.135014
0.000000 0.095723 0.135137
0.000000 0.097543 0.135277
0.000000 0.100086 0.135479
0.000000 0.103385 0.135753
0.000000 0.107411 0.136107
0.000000 0.112102 0.136547
0.000000 0.117377 0.137079
0.000000 0.123140 0.137709
0.000000 0.129289 0.138442
0.000000 0.135726 0.139281
0.007402 0.142359 0.140229
0.056136 0.149108 0.141286
0.095562 0.155905 0.142454
0.129342 0.162697 0.143730
0.160730 0.169440 0.145113
0.190942 0.176103 0.146599
0.220555 0.182665 0.148183
0.249884 0.189114 0.149860
0.279109 0.195440 0.151622
0.308343 0.201644 0.153463
0.337656 0.207727 0.155375
0.367095 0.213694 0.157350
0.396694 0.219551 0.159376
0.426485 0.225302 0.161431
0.456494 0.230947 0.163491
0.486749 0.236484 0.165520
0.517282 0.241902 0.167467
0.548132 0.247182 0.169263
0.579349 0.252288 0.170809
0.610992 0.257169 0.171973
0.642913 0.261928 0.172987
0.675167 0.266517 0.173730
0.000000 0.137773 0.138461
0.000000 0.138933 0.138594
0.000000 0.140225 0.138744
0.000000 0.142042 0.138959
0.000000 0.144417 0.139249
0.000000 0.147343 0.139618
0.000000 0.150798 0.140074
0.000000 0.154740 0.140619
0.000000 0.159118 0.141259
0.000000 0.163875 0.141996
0.022927 0.168946 0.142833
0.065553 0.174272 0.143772
0.099715 0.179794 0.144812
0.130193 0.185458 0.145954
0.159019 0.191217 0.147196
0.187060 0.197032 0.148536
0.214756 0.202869 0.149971
0.242355 0.208701 0.151495
0.270002 0.214510 0.153103
0.297786 0.220280 0.154791
0.325762 0.226001 0.156551
0.353965 0.231667 0.158375
0.382420 0.237274 0.160252
0.411145 0.242819 0.162162
0.440158 0.248296 0.164084
0.469476 0.253700 0.165986
0.499120 0.259020 0.167822
0.529119 0.264239 0.169532
0.559507 0.269330 0.171032
0.590333 0.274253 0.172205
0.621623 0.278973 0.172959
0.653156 0.283629 0.173690
0.685086 0.288105 0.174069
0.000000 0.177443 0.142395
0.000000 0.178305 0.142527
0.000000 0.179269 0.142677
0.000000 0.180632 0.142891
0.000000 0.182424 0.143179
0.000000 0.184652 0.143545
0.000000 0.187308 0.143995
0.000000 0.190373 0.144531
0.000000 0.193820 0.145158
0.032073 0.197615 0.145878
0.070338 0.201718 0.146692
0.101535 0.206090 0.147601
0.129879 0.210689 0.148606
0.156907 0.215475 0.149705
0.183326 0.220410 0.150897
0.209515 0.225461 0.152179
0.235693 0.230598 0.153549
0.261994 0.235796 0.155001
0.288500 0.241033 0.156531
0.315265 0.246292 0.158134
0.342320 0.251559 0.159801
0.369687 0.256821 0.161519
0.397382 0.262070 0.163274
0.425416 0.267296 0.165044
0.453803 0.272489 0.166800
0.482556 0.277637 0.168502
0.511697 0.282722 0.170094
0.541252 0.287721 0.171501
0.571258 0.292602 0.172621
0.601762 0.297320 0.173318
0.632678 0.301906 0.173729
0.663887 0.306420 0.174074
0.695419 0.310875 0.174685
0.000000 0.214577 0.146645
0.000000 0.215250 0.146773
0.000000 0.216005 0.146918
0.000000 0.217075 0.147126
0.000000 0.218489 0.147404
0.000000 0.220257 0.147757
0.000000 0.222379 0.148190
0.000126 0.224847 0.148706
0.036305 0.227649 0.149308
0.071770 0.230764 0.149997
0.101215 0.234167 0.150775
0.128184 0.237833 0.151642
0.153982 0.241732 0.152599
0.179234 0.245836 0.153643
0.204288 0.250117 0.154774
0.229354 0.254546 0.155988
0.254564 0.259100 0.157283
0.280001 0.263756 0.158655
0.305721 0.268493 0.160097
0.331760 0.273295 0.161601
0.358142 0.278145 0.163155
0.384883 0.283030 0.164746
0.411996 0.287936 0.166353
0.439492 0.292851 0.167949
0.467384 0.297760 0.169496
0.495688 0.302645 0.170944
0.524424 0.307486 0.172223
0.553623 0.312254 0.173241
0.583324 0.316911 0.173877
0.613575 0.321408 0.173967
0.644110 0.325871 0.174114
0.674900 0.330357 0.174838
0.705922 0.334903 0.176600
0.000000 0.250161 0.151100
0.000000 0.250706 0.151222
0.000000 0.251319 0.151359
0.000000 0.252190 0.151556
0.000000 0.253345 0.151820
0.000000 0.254795 0.152155
0.003781 0.256544 0.152566
0.037886 0.258592 0.153054
0.071234 0.260930 0.153623
0.099399 0.263550 0.154274
0.125359 0.266435 0.155008
0.150249 0.269569 0.155826
0.174629 0.272931 0.156726
0.198821 0.276501 0.157709
0.223023 0.280259 0.158771
0.247362 0.284183 0.159911
0.271925 0.288252 0.161123
0.296771 0.292449 0.162402
0.321939 0.296756 0.163741
0.347458 0.301154 0.165128
0.373347 0.305630 0.166549
0.399621 0.310169 0.167985
0.426293 0.314754 0.169409
0.453375 0.319372 0.170785
0.480883 0.324004 0.172066
0.508835 0.328629 0.173188
0.537256 0.333223 0.174066
0.566179 0.337754 0.174586
0.595647 0.342179 0.174603
0.625617 0.346501 0.174256
0.655639 0.350980 0.175227
0.685933 0.355509 0.177043
0.716656 0.359900 0.178641
0.000000 0.284799 0.155670
0.000000 0.285255 0.155784
0.000000 0.285768 0.155913
0.000000 0.286497 0.156098
0.000000 0.287467 0.156345
0.008051 0.288689 0.156659
0.039371 0.290168 0.157043
0.070255 0.291908 0.157500
0.097026 0.293905 0.158033
0.121979 0.296154 0.158641
0.146031 0.298647 0.159327
0.169653 0.301372 0.160091
0.193119 0.304316 0.160931
0.216605 0.307464 0.161847
0.240226 0.310802 0.162834
0.264063 0.314313 0.163890
0.288175 0.317981 0.165008
0.312602 0.321790 0.166182
0.337374 0.325726 0.167399
0.362513 0.329773 0.168647
0.388038 0.333916 0.169905
0.413963 0.338141 0.171148
0.440301 0.342431 0.172340
0.467069 0.346769 0.173437
0.494283 0.351137 0.174378
0.521967 0.355510 0.175081
0.550150 0.359861 0.175443
0.578865 0.364155 0.175336
0.608060 0.368422 0.175145
0.637458 0.372793 0.176003
0.667054 0.377229 0.177713
0.697108 0.381540 0.179080
0.727608 0.385698 0.180046
0.000000 0.318885 0.160284
0.000000 0.319275 0.160390
0.000000 0.319714 0.160510
0.000000 0.320340 0.160681
0.015471 0.321174 0.160911
0.043174 0.322226 0.161203
0.070453 0.323505 0.161559
0.095233 0.325012 0.161984
0.118846 0.326751 0.162479
0.141886 0.328716 0.163045
0.164673 0.330906 0.163683
0.187401 0.333312 0.164389
0.210202 0.335925 0.165164
0.233164 0.338737 0.166006
0.256354 0.341734 0.166910
0.279819 0.344906 0.167872
0.303595 0.348240 0.168882
0.327710 0.351723 0.169930
0.352187 0.355341 0.171002
0.377043 0.359082 0.172079
0.402294 0.362931 0.173133
0.427955 0.366873 0.174132
0.454041 0.370894 0.175030
0.480570 0.374973 0.175768
0.507562 0.379092 0.176271
0.535045 0.383223 0.176438
0.562977 0.387385 0.176521
0.591313 0.391603 0.176878
0.620128 0.395820 0.177301
0.649125 0.400072 0.178532
0.678531 0.404253 0.179617
0.708383 0.408316 0.180328
0.738683 0.412223 0.180503
0.000000 0.352683 0.164892
0.000000 0.353023 0.164991
0.010777 0.353407 0.165102
0.028257 0.353954 0.165261
0.050887 0.354684 0.165474
0.073325 0.355607 0.165744
0.095221 0.356731 0.166075
0.116897 0.358061 0.166469
0.138528 0.359598 0.166929
0.160224 0.361342 0.167455
0.182053 0.363293 0.168040
0.204075 0.365447 0.168685
0.226337 0.367796 0.169389
0.248872 0.370335 0.170148
0.271709 0.373055 0.170958
0.294872 0.375947 0.171809
0.318378 0.379002 0.172690
0.342246 0.382208 0.173586
0.366490 0.385554 0.174478
0.391124 0.389029 0.175339
0.416161 0.392619 0.176136
0.441616 0.396311 0.176822
0.467507 0.400087 0.177342
0.493848 0.403931 0.177641
0.520575 0.407871 0.178033
0.547671 0.411913 0.178713
0.575192 0.416019 0.179527
0.603308 0.420068 0.179683
0.631961 0.424038 0.179385
0.660751 0.428045 0.180146
0.689988 0.431963 0.180527
0.719689 0.435742 0.180258
0.749837 0.439352 0.179227
0.023462 0.386372 0.169482
0.035055 0.386674 0.169573
0.047695 0.387014 0.169677
0.062902 0.387501 0.169825
0.079872 0.388150 0.170023
0.098042 0.388972 0.170275
0.117067 0.389975 0.170585
0.136740 0.391164 0.170953
0.156937 0.392541 0.171384
0.177576 0.394110 0.171870
0.198605 0.395872 0.172393
0.220018 0.397823 0.172968
0.241803 0.399959 0.173591
0.263956 0.402276 0.174254
0.286477 0.404768 0.174950
0.309370 0.407428 0.175667
0.332639 0.410249 0.176389
0.356292 0.413221 0.177096
0.380336 0.416334 0.177760
0.404783 0.419579 0.178347
0.429642 0.422943 0.178814
0.454871 0.426437 0.179331
0.480434 0.430073 0.180089
0.506338 0.433848 0.181151
0.532686 0.437701 0.182135
0.559578 0.441565 0.182599
0.587050 0.445402 0.182364
0.615146 0.449166 0.181207
0.643574 0.452905 0.180512
0.672255 0.456621 0.180370
0.701393 0.460229 0.179588
0.730964 0.463703 0.178102
0.760940 0.467022 0.175857
0.060579 0.420076 0.174087
0.069463 0.420347 0.174174
0.078571 0.420654 0.174272
0.090323 0.421091 0.174413
0.104331 0.421676 0.174601
0.120104 0.422418 0.174841
0.137244 0.423323 0.175136
0.155454 0.424398 0.175489
0.174519 0.425646 0.175901
0.194239 0.427078 0.176317
0.214559 0.428688 0.176771
0.235411 0.430475 0.177263
0.256746 0.432438 0.177788
0.278531 0.434573 0.178334
0.300746 0.436877 0.178890
0.323377 0.439344 0.179439
0.346417 0.441968 0.179959
0.369842 0.444749 0.180494
0.393600 0.447699 0.181198
0.417686 0.450817 0.182119
0.442099 0.454101 0.183308
0.466912 0.457514 0.184523
0.492200 0.461014 0.185457
0.517986 0.464576 0.186001
0.544294 0.468174 0.186017
0.571159 0.471776 0.185335
0.598624 0.475338 0.183705
0.626763 0.478801 0.180691
0.654999 0.482267 0.179582
0.683612 0.485666 0.178247
0.712641 0.488965 0.176263
0.742058 0.492140 0.173582
0.771827 0.495175 0.170168
0.089688 0.453876 0.178816
0.096730 0.454122 0.178901
0.104198 0.454401 0.178998
0.114147 0.454799 0.179136
0.126385 0.455331 0.179321
0.140554 0.456006 0.179558
0.156314 0.456832 0.179850
0.173371 0.457813 0.180200
0.191433 0.458963 0.180545
0.210342 0.460283 0.180886
0.230003 0.461770 0.181256
0.250308 0.463426 0.181658
0.271154 0.465256 0.182151
0.292479 0.467264 0.182762
0.314238 0.469450 0.183516
0.336398 0.471816 0.184443
0.358935 0.474361 0.185577
0.381880 0.477070 0.186797
0.405273 0.479918 0.187932
0.429114 0.482895 0.188924
0.453411 0.485986 0.189702
0.478173 0.489176 0.190179
0.503419 0.492444 0.190248
0.529172 0.495767 0.189767
0.555483 0.499107 0.188463
0.582391 0.502426 0.186075
0.609934 0.505684 0.182308
0.638018 0.508856 0.177853
0.666150 0.512020 0.175949
0.694674 0.515109 0.173450
0.723565 0.518104 0.170319
0.752789 0.520988 0.166532
0.782306 0.523746 0.162088
0.114053 0.487857 0.184240
0.120053 0.488086 0.184362
0.126521 0.488346 0.184502
0.135284 0.488716 0.184706
0.146258 0.489214 0.184987
0.159184 0.489846 0.185356
0.173782 0.490621 0.185829
0.189750 0.491551 0.186387
0.206769 0.492654 0.186932
0.224771 0.493923 0.187593
0.243609 0.495360 0.188378
0.263196 0.496961 0.189231
0.283446 0.498725 0.190130
0.304293 0.500651 0.191056
0.325686 0.502736 0.191985
0.347588 0.504975 0.192887
0.369973 0.507362 0.193724
0.392826 0.509890 0.194450
0.416139 0.512551 0.195008
0.439911 0.515332 0.195328
0.464155 0.518217 0.195290
0.488898 0.521183 0.194724
0.514157 0.524210 0.193479
0.539955 0.527271 0.191374
0.566320 0.530338 0.188183
0.593284 0.533375 0.183617
0.620883 0.536342 0.177304
0.648797 0.539235 0.172391
0.676858 0.542088 0.169394
0.705261 0.544872 0.165836
0.733972 0.547570 0.161708
0.762954 0.550169 0.157030
0.792160 0.552658 0.151854
0.131600 0.522355 0.194130
0.137060 0.522570 0.194299
0.142997 0.522812 0.194490
0.151114 0.523159 0.194764
0.161383 0.523623 0.195132
0.173607 0.524213 0.195600
0.187553 0.524934 0.196175
0.202882 0.525805 0.196757
0.219332 0.526841 0.197257
0.236867 0.528026 0.197806
0.255336 0.529364 0.198392
0.274614 0.530856 0.198999
0.294604 0.532501 0.199609
0.315231 0.534297 0.200196
0.336437 0.536244 0.200730
0.358184 0.538334 0.201160
0.380452 0.540560 0.201406
0.403223 0.542914 0.201398
0.426484 0.545385 0.201055
0.450235 0.547961 0.200277
0.474479 0.550626 0.198946
0.499228 0.553364 0.196916
0.524497 0.556151 0.194010
0.550310 0.558964 0.190007
0.576691 0.561773 0.184627
0.603672 0.564543 0.177508
0.631285 0.567236 0.168158
0.658983 0.569834 0.163853
0.686938 0.572381 0.159941
0.715174 0.574864 0.155565
0.743654 0.577270 0.150769
0.772333 0.579591 0.145639
0.801159 0.581819 0.140320
0.147539 0.556909 0.205070
0.152645 0.557105 0.205233
0.158226 0.557326 0.205418
0.165902 0.557643 0.205681
0.175679 0.558066 0.206034
0.187402 0.558604 0.206481
0.200868 0.559261 0.207027
0.215654 0.560070 0.207453
0.231600 0.561035 0.207737
0.248692 0.562139 0.208019
0.266778 0.563384 0.208278
0.285733 0.564772 0.208488
0.305455 0.566301 0.208620
0.325864 0.567970 0.208635
0.346895 0.569776 0.208485
0.368504 0.571713 0.208116
0.390655 0.573776 0.207460
0.413326 0.575957 0.206436
0.436505 0.578245 0.204950
0.460186 0.580628 0.202883
0.484371 0.583090 0.200095
0.509071 0.585613 0.196415
0.534300 0.588176 0.191628
0.560077 0.590754 0.185465
0.586425 0.593318 0.177577
0.613368 0.595834 0.167489
0.640842 0.598250 0.156683
0.668394 0.600540 0.152567
0.696195 0.602784 0.148121
0.724210 0.604971 0.143423
0.752395 0.607092 0.138604
0.780703 0.609141 0.133856
0.809074 0.611116 0.129458
0.163676 0.591283 0.215502
0.168482 0.591459 0.215639
0.173757 0.591658 0.215794
0.181048 0.591943 0.216015
0.190386 0.592323 0.216310
0.201650 0.592807 0.216684
0.214665 0.593398 0.217141
0.228809 0.594156 0.217220
0.244216 0.595052 0.217163
0.260815 0.596078 0.217045
0.278458 0.597235 0.216841
0.297018 0.598525 0.216519
0.316392 0.599947 0.216042
0.336494 0.601498 0.215364
0.357257 0.603176 0.214431
0.378630 0.604976 0.213178
0.400575 0.606891 0.211526
0.423066 0.608912 0.209382
0.446087 0.611031 0.206635
0.469629 0.613233 0.203150
0.493694 0.615503 0.198763
0.518285 0.617823 0.193272
0.543415 0.620171 0.186421
0.569098 0.622523 0.177883
0.595349 0.624851 0.167214
0.622184 0.627124 0.153782
0.649448 0.629231 0.143912
0.676857 0.631218 0.139702
0.704447 0.633162 0.135467
0.732176 0.635057 0.131387
0.759998 0.636898 0.127710
0.787857 0.638682 0.124763
0.815692 0.640412 0.122953
0.180599 0.625313 0.224730
0.185110 0.625470 0.224846
0.190081 0.625648 0.224976
0.196979 0.625902 0.225163
0.205861 0.626243 0.225413
0.216634 0.626675 0.225730
0.228990 0.627222 0.225952
0.242387 0.627940 0.225623
0.257168 0.628776 0.225194
0.273178 0.629733 0.224640
0.290276 0.630813 0.223930
0.308341 0.632015 0.223028
0.327265 0.633340 0.221890
0.346964 0.634784 0.220464
0.367366 0.636345 0.218687
0.388417 0.638017 0.216485
0.410075 0.639793 0.213770
0.432311 0.641665 0.210439
0.455105 0.643622 0.206364
0.478444 0.645650 0.201397
0.502324 0.647734 0.195351
0.526746 0.649856 0.187997
0.551715 0.651993 0.179041
