RedKomodo_Tungsten_Dramatic.cube
TITLE "Red Komodo X - Tungsten Dramatic"
# Deep warm amber indoor look - strong 3200K push, warm shadows, orange highlights
# Apply AFTER CST (REDWideGamutRGB/Log3G10 > Rec.709) in DaVinci Resolve
LUT_3D_SIZE 5
0.146041 0.087202 0.000000
0.333658 0.100661 0.000000
0.312510 0.098693 0.000000
0.529594 0.122191 0.000000
0.778231 0.130348 0.000000
0.159695 0.240788 0.000000
0.202641 0.159513 0.000000
0.348597 0.183228 0.000000
0.552378 0.209954 0.000000
0.798946 0.219896 0.000000
0.173632 0.350393 0.000000
0.246373 0.355329 0.000000
0.401122 0.369181 0.018841
0.604237 0.387797 0.000000
0.854433 0.396596 0.000000
0.209979 0.588032 0.128432
0.284393 0.591735 0.119724
0.444485 0.602419 0.053628
0.656578 0.615188 0.000000
0.892432 0.617975 0.000000
0.269811 0.823820 0.253031
0.325061 0.826678 0.236128
0.462303 0.835024 0.156965
0.660409 0.847318 0.000000
0.907330 0.853857 0.000000
0.151440 0.095874 0.384856
0.319287 0.101674 0.206804
0.315892 0.099558 0.045815
0.531481 0.122971 0.111690
0.779833 0.129868 0.137055
0.160235 0.238636 0.157566
0.204231 0.161408 0.041182
0.350567 0.184528 0.087619
0.553795 0.210740 0.127422
0.800422 0.219668 0.133678
0.174189 0.351502 0.126291
0.247061 0.356361 0.131451
0.401889 0.370038 0.144366
0.604756 0.388476 0.146391
0.855486 0.396584 0.061656
0.214825 0.588209 0.210506
0.287693 0.591892 0.207016
0.445922 0.602530 0.183116
0.656312 0.615280 0.000000
0.892486 0.617959 0.000000
0.273916 0.823705 0.305768
0.334247 0.825795 0.300532
0.467103 0.834273 0.249986
0.661970 0.846803 0.000000
0.907560 0.853998 0.000000
0.154272 0.100362 0.480452
0.293372 0.104723 0.394759
0.326091 0.102418 0.214228
0.537215 0.125463 0.269103
0.784907 0.128047 0.305480
0.152547 0.158992 0.194067
0.209334 0.167464 0.210868
0.356435 0.188484 0.247539
0.558116 0.213255 0.284608
0.805091 0.218774 0.311295
0.175807 0.354975 0.281627
0.249216 0.359588 0.286480
0.404280 0.372746 0.300068
0.606232 0.390740 0.316856
0.858771 0.396476 0.311188
0.217440 0.590289 0.350823
0.294122 0.593163 0.353765
0.450880 0.602939 0.354100
0.655547 0.615722 0.327021
0.892652 0.617905 0.294513
0.274976 0.824552 0.420738
0.342186 0.825755 0.422847
0.482480 0.832007 0.413520
0.667181 0.845301 0.342465
0.908301 0.854452 0.244188
0.157942 0.106143 0.582601
0.273930 0.110030 0.544445
0.341867 0.107905 0.371353
0.546865 0.130282 0.427502
0.793251 0.126005 0.476289
0.155907 0.170241 0.351543
0.217760 0.177435 0.368155
0.366021 0.195255 0.404373
0.565384 0.218139 0.444962
0.813007 0.217395 0.487609
0.178681 0.361133 0.440764
0.252891 0.365394 0.446041
0.408676 0.377738 0.461259
0.608261 0.395519 0.486606
0.864585 0.396001 0.509187
0.221748 0.594141 0.511317
0.297814 0.596874 0.514061
0.457882 0.604966 0.522238
0.654556 0.617214 0.529122
0.892949 0.617790 0.519253
0.277254 0.826179 0.569339
0.344322 0.827408 0.570912
0.495424 0.831487 0.575378
0.677861 0.843095 0.561234
0.909719 0.855328 0.503565
0.153624 0.099338 0.460305
0.212338 0.103353 0.485727
0.359823 0.116224 0.538995
0.559364 0.138350 0.592524
0.798345 0.141660 0.648939
0.161292 0.184203 0.522435
0.228081 0.189703 0.536244
0.378198 0.204423 0.569413
0.574894 0.226145 0.610672
0.814247 0.231791 0.663150
0.182943 0.369786 0.606749
0.258174 0.373629 0.612384
0.415190 0.384954 0.628767
0.611508 0.403605 0.654972
0.855971 0.409485 0.696474
0.228262 0.599732 0.680449
0.303356 0.602257 0.683146
0.462321 0.609668 0.691136
0.655299 0.620849 0.704097
0.880403 0.623982 0.722857
0.281488 0.828768 0.732452
0.348181 0.830040 0.733738
0.499090 0.834262 0.737465
0.690782 0.842887 0.743000
0.908932 0.856939 0.731821
