RedKomodo_KodakFilm_Warm.cube
TITLE "Red Komodo X - Kodak Film Warm"
# Warm amber skin, faded desaturated sky, lifted blacks with film base feel
# Apply AFTER CST (REDWideGamutRGB/Log3G10 > Rec.709) in DaVinci Resolve
LUT_3D_SIZE 5
0.119379 0.071012 0.000000
0.319220 0.082859 0.000000
0.429635 0.091944 0.000875
0.518306 0.099642 0.019446
0.761159 0.105369 0.043136
0.130700 0.229678 0.000000
0.244852 0.221059 0.000713
0.335164 0.174965 0.000000
0.541180 0.199440 0.040151
0.781928 0.209182 0.020473
0.140397 0.353370 0.040953
0.224475 0.357635 0.047226
0.387304 0.369549 0.060025
0.593174 0.386150 0.015216
0.832540 0.397081 0.000000
0.186713 0.593590 0.135527
0.265843 0.596945 0.125172
0.429970 0.606350 0.069945
0.639256 0.618008 0.000000
0.866066 0.626691 0.000000
0.251078 0.836979 0.236772
0.312079 0.839477 0.220916
0.456010 0.846846 0.148210
0.656993 0.856535 0.000000
0.891090 0.863941 0.000000
0.124798 0.079604 0.406782
0.300419 0.083797 0.238902
0.296820 0.081725 0.096784
0.520653 0.100374 0.146731
0.763018 0.104703 0.172124
0.131121 0.226791 0.185174
0.183100 0.152484 0.096446
0.337759 0.176558 0.129032
0.542858 0.200215 0.160672
0.783664 0.209016 0.170540
0.140770 0.354578 0.160777
0.225125 0.358747 0.164675
0.388153 0.370467 0.174580
0.593759 0.386937 0.172351
0.833431 0.397286 0.138648
0.191196 0.593921 0.226280
0.270802 0.596939 0.224767
0.431925 0.606385 0.205345
0.639577 0.618333 0.135537
0.866328 0.626883 0.138518
0.254246 0.837048 0.302032
0.321988 0.838653 0.299620
0.461149 0.846140 0.257377
0.657234 0.856738 0.125175
0.891412 0.864173 0.073444
0.127158 0.083423 0.497268
0.269092 0.086528 0.422332
0.310806 0.084730 0.250004
0.527612 0.102672 0.306973
0.768916 0.102212 0.343078
0.132392 0.220033 0.368768
0.189808 0.160360 0.249517
0.345212 0.181218 0.287153
0.547939 0.202633 0.322561
0.789126 0.208250 0.349648
0.194802 0.351811 0.319414
0.258075 0.356505 0.325197
0.390827 0.373374 0.338267
0.595297 0.389621 0.353238
0.836075 0.397987 0.357335
0.193767 0.596155 0.381813
0.276168 0.598604 0.384170
0.438511 0.606667 0.387837
0.639732 0.619084 0.374935
0.867138 0.627473 0.371395
0.255900 0.838051 0.439576
0.327382 0.839194 0.440970
0.477627 0.844044 0.438168
0.661480 0.856087 0.388833
0.892445 0.864920 0.362740
0.130172 0.088434 0.602576
0.247176 0.091043 0.570496
0.331819 0.090304 0.420662
0.519332 0.144515 0.460795
0.779804 0.096032 0.525240
0.129282 0.165846 0.403132
0.200358 0.172745 0.420208
0.355512 0.189927 0.454371
0.507547 0.256407 0.454813
0.798974 0.205884 0.536991
0.227989 0.358722 0.454769
0.286212 0.363893 0.452291
0.398555 0.386370 0.449984
0.571724 0.409999 0.518048
0.840217 0.399579 0.560629
0.447548 0.565621 0.543637
0.468884 0.571443 0.549659
0.484588 0.600991 0.567750
0.640543 0.621244 0.577750
0.868544 0.628503 0.581779
0.259409 0.839976 0.609274
0.330443 0.841140 0.610379
0.485909 0.844963 0.613613
0.673929 0.854142 0.610941
0.894392 0.866347 0.585517
0.128095 0.084962 0.530768
0.197094 0.088331 0.555899
0.352533 0.099592 0.606465
0.510016 0.199621 0.595210
0.610783 0.359068 0.563690
0.133950 0.181549 0.594496
0.211881 0.186533 0.606193
0.364384 0.210486 0.614199
0.495581 0.299765 0.563806
0.630825 0.400702 0.584453
0.281989 0.374034 0.564557
0.326540 0.381487 0.556028
0.419096 0.408238 0.548745
0.538222 0.453584 0.587709
0.713180 0.499699 0.662569
0.465213 0.580571 0.639247
0.485847 0.586184 0.644557
0.546479 0.603669 0.661094
0.644229 0.634588 0.690695
0.848656 0.641090 0.776921
0.625122 0.795356 0.772370
0.640710 0.799101 0.776008
0.675596 0.814081 0.788074
0.700053 0.852034 0.802276
0.895864 0.868683 0.804650
