RedKomodo_KodakFilm_Warm.cube
TITLE "Red Komodo X - Kodak Film Warm"
# Warm amber skin, faded desaturated sky, lifted blacks with film base feel
# Apply AFTER CST (REDWideGamutRGB/Log3G10 > Rec.709) in DaVinci Resolve
LUT_3D_SIZE 33
0.119379 0.071012 0.000000
0.163060 0.072845 0.000000
0.200987 0.074819 0.000000
0.244496 0.077482 0.000000
0.276044 0.079643 0.000000
0.287321 0.080457 0.000000
0.297827 0.081232 0.000000
0.308328 0.082023 0.000000
0.319220 0.082859 0.000000
0.330701 0.083755 0.000000
0.342858 0.084720 0.000000
0.355717 0.085756 0.000000
0.369267 0.086864 0.000000
0.383477 0.088041 0.000000
0.398306 0.089283 0.000000
0.413708 0.090586 0.000000
0.429635 0.091944 0.000875
0.318000 0.082764 0.000000
0.345717 0.084949 0.000000
0.374165 0.087268 0.000000
0.402871 0.089668 0.000000
0.431675 0.092118 0.001266
0.460522 0.094602 0.006975
0.489398 0.097110 0.013032
0.518306 0.099642 0.019446
0.547263 0.102208 0.026240
0.576336 0.104740 0.033237
0.605754 0.106863 0.039510
0.635613 0.108413 0.044418
0.666002 0.109221 0.047535
0.697008 0.109109 0.048644
0.728706 0.107888 0.047373
0.761159 0.105369 0.043136
0.122888 0.130761 0.000000
0.165542 0.131746 0.000000
0.199152 0.130074 0.000000
0.224425 0.122903 0.000000
0.245663 0.116599 0.000000
0.263652 0.111500 0.000000
0.279479 0.107589 0.000000
0.294056 0.104707 0.000000
0.308040 0.102665 0.000000
0.321869 0.101295 0.000000
0.335819 0.100457 0.000000
0.350057 0.100043 0.000000
0.364677 0.099970 0.000000
0.379725 0.100173 0.000000
0.395215 0.100602 0.000000
0.411143 0.101217 0.000000
0.427492 0.101989 0.001695
0.320605 0.088053 0.000000
0.348200 0.090496 0.000000
0.376404 0.093028 0.000000
0.404866 0.095598 0.000000
0.433452 0.098185 0.002305
0.462111 0.100776 0.008014
0.490826 0.103367 0.014072
0.519599 0.105965 0.020488
0.548441 0.108582 0.027287
0.577441 0.111115 0.034185
0.606815 0.113226 0.040276
0.636644 0.114780 0.044922
0.667017 0.115619 0.047786
0.698017 0.115579 0.048627
0.729716 0.114488 0.047058
0.762175 0.112180 0.042465
0.124993 0.159445 0.000000
0.155795 0.153704 0.000000
0.179629 0.148413 0.000000
0.203599 0.142421 0.000000
0.226024 0.136384 0.000000
0.246350 0.130824 0.000000
0.264795 0.126015 0.000000
0.281839 0.122039 0.000000
0.297971 0.118865 0.000000
0.313598 0.116414 0.000000
0.329024 0.114585 0.000000
0.344461 0.113284 0.000000
0.360052 0.112426 0.000000
0.375885 0.111937 0.000000
0.392011 0.111757 0.000000
0.408456 0.111835 0.000000
0.297488 0.091417 0.000000
0.323505 0.093934 0.000000
0.350909 0.096617 0.000000
0.378845 0.099341 0.000000
0.407046 0.102067 0.000000
0.435400 0.104777 0.003482
0.463858 0.107466 0.009191
0.492401 0.110136 0.015249
0.521028 0.112795 0.021668
0.549747 0.115460 0.028473
0.578675 0.117984 0.035230
0.608003 0.120083 0.041096
0.637802 0.121641 0.045454
0.668159 0.122511 0.048030
0.699153 0.122541 0.048568
0.730855 0.121580 0.046658
0.763321 0.119480 0.041654
0.125783 0.169585 0.000000
0.147627 0.165980 0.000000
0.166746 0.162403 0.000000
0.187940 0.158024 0.000000
0.209522 0.153211 0.000000
0.230409 0.148365 0.000000
0.250213 0.143791 0.000000
0.268950 0.139683 0.000000
0.286820 0.136131 0.000000
0.304073 0.133155 0.000000
0.320945 0.130733 0.000000
0.337633 0.128818 0.000000
0.354286 0.127356 0.000000
0.371012 0.126290 0.000000
0.387885 0.125569 0.000000
0.404952 0.125145 0.000988
0.301382 0.099310 0.000000
0.327521 0.102184 0.000000
0.354612 0.105127 0.000000
0.382182 0.108058 0.000000
0.410037 0.110950 0.000000
0.438084 0.113794 0.005168
0.466274 0.116591 0.010878
0.494588 0.119347 0.016937
0.523020 0.122077 0.023361
0.551576 0.124792 0.030159
0.580417 0.127292 0.036675
0.609685 0.129373 0.042191
0.639447 0.130935 0.046144
0.669785 0.131842 0.048310
0.700774 0.131962 0.048408
0.732481 0.131160 0.046002
0.764959 0.129318 0.040387
0.126584 0.179643 0.000000
0.143074 0.177319 0.000000
0.158616 0.174917 0.000000
0.177002 0.171833 0.000000
0.196912 0.168250 0.000000
0.217231 0.164414 0.000000
0.237309 0.160559 0.000000
0.256861 0.156873 0.000000
0.275831 0.153484 0.000000
0.294288 0.150469 0.000000
0.312352 0.147861 0.000000
0.330154 0.145663 0.000000
0.347811 0.143857 0.000000
0.365424 0.142414 0.000000
0.383067 0.141304 0.000044
0.282190 0.106709 0.000000
0.306676 0.109747 0.000000
0.332603 0.112932 0.000000
0.359264 0.116104 0.000000
0.386386 0.119217 0.000000
0.413824 0.122256 0.002065
0.441500 0.125220 0.007434
0.469367 0.128116 0.013144
0.497402 0.130954 0.019206
0.525594 0.133752 0.025638
0.553968 0.136496 0.032351
0.582710 0.138959 0.038510
0.611908 0.141018 0.043521
0.641628 0.142581 0.046938
0.671946 0.143531 0.048553
0.702933 0.143750 0.048054
0.734651 0.143129 0.044961
0.767145 0.141575 0.038486
0.127465 0.190516 0.000000
0.140627 0.188971 0.000000
0.153613 0.187333 0.000000
0.169652 0.185169 0.000000
0.187790 0.182559 0.000000
0.207050 0.179646 0.000000
0.226738 0.176583 0.000000
0.246428 0.173513 0.000000
0.265903 0.170555 0.000000
0.285084 0.167797 0.000000
0.303980 0.165297 0.000000
0.322641 0.163085 0.000000
0.341133 0.161174 0.000000
0.359525 0.159561 0.000000
0.265692 0.116165 0.000000
0.288498 0.119322 0.000000
0.313049 0.122718 0.000000
0.338559 0.126112 0.000000
0.364713 0.129439 0.000000
0.391334 0.132675 0.000000
0.418312 0.135816 0.004954
0.445576 0.138866 0.010323
0.473083 0.141835 0.016035
0.500804 0.144737 0.022103
0.528725 0.147592 0.028549
0.556922 0.150322 0.035012
0.585563 0.152731 0.040658
0.614689 0.154764 0.044990
0.644368 0.156326 0.047732
0.674671 0.157318 0.048641
0.705663 0.157643 0.047364
0.737398 0.157212 0.043359
0.769915 0.155964 0.035802
0.128448 0.202479 0.000000
0.139444 0.201422 0.000000
0.150614 0.200284 0.000000
0.164816 0.198750 0.000000
0.181371 0.196854 0.000000
0.199471 0.194675 0.000000
0.218463 0.192307 0.000000
0.237881 0.189850 0.000000
0.257427 0.187394 0.000000
0.276930 0.185018 0.000000
0.296311 0.182782 0.000000
0.315551 0.180728 0.000000
0.334662 0.178883 0.000362
0.251357 0.127704 0.000000
0.272822 0.131010 0.000000
0.295938 0.134541 0.000000
0.320139 0.138081 0.000000
0.345142 0.141559 0.000000
0.370760 0.144945 0.000000
0.396867 0.148229 0.003475
0.423372 0.151413 0.008510
0.450212 0.154503 0.013879
0.477342 0.157510 0.019595
0.504732 0.160451 0.025674
0.532383 0.163324 0.032053
0.560425 0.165999 0.038055
0.588976 0.168340 0.042922
0.618033 0.170340 0.046455
0.647680 0.171899 0.048372
0.677979 0.172933 0.048399
0.708985 0.173365 0.046132
0.740747 0.173131 0.040935
0.773295 0.172193 0.032109
0.129530 0.215558 0.000000
0.139052 0.214817 0.000000
0.148915 0.214011 0.000000
0.161705 0.212909 0.000000
0.176938 0.211523 0.000000
0.193949 0.209896 0.000000
0.212156 0.208086 0.000000
0.231101 0.206157 0.000000
0.250453 0.204175 0.000000
0.269992 0.202199 0.000000
0.289585 0.200283 0.000000
0.309156 0.198469 0.001672
0.239038 0.141574 0.000000
0.259307 0.144973 0.000000
0.281016 0.148517 0.000000
0.303855 0.152077 0.000000
0.327605 0.155595 0.000000
0.352096 0.159037 0.000000
0.377200 0.162390 0.003028
0.402815 0.165650 0.007734
0.428864 0.168817 0.012769
0.455290 0.171900 0.018142
0.482048 0.174908 0.023868
0.509111 0.177856 0.029958
0.536547 0.180679 0.035981
0.564457 0.183276 0.041303
0.592934 0.185541 0.045135
0.621942 0.187500 0.047718
0.651573 0.189052 0.048644
0.681881 0.190129 0.047588
0.712915 0.190672 0.044069
0.744714 0.190637 0.037329
0.777301 0.190014 0.027137
0.130700 0.229678 0.000000
0.139179 0.229148 0.000000
0.148079 0.228565 0.000000
0.159783 0.227762 0.000000
0.173937 0.226740 0.000000
0.189993 0.225520 0.000000
0.207435 0.224139 0.000000
0.225833 0.222637 0.000000
0.244852 0.221059 0.000713
0.195173 0.152385 0.000000
0.210890 0.154990 0.000000
0.228418 0.158062 0.000000
0.247471 0.161350 0.000000
0.267845 0.164743 0.000000
0.289356 0.168171 0.000000
0.311844 0.171589 0.000000
0.335164 0.174965 0.000000
0.359198 0.178283 0.003642
0.383842 0.181530 0.008025
0.409015 0.184703 0.012732
0.434650 0.187804 0.017770
0.460693 0.190838 0.023152
0.487105 0.193814 0.028899
0.513909 0.196705 0.034743
0.541180 0.199440 0.040151
0.568998 0.201936 0.044384
0.597430 0.204119 0.047041
0.626412 0.206035 0.048519
0.656048 0.207580 0.048260
0.686385 0.208703 0.045872
0.717463 0.209362 0.040760
0.749312 0.209534 0.032288
0.781928 0.209182 0.020473
0.131939 0.244727 0.000000
0.139654 0.244339 0.000089
0.147828 0.243912 0.000383
0.158685 0.243318 0.000803
0.171965 0.242555 0.001365
0.152273 0.166069 0.000000
0.162259 0.167557 0.000000
0.173968 0.169497 0.000000
0.187352 0.171792 0.000000
0.202340 0.174370 0.000000
0.218836 0.177171 0.000000
0.236723 0.180136 0.000000
0.255876 0.183215 0.000000
0.276163 0.186363 0.000000
0.297459 0.189544 0.000000
0.319645 0.192729 0.001582
0.342614 0.195897 0.005341
0.366270 0.199032 0.009410
0.390532 0.202124 0.013795
0.415330 0.205170 0.018505
0.440607 0.208168 0.023554
0.466317 0.211123 0.028959
0.492462 0.214016 0.034502
0.519089 0.216801 0.039758
0.546251 0.219424 0.044114
0.574032 0.221805 0.046982
0.602451 0.223907 0.048326
0.631438 0.225780 0.048516
0.661105 0.227325 0.046831
0.691493 0.228503 0.042782
0.722633 0.229289 0.035669
0.754542 0.229680 0.025443
0.787138 0.229461 0.011520
0.127113 0.186191 0.000000
0.130714 0.186710 0.000000
0.134723 0.187294 0.000000
0.140357 0.188124 0.000000
0.147730 0.189223 0.000000
0.156847 0.190596 0.000000
0.167673 0.192239 0.000000
0.180142 0.194138 0.000000
0.194169 0.196272 0.000000
0.209654 0.198611 0.000000
0.226491 0.201124 0.000000
0.244567 0.203778 0.000000
0.263773 0.206540 0.000000
0.283999 0.209380 0.001529
0.305145 0.212272 0.004693
0.327115 0.215191 0.008152
0.349823 0.218121 0.011912
0.373192 0.221048 0.015983
0.397156 0.223961 0.020373
0.421655 0.226856 0.025098
0.446643 0.229730 0.030162
0.472118 0.232565 0.035329
0.498098 0.235332 0.040291
0.524617 0.237993 0.044483
0.551737 0.240492 0.047452
0.579549 0.242745 0.048695
0.607986 0.244780 0.048585
0.637013 0.246618 0.047250
0.666742 0.248174 0.043813
0.697204 0.249422 0.037627
0.728421 0.250354 0.028487
0.760355 0.250870 0.016106
0.792891 0.250731 0.000000
0.129334 0.213190 0.000000
0.133297 0.213649 0.000000
0.137685 0.214162 0.000000
0.143811 0.214889 0.000000
0.151761 0.215845 0.000000
0.161496 0.217036 0.000000
0.172937 0.218456 0.000000
0.185976 0.220096 0.000000
0.200496 0.221940 0.000000
0.216376 0.223969 0.000000
0.233501 0.226160 0.001123
0.251760 0.228489 0.003451
0.271050 0.230932 0.006051
0.291274 0.233466 0.008930
0.312346 0.236070 0.012095
0.334186 0.238725 0.015555
0.356723 0.241416 0.019320
0.379894 0.244131 0.023401
0.403641 0.246860 0.027812
0.427927 0.249594 0.032499
0.452743 0.252317 0.037237
0.478089 0.255008 0.041771
0.503985 0.257639 0.045599
0.530475 0.260169 0.048403
0.557630 0.262537 0.049749
0.585547 0.264661 0.048977
0.614027 0.266652 0.047278
0.643131 0.268472 0.044082
0.672951 0.270058 0.038391
0.703510 0.271399 0.029945
0.734789 0.272441 0.018577
0.766679 0.272961 0.003557
0.799121 0.272919 0.000000
0.131623 0.240873 0.000000
0.135891 0.241258 0.000000
0.140595 0.241689 0.000000
0.147129 0.242299 0.000000
0.155556 0.243104 0.000558
0.165803 0.244109 0.001467
0.177753 0.245312 0.002585
0.191270 0.246708 0.003925
0.206214 0.248286 0.005498
0.222448 0.250034 0.007314
0.239849 0.251936 0.009382
0.258305 0.253973 0.011712
0.277716 0.256130 0.014312
0.297994 0.258387 0.017193
0.319061 0.260729 0.020363
0.340848 0.263141 0.023834
0.363294 0.265610 0.027618
0.386349 0.268124 0.031694
0.409982 0.270671 0.035933
0.434172 0.273237 0.040201
0.458912 0.275805 0.044139
0.484215 0.278353 0.047465
0.510112 0.280849 0.049913
0.536657 0.283249 0.051097
0.563928 0.285492 0.050447
0.592031 0.287494 0.047056
0.620566 0.289478 0.043643
0.649783 0.291302 0.038046
0.679721 0.292946 0.029935
0.710367 0.294364 0.019134
0.741622 0.295364 0.004948
0.773434 0.295904 0.000000
0.805733 0.295982 0.000000
0.133883 0.268784 0.007760
0.138402 0.269107 0.008087
0.143368 0.269469 0.008457
0.150241 0.269983 0.008988
0.159064 0.270663 0.009701
0.169738 0.271515 0.010611
0.182121 0.272539 0.011730
0.196051 0.273733 0.013071
0.211371 0.275091 0.014644
0.227931 0.276605 0.016461
0.245602 0.278264 0.018532
0.264269 0.280057 0.020867
0.283834 0.281969 0.023475
0.304212 0.283989 0.026370
0.325332 0.286105 0.029559
0.347134 0.288303 0.033006
0.369571 0.290574 0.036649
0.392608 0.292905 0.040411
0.416221 0.295283 0.044014
0.440401 0.297694 0.047274
0.465152 0.300120 0.050011
0.490499 0.302536 0.051971
0.516483 0.304909 0.052805
0.543167 0.307192 0.051999
0.570638 0.309324 0.048762
0.598935 0.311262 0.042371
0.627592 0.313246 0.036524
0.656954 0.315107 0.028432
0.686995 0.316783 0.017802
0.717630 0.318122 0.004025
0.748820 0.319090 0.000000
0.780505 0.319679 0.000000
0.812592 0.319912 0.000000
0.136075 0.296826 0.017819
0.140804 0.297100 0.018147
0.145989 0.297409 0.018518
0.153146 0.297847 0.019050
0.162305 0.298429 0.019764
0.173345 0.299160 0.020676
0.186102 0.300043 0.021798
0.200397 0.301078 0.023143
0.216057 0.302260 0.024723
0.232925 0.303587 0.026550
0.250862 0.305050 0.028635
0.269751 0.306643 0.030980
0.289495 0.308356 0.033575
0.310013 0.310181 0.036404
0.331239 0.312108 0.039438
0.353122 0.314128 0.042554
0.375623 0.316231 0.045594
0.398716 0.318406 0.048466
0.422387 0.320641 0.051038
0.446637 0.322920 0.053136
0.471483 0.325225 0.054523
0.496957 0.327530 0.054871
0.523111 0.329800 0.053709
0.550017 0.331989 0.050320
0.577767 0.334036 0.043486
0.606254 0.335969 0.033589
0.635087 0.337977 0.025253
0.664549 0.339809 0.014411
0.694588 0.341374 0.000682
0.725171 0.342646 0.000000
0.756247 0.343614 0.000000
0.787734 0.344289 0.000000
0.819516 0.344718 0.000000
0.138220 0.325004 0.028859
0.143128 0.325241 0.029190
0.148500 0.325509 0.029564
0.155901 0.325890 0.030100
0.165349 0.326397 0.030819
0.176706 0.327035 0.031736
0.189793 0.327809 0.032863
0.204415 0.328720 0.034209
0.220387 0.329767 0.035781
0.237543 0.330948 0.037582
0.255740 0.332259 0.039609
0.274859 0.333696 0.041816
0.294803 0.335254 0.044128
0.315493 0.336925 0.046511
0.336869 0.338704 0.048907
0.358886 0.340583 0.051241
0.381510 0.342553 0.053418
0.404724 0.344605 0.055309
0.428523 0.346728 0.056747
0.452918 0.348905 0.057506
0.477934 0.351118 0.057277
0.503613 0.353341 0.055615
0.530015 0.355538 0.051851
0.557218 0.357666 0.044861
0.585318 0.359666 0.032742
0.613966 0.361618 0.019958
0.642879 0.363525 0.008606
0.672350 0.365228 0.000000
0.702350 0.366705 0.000000
0.732831 0.367942 0.000000
0.763720 0.368947 0.000000
0.794913 0.369752 0.000000
0.826266 0.370429 0.000000
0.140397 0.353370 0.040953
0.145456 0.353580 0.041272
0.150987 0.353818 0.041630
0.158596 0.354156 0.042139
0.168293 0.354607 0.042815
0.179926 0.355177 0.043662
0.193303 0.355870 0.044683
0.208217 0.356689 0.045874
0.224475 0.357635 0.047226
0.241902 0.358708 0.048724
0.260353 0.359906 0.050345
0.279707 0.361228 0.052060
0.299866 0.362670 0.053826
0.320755 0.364228 0.055589
0.342315 0.365898 0.057278
0.364507 0.367674 0.058797
0.387304 0.369549 0.060025
0.410695 0.371516 0.060799
0.434685 0.373562 0.060902
0.459290 0.375673 0.060036
0.484545 0.377830 0.057775
0.510500 0.380008 0.053480
0.537218 0.382172 0.046082
0.564768 0.384265 0.033640
0.593174 0.386150 0.015216
0.621803 0.387994 0.000000
0.650740 0.389765 0.000000
0.680186 0.391366 0.000000
0.710094 0.392785 0.000000
0.740397 0.394025 0.000000
0.771000 0.395111 0.000000
0.801772 0.396097 0.000000
0.832540 0.397081 0.000000
0.142781 0.381999 0.052905
0.147964 0.382191 0.053164
0.153626 0.382407 0.053454
0.161406 0.382715 0.053865
0.171310 0.383127 0.054408
0.183177 0.383648 0.055086
0.196802 0.384285 0.055896
0.211972 0.385040 0.056832
0.228484 0.385916 0.057881
0.246162 0.386914 0.059020
0.264854 0.388035 0.060222
0.284439 0.389278 0.061446
0.304819 0.390643 0.062639
0.325921 0.392127 0.063732
0.347690 0.393728 0.064632
0.370090 0.395442 0.065221
0.393100 0.397263 0.065340
0.416715 0.399183 0.064777
0.440947 0.401193 0.063244
0.465819 0.403279 0.060328
0.491371 0.405422 0.055410
0.517630 0.407572 0.047346
0.544609 0.409643 0.033967
0.572380 0.411573 0.014757
0.601016 0.413287 0.000000
0.629548 0.415045 0.000000
0.658475 0.416705 0.000000
0.687841 0.418232 0.000000
0.717580 0.419627 0.000000
0.747603 0.420911 0.000000
0.777788 0.422127 0.000000
0.807977 0.423353 0.000000
0.837961 0.424709 0.000000
0.145711 0.410981 0.064413
0.150981 0.411160 0.064612
0.156735 0.411362 0.064835
0.164640 0.411652 0.065148
0.174697 0.412039 0.065558
0.186739 0.412530 0.066064
0.200557 0.413132 0.066658
0.215931 0.413848 0.067327
0.232654 0.414682 0.068052
0.250545 0.415637 0.068804
0.269451 0.416714 0.069544
0.289250 0.417915 0.070220
0.309843 0.419240 0.070762
0.331160 0.420690 0.071081
0.353149 0.422262 0.071061
0.375776 0.423954 0.070546
0.399026 0.425763 0.069331
0.422900 0.427680 0.067135
0.447394 0.429685 0.063508
0.472494 0.431727 0.057697
0.498233 0.433774 0.048561
0.524658 0.435786 0.033980
0.551825 0.437715 0.013701
0.579796 0.439501 0.000000
0.608530 0.441104 0.000000
0.636984 0.442770 0.000000
0.665846 0.444343 0.000000
0.695052 0.445827 0.000000
0.724516 0.447237 0.000000
0.754123 0.448610 0.000000
0.783724 0.450010 0.000000
0.813137 0.451530 0.000000
0.842571 0.453085 0.000000
0.149716 0.440419 0.075979
0.155019 0.440592 0.076112
0.160812 0.440788 0.076260
0.168772 0.441069 0.076464
0.178902 0.441445 0.076725
0.191037 0.441923 0.077037
0.204965 0.442510 0.077386
0.220465 0.443211 0.077753
0.237329 0.444029 0.078110
0.255372 0.444970 0.078416
0.274442 0.446036 0.078623
0.294414 0.447230 0.078661
0.315194 0.448553 0.078445
0.336709 0.450007 0.077859
0.358894 0.451583 0.076726
0.381693 0.453262 0.074786
0.405087 0.455034 0.071732
0.429074 0.456882 0.067123
0.453665 0.458787 0.060283
0.478883 0.460723 0.050058
0.504761 0.462659 0.034218
0.531343 0.464555 0.012754
0.558674 0.466367 0.000000
0.586802 0.468041 0.000000
0.615454 0.469580 0.000000
0.643861 0.471148 0.000000
0.672577 0.472661 0.000000
0.701515 0.474134 0.000000
0.730565 0.475597 0.000000
0.759584 0.477107 0.000000
0.788587 0.478666 0.000000
0.817758 0.480202 0.000000
0.847084 0.481709 0.000000
0.155535 0.470434 0.088067
0.160797 0.470608 0.088125
0.166551 0.470804 0.088185
0.174469 0.471086 0.088263
0.184560 0.471463 0.088353
0.196666 0.471945 0.088441
0.210579 0.472535 0.088504
0.226075 0.473239 0.088507
0.242942 0.474058 0.088406
0.260994 0.474996 0.088142
0.280075 0.476053 0.087642
0.300056 0.477229 0.086806
0.320837 0.478523 0.085508
0.342343 0.479930 0.083583
0.364520 0.481445 0.080811
0.387334 0.483058 0.076888
0.410768 0.484758 0.071384
0.434818 0.486530 0.063633
0.459494 0.488352 0.052495
0.484817 0.490200 0.035658
0.510815 0.492042 0.013107
0.537520 0.493843 0.000000
0.564964 0.495562 0.000000
0.593170 0.497152 0.000000
0.621639 0.498637 0.000000
0.649919 0.500126 0.000000
0.678378 0.501603 0.000000
0.706906 0.503096 0.000000
0.735490 0.504616 0.000000
0.764250 0.506126 0.000000
0.793176 0.507620 0.000000
0.822256 0.509092 0.000000
0.851473 0.510534 0.000000
0.163055 0.500970 0.100508
0.168164 0.501140 0.100449
0.173761 0.501332 0.100377
0.181478 0.501606 0.100261
0.191338 0.501974 0.100084
0.203196 0.502442 0.099823
0.216862 0.503015 0.099443
0.232124 0.503697 0.098904
0.248781 0.504493 0.098147
0.266651 0.505403 0.097101
0.285579 0.506430 0.095672
0.305437 0.507572 0.093737
0.326125 0.508828 0.091140
0.347568 0.510193 0.087670
0.369711 0.511660 0.083042
0.392519 0.513222 0.076850
0.415973 0.514863 0.068478
0.440068 0.516570 0.056881
0.464810 0.518321 0.039912
0.490211 0.520092 0.016653
0.516290 0.521853 0.000000
0.543062 0.523572 0.000000
0.570536 0.525213 0.000000
0.598704 0.526742 0.000000
0.626890 0.528166 0.000000
0.654932 0.529593 0.000000
0.683127 0.531032 0.000000
0.711500 0.532476 0.000000
0.740043 0.533917 0.000000
0.768746 0.535349 0.000000
0.797597 0.536765 0.000000
0.826564 0.538150 0.000000
0.855629 0.539492 0.000000
0.170745 0.531703 0.112436
0.175672 0.531870 0.112245
0.181081 0.532059 0.112023
0.188558 0.532328 0.111690
0.198139 0.532690 0.111220
0.209701 0.533149 0.110578
0.223068 0.533712 0.109724
0.238046 0.534382 0.108604
0.254442 0.535162 0.107150
0.272081 0.536055 0.105275
0.290811 0.537061 0.102868
0.310506 0.538178 0.099786
0.331066 0.539405 0.095841
0.352416 0.540735 0.090782
0.374501 0.542163 0.084261
0.397282 0.543677 0.075763
0.420737 0.545264 0.064456
0.444857 0.546908 0.048766
0.469638 0.548588 0.026221
0.495082 0.550280 0.000000
0.521189 0.551959 0.000000
0.547951 0.553595 0.000000
0.575343 0.555161 0.000000
0.603350 0.556640 0.000000
0.631311 0.557984 0.000000
0.659336 0.559327 0.000000
0.687528 0.560679 0.000000
0.715881 0.562034 0.000000
0.744382 0.563386 0.000000
0.773004 0.564719 0.000000
0.801733 0.566026 0.000000
0.830559 0.567299 0.000000
0.859472 0.568531 0.000000
0.178599 0.562594 0.124029
0.183330 0.562759 0.123706
0.188536 0.562945 0.123334
0.195751 0.563212 0.122785
0.205025 0.563570 0.122024
0.216257 0.564024 0.121008
0.229289 0.564579 0.119691
0.243943 0.565240 0.118012
0.260040 0.566009 0.115895
0.277411 0.566887 0.113247
0.295911 0.567873 0.109948
0.315416 0.568967 0.105850
0.335828 0.570163 0.100756
0.357070 0.571456 0.094409
0.379084 0.572838 0.086452
0.401829 0.574296 0.076358
0.425277 0.575817 0.063264
0.449408 0.577383 0.045490
0.474206 0.578974 0.021508
0.499648 0.580572 0.000000
0.525705 0.582169 0.000000
0.552374 0.583742 0.000000
0.579655 0.585267 0.000000
0.607553 0.586718 0.000000
0.635448 0.587956 0.000000
0.663489 0.589204 0.000000
0.691667 0.590457 0.000000
0.719964 0.591704 0.000000
0.748372 0.592938 0.000000
0.776885 0.594153 0.000000
0.805494 0.595341 0.000000
0.834190 0.596496 0.000000
0.862962 0.597612 0.000000
0.186713 0.593590 0.135527
0.191247 0.593753 0.135092
0.196247 0.593937 0.134593
0.203195 0.594201 0.133865
0.212157 0.594553 0.132865
0.223048 0.595000 0.131549
0.235734 0.595546 0.129869
0.250055 0.596193 0.127767
0.265843 0.596945 0.125172
0.282943 0.597800 0.122003
0.301213 0.598758 0.118159
0.320534 0.599814 0.113521
0.340809 0.600964 0.107945
0.361959 0.602199 0.101256
0.383906 0.603514 0.093106
0.406591 0.604901 0.082954
0.429970 0.606350 0.069945
0.454014 0.607848 0.052391
0.478700 0.609381 0.027042
0.504013 0.610932 0.000000
0.529942 0.612483 0.000000
0.556485 0.614013 0.000000
0.583639 0.615500 0.000000
0.611368 0.616882 0.000000
0.639256 0.618008 0.000000
0.667261 0.619141 0.000000
0.695378 0.620272 0.000000
0.723602 0.621397 0.000000
0.751925 0.622508 0.000000
0.780342 0.623600 0.000000
0.808843 0.624665 0.000000
0.837421 0.625697 0.000000
0.866066 0.626691 0.000000
0.195260 0.624622 0.147228
0.199613 0.624780 0.146732
0.204426 0.624959 0.146167
0.211130 0.625214 0.145346
0.219803 0.625556 0.144225
0.230378 0.625988 0.142765
0.242740 0.626515 0.140920
0.256742 0.627139 0.138636
0.272228 0.627862 0.135849
0.289047 0.628685 0.132479
0.307059 0.629604 0.128425
0.326141 0.630619 0.123558
0.346189 0.631725 0.117708
0.367117 0.632917 0.110640
0.388854 0.634187 0.102020
0.411342 0.635528 0.091338
0.434540 0.636928 0.077736
0.458412 0.638377 0.059536
0.482934 0.639860 0.032680
0.508078 0.641358 0.000000
0.533830 0.642855 0.000000
0.560181 0.644329 0.000000
0.587129 0.645759 0.000000
0.614683 0.647035 0.000000
0.642550 0.648043 0.000000
0.670522 0.649053 0.000000
0.698594 0.650062 0.000000
0.726759 0.651062 0.000000
0.755012 0.652047 0.000000
0.783347 0.653012 0.000000
0.811756 0.653952 0.000000
0.840231 0.654860 0.000000
0.868765 0.655731 0.000000
0.204091 0.655641 0.158946
0.208271 0.655794 0.158408
0.212899 0.655967 0.157794
0.219360 0.656213 0.156903
0.227738 0.656542 0.155690
0.237984 0.656959 0.154110
0.249995 0.657467 0.152117
0.263640 0.658069 0.149655
0.278774 0.658766 0.146656
0.295253 0.659559 0.143039
0.312943 0.660446 0.138700
0.331723 0.661425 0.133506
0.351486 0.662491 0.127293
0.372141 0.663638 0.119839
0.393617 0.664860 0.110817
0.415853 0.666148 0.099734
0.438803 0.667492 0.085769
0.462431 0.668881 0.067358
0.486709 0.670300 0.040588
0.511617 0.671734 0.003981
0.537141 0.673167 0.000000
0.563270 0.674580 0.000000
0.590001 0.675952 0.000000
