RedKomodo_Tungsten_Dramatic.cube
TITLE "Red Komodo X - Tungsten Dramatic"
# Deep warm amber indoor look - strong 3200K push, warm shadows, orange highlights
# Apply AFTER CST (REDWideGamutRGB/Log3G10 > Rec.709) in DaVinci Resolve
LUT_3D_SIZE 9
0.146041 0.087202 0.000000
0.288584 0.096592 0.000000
0.333658 0.100661 0.000000
0.387730 0.106123 0.000000
0.312510 0.098693 0.000000
0.417384 0.109352 0.000000
0.529594 0.122191 0.000000
0.648947 0.132117 0.000000
0.778231 0.130348 0.000000
0.153988 0.188592 0.000000
0.218634 0.177867 0.000000
0.295729 0.164954 0.000000
0.369352 0.157926 0.000000
0.324829 0.124365 0.000000
0.426641 0.137487 0.000000
0.536615 0.150954 0.000000
0.655208 0.160740 0.000000
0.784247 0.160251 0.000000
0.159695 0.240788 0.000000
0.199878 0.238114 0.000000
0.202641 0.159513 0.000000
0.265171 0.170204 0.000000
0.348597 0.183228 0.000000
0.445540 0.196835 0.000000
0.552378 0.209954 0.000000
0.670269 0.218879 0.000000
0.798946 0.219896 0.000000
0.159887 0.242417 0.000000
0.180287 0.244621 0.000000
0.225613 0.249830 0.000000
0.292574 0.257980 0.000000
0.375353 0.268306 0.000000
0.470123 0.279889 0.000000
0.575752 0.291232 0.004170
0.694316 0.298603 0.000000
0.822997 0.300354 0.000000
0.173632 0.350393 0.000000
0.196791 0.351820 0.000000
0.246373 0.355329 0.000000
0.316661 0.361191 0.008912
0.401122 0.369181 0.018841
0.496858 0.378613 0.020878
0.604237 0.387797 0.000000
0.725001 0.393641 0.000000
0.854433 0.396596 0.000000
0.188544 0.465858 0.061634
0.212869 0.466974 0.062467
0.264625 0.469764 0.063944
0.337350 0.474552 0.064051
0.424128 0.481255 0.056394
0.522576 0.489303 0.016764
0.634536 0.497282 0.000000
0.757512 0.502197 0.000000
0.882740 0.504389 0.000000
0.209979 0.588032 0.128432
0.233524 0.589091 0.126312
0.284393 0.591735 0.119724
0.356942 0.596243 0.102678
0.444485 0.602419 0.053628
0.544421 0.609398 0.000000
0.656578 0.615188 0.000000
0.775333 0.617595 0.000000
0.892432 0.617975 0.000000
0.241716 0.710438 0.183491
0.261498 0.711329 0.179044
0.306079 0.713504 0.166740
0.372700 0.717039 0.140452
0.455727 0.721549 0.080990
0.551641 0.726206 0.000000
0.659254 0.730215 0.000000
0.776286 0.731594 0.000000
0.895347 0.732323 0.000000
0.269811 0.823820 0.253031
0.286441 0.824640 0.248493
0.325061 0.826678 0.236128
0.384982 0.830160 0.210281
0.462303 0.835024 0.156965
0.554381 0.840954 0.000000
0.660409 0.847318 0.000000
0.782277 0.850780 0.000000
0.907330 0.853857 0.000000
0.146041 0.087202 0.000000
0.274733 0.097094 0.154831
0.329096 0.100951 0.077092
0.385945 0.106375 0.043590
0.313467 0.098935 0.000000
0.418122 0.109606 0.000000
0.530131 0.122411 0.022347
0.649379 0.132272 0.049349
0.778684 0.130217 0.048005
0.154179 0.185693 0.086359
0.217045 0.176121 0.071105
0.294125 0.164309 0.050036
0.368350 0.157787 0.037939
0.325678 0.124708 0.000000
0.427279 0.137769 0.000000
0.537106 0.151178 0.029971
0.655613 0.160898 0.051757
0.784690 0.160150 0.044321
0.159848 0.240147 0.038423
0.199753 0.237585 0.037553
0.203081 0.160039 0.000000
0.265778 0.170688 0.000000
0.349160 0.183598 0.000000
0.446016 0.197120 0.018586
0.552781 0.210176 0.046584
0.670610 0.219042 0.053304
0.799364 0.219834 0.028906
0.160048 0.242916 0.000000
0.180501 0.245098 0.000000
0.225903 0.250261 0.000000
0.292912 0.258349 0.011322
0.375698 0.268613 0.030533
0.470449 0.280144 0.051516
0.576042 0.291442 0.062321
0.694685 0.298678 0.039306
0.823371 0.300325 0.000000
0.173788 0.350708 0.046887
0.196961 0.352129 0.049268
0.246567 0.355622 0.054833
0.316874 0.361461 0.063145
0.401340 0.369424 0.071941
0.497057 0.378828 0.075797
0.604386 0.387987 0.058645
0.725308 0.393710 0.000000
0.854732 0.396594 0.000000
0.188900 0.466059 0.100843
0.213195 0.467172 0.101595
0.264905 0.469955 0.103091
0.337582 0.474732 0.104097
0.424306 0.481421 0.100702
0.522694 0.489462 0.080554
0.634547 0.497433 0.000000
0.757709 0.502249 0.000000
0.882884 0.504395 0.000000
0.211337 0.588082 0.156289
0.234718 0.589139 0.154725
0.285314 0.591779 0.149857
0.357588 0.596281 0.137487
0.444885 0.602449 0.106177
0.544588 0.609422 0.000000
0.656502 0.615212 0.000000
0.775363 0.617612 0.000000
0.892447 0.617971 0.000000
0.244405 0.710269 0.207102
0.263905 0.711161 0.203356
0.307968 0.713338 0.193105
0.374020 0.716879 0.171869
0.456547 0.721398 0.129022
0.552050 0.726074 0.000000
0.659337 0.730118 0.000000
0.776284 0.731601 0.000000
0.895372 0.732335 0.000000
0.273265 0.823558 0.271483
0.289610 0.824380 0.267401
0.327674 0.826427 0.256331
0.386941 0.829923 0.233526
0.463657 0.834810 0.188555
0.555228 0.840769 0.072220
0.660846 0.847170 0.000000
0.782330 0.850816 0.000000
0.907395 0.853897 0.000000
0.151440 0.095874 0.384856
0.251930 0.098136 0.286583
0.319287 0.101674 0.206804
0.381771 0.107010 0.166611
0.315892 0.099558 0.045815
0.419961 0.110248 0.084122
0.531481 0.122971 0.111690
0.650466 0.132671 0.130717
0.779833 0.129868 0.137055
0.154652 0.179701 0.217026
0.213645 0.172382 0.200100
0.290451 0.162874 0.175308
0.365961 0.157481 0.156296
0.327792 0.125576 0.061044
0.428876 0.138480 0.092324
0.538342 0.151748 0.116724
0.656631 0.161303 0.133069
0.785813 0.159883 0.136660
0.160235 0.238636 0.157566
0.199470 0.236336 0.155055
0.204231 0.161408 0.041182
0.267291 0.171901 0.064405
0.350567 0.184528 0.087619
0.447212 0.197839 0.109037
0.553795 0.210740 0.127422
0.671465 0.219463 0.136928
0.800422 0.219668 0.133678
0.160458 0.244164 0.083716
0.181042 0.246294 0.086622
0.226631 0.251341 0.093417
0.293759 0.259277 0.103871
0.376566 0.269389 0.116745
0.471270 0.280789 0.130178
0.576770 0.291978 0.140245
0.695618 0.298864 0.135837
0.824319 0.300248 0.121243
0.174189 0.351502 0.126291
0.197397 0.352907 0.127798
0.247061 0.356361 0.131451
0.317415 0.362143 0.137303
0.401889 0.370038 0.144366
0.497557 0.379374 0.149829
0.604756 0.388476 0.146391
0.726086 0.393884 0.117840
0.855486 0.396584 0.061656
0.189836 0.466567 0.164620
0.214052 0.467673 0.165390
0.265638 0.470438 0.167105
0.338186 0.475188 0.169185
0.424764 0.481844 0.169494
0.522999 0.489871 0.161891
0.634567 0.497823 0.124386
0.758205 0.502377 0.000000
0.883244 0.504408 0.000000
0.214825 0.588209 0.210506
0.237791 0.589262 0.209682
0.287693 0.591892 0.207016
0.359259 0.596378 0.200037
0.445922 0.602530 0.183116
0.545022 0.609489 0.142036
0.656312 0.615280 0.000000
0.775436 0.617655 0.000000
0.892486 0.617959 0.000000
0.250271 0.709941 0.255501
0.269963 0.710739 0.253697
0.312750 0.712922 0.246504
0.377380 0.716478 0.232066
0.458644 0.721022 0.205508
0.553106 0.725745 0.154419
0.659560 0.729878 0.000000
0.776279 0.731619 0.000000
0.895437 0.732366 0.000000
0.273916 0.823705 0.305768
0.294697 0.824039 0.306619
0.334247 0.825795 0.300532
0.391900 0.829330 0.282873
0.467103 0.834273 0.249986
0.557394 0.840307 0.184413
0.661970 0.846803 0.000000
0.782467 0.850907 0.000000
0.907560 0.853998 0.000000
0.152876 0.098153 0.435921
0.230973 0.099654 0.375633
0.306330 0.102920 0.308288
0.375425 0.108127 0.265577
0.320114 0.100689 0.136331
0.423116 0.111387 0.166939
0.533827 0.123967 0.191140
0.652359 0.133402 0.210150
0.781871 0.129193 0.221456
0.155460 0.172323 0.318073
0.209229 0.167528 0.301662
0.285079 0.160899 0.275528
0.362208 0.157087 0.252864
0.331395 0.127096 0.147966
0.431627 0.139730 0.173969
0.540492 0.152758 0.195757
0.658402 0.162046 0.212932
0.787804 0.159365 0.222402
0.160917 0.236315 0.254508
0.167620 0.157898 0.121702
0.206302 0.163869 0.132935
0.269880 0.173991 0.150638
0.352987 0.186144 0.169921
0.449287 0.199103 0.188670
0.555560 0.211744 0.205933
0.672944 0.220236 0.218651
0.802298 0.219341 0.223645
0.161186 0.246314 0.166596
0.181991 0.248357 0.169068
0.227899 0.253213 0.174907
0.295234 0.260893 0.184029
0.378078 0.270750 0.195522
0.472700 0.281930 0.208149
0.578032 0.292938 0.219649
0.696585 0.299683 0.224099
0.826005 0.300098 0.221993
0.174872 0.352903 0.203822
0.198175 0.354273 0.205218
0.247945 0.357660 0.208586
0.318374 0.363344 0.214115
0.402855 0.371125 0.221291
0.498426 0.380351 0.228525
0.605380 0.389363 0.231820
0.727470 0.394186 0.220984
0.856814 0.396554 0.203971
0.190737 0.467578 0.237793
0.215266 0.468617 0.238914
0.267012 0.471291 0.241301
0.339305 0.475995 0.244374
0.425603 0.482598 0.247315
0.523557 0.490615 0.246486
0.634582 0.498540 0.231512
0.759074 0.502594 0.190143
0.883863 0.504426 0.162394
0.216054 0.589025 0.276630
0.240492 0.589859 0.277551
0.292053 0.592092 0.278910
0.362336 0.596555 0.275922
0.447837 0.602682 0.267724
0.545831 0.609624 0.248180
0.655989 0.615430 0.206785
0.775561 0.617726 0.150694
0.892553 0.617938 0.148862
0.250834 0.710436 0.314671
0.273026 0.710917 0.315498
0.321181 0.712203 0.316930
0.383370 0.715787 0.308019
0.462419 0.720375 0.292171
0.555033 0.725190 0.264707
0.659996 0.729483 0.215103
0.776271 0.731651 0.147478
0.895555 0.732423 0.140190
0.274329 0.824042 0.357081
0.295099 0.824377 0.357804
0.341567 0.825237 0.359583
0.400651 0.828298 0.350859
0.473244 0.833342 0.328371
0.561287 0.839511 0.288006
0.664013 0.846175 0.206991
0.782713 0.851070 0.057332
0.907855 0.854179 0.000000
0.154272 0.100362 0.480452
0.216322 0.101654 0.445032
0.293372 0.104723 0.394759
0.367871 0.109770 0.355452
0.326091 0.102418 0.214228
0.427587 0.113088 0.244550
0.537215 0.125463 0.269103
0.655097 0.134561 0.289805
0.784907 0.128047 0.305480
0.156623 0.165664 0.402873
0.204994 0.162909 0.389091
0.279023 0.158923 0.365243
0.252277 0.118829 0.196349
0.336437 0.129320 0.225687
0.435552 0.141573 0.251614
0.543605 0.154273 0.273880
0.660957 0.163221 0.293094
0.790770 0.158479 0.307356
0.152547 0.158992 0.194067
0.169261 0.161370 0.198883
0.209334 0.167464 0.210868
0.273527 0.176974 0.228326
0.356435 0.188484 0.247539
0.452282 0.200963 0.266509
0.558116 0.213255 0.284608
0.675057 0.221462 0.300458
0.805091 0.218774 0.311295
0.162276 0.249387 0.244205
0.183384 0.251311 0.246681
0.229739 0.255909 0.252544
0.297370 0.263242 0.261743
0.380274 0.272748 0.273433
0.474775 0.283629 0.286633
0.579839 0.294403 0.300003
0.697916 0.300995 0.310311
0.828526 0.299844 0.315437
0.175807 0.354975 0.281627
0.199214 0.356306 0.283025
0.249216 0.359588 0.286480
0.319809 0.365119 0.292271
0.404280 0.372746 0.300068
0.499680 0.381828 0.309011
0.606232 0.390740 0.316856
0.727729 0.395622 0.317705
0.858771 0.396476 0.311188
0.191550 0.469153 0.315047
0.216116 0.470176 0.316120
0.268313 0.472733 0.318837
0.341102 0.477202 0.323360
0.426923 0.483741 0.328298
0.524432 0.491776 0.331830
0.634558 0.499676 0.328160
0.759531 0.503201 0.308086
0.884743 0.504443 0.296465
0.217440 0.590289 0.350823
0.241799 0.591110 0.351661
0.294122 0.593163 0.353765
0.367195 0.596833 0.356712
0.450880 0.602939 0.354100
0.547137 0.609873 0.345671
0.655547 0.615722 0.327021
0.775730 0.617819 0.294047
0.892652 0.617905 0.294513
0.251665 0.711164 0.384655
0.273800 0.711634 0.385365
0.322511 0.712794 0.387163
0.392375 0.714804 0.389996
0.468182 0.719461 0.381133
0.558040 0.724429 0.365853
0.660747 0.728965 0.340038
0.776258 0.731699 0.295481
0.895742 0.732513 0.292734
0.274976 0.824552 0.420738
0.295734 0.824889 0.421347
0.342186 0.825755 0.422847
0.410460 0.827323 0.425352
0.482480 0.832007 0.413520
0.567223 0.838380 0.387947
0.667181 0.845301 0.342465
0.783086 0.851317 0.265968
0.908301 0.854452 0.244188
0.155939 0.102992 0.529013
0.207240 0.104184 0.507628
0.282372 0.107094 0.472047
0.249673 0.097216 0.257630
0.333498 0.104810 0.291721
0.433242 0.115395 0.322148
0.541604 0.127532 0.347627
0.658635 0.136304 0.370340
0.789014 0.126213 0.390269
0.158149 0.160801 0.478253
0.201706 0.159421 0.467597
0.273260 0.157445 0.447753
0.258789 0.122127 0.273624
0.342693 0.132252 0.303105
0.440560 0.144036 0.329388
0.547642 0.156360 0.352677
0.664244 0.164978 0.374112
0.794783 0.157054 0.392914
0.153967 0.164013 0.271056
0.171676 0.166395 0.276319
0.213217 0.172060 0.288391
0.278103 0.180783 0.305744
0.360826 0.191536 0.325197
0.456157 0.203449 0.344831
0.561428 0.215348 0.364176
0.677730 0.223295 0.382900
0.808867 0.217849 0.398976
0.163754 0.253321 0.321788
0.185233 0.255107 0.324317
0.232141 0.259399 0.330327
0.300157 0.266317 0.339818
0.383139 0.275407 0.351998
0.477472 0.285939 0.366074
0.582139 0.296470 0.381286
0.699497 0.302972 0.396091
0.831954 0.299447 0.407230
0.177072 0.357723 0.360473
0.200612 0.359005 0.361927
0.250847 0.362173 0.365518
0.321698 0.367520 0.371585
0.406188 0.374951 0.380065
0.501302 0.383883 0.390529
0.607236 0.392731 0.401831
0.727823 0.397845 0.410352
0.861370 0.396310 0.411276
0.192663 0.471274 0.394876
0.217276 0.472275 0.395957
0.269575 0.474779 0.398687
0.342735 0.479096 0.403492
0.428865 0.485334 0.410401
0.525674 0.493446 0.417039
0.634442 0.501357 0.420660
0.757616 0.505067 0.415882
0.885850 0.504447 0.408872
0.219327 0.591992 0.429629
0.243578 0.592796 0.430427
0.295742 0.594803 0.432430
0.369337 0.598253 0.435895
0.455369 0.603355 0.439968
0.549107 0.610310 0.438666
0.655034 0.616262 0.432178
0.772963 0.618613 0.417929
0.892784 0.617857 0.411326
0.252775 0.712135 0.461000
0.274835 0.712588 0.461629
0.323417 0.713708 0.463216
0.393476 0.715587 0.465991
0.476237 0.718329 0.469194
0.562371 0.723531 0.461752
0.661965 0.728405 0.448547
0.774959 0.731583 0.425394
0.896014 0.732642 0.412082
0.275924 0.825257 0.492439
0.296659 0.825597 0.492958
0.343082 0.826471 0.494241
0.411347 0.828054 0.496391
0.494197 0.830500 0.499308
0.575505 0.836963 0.484482
0.671706 0.844236 0.456994
0.784144 0.851056 0.408069
0.908917 0.854831 0.384141
0.157942 0.106143 0.582601
0.202047 0.107264 0.569223
0.273930 0.110030 0.544445
0.257902 0.100095 0.337374
0.341867 0.107905 0.371353
0.439865 0.118353 0.401302
0.546865 0.130282 0.427502
0.662834 0.138907 0.452052
0.793251 0.126005 0.476289
0.160037 0.157915 0.549012
0.199609 0.157376 0.541101
0.203638 0.119207 0.327725
0.266522 0.126305 0.354023
0.349849 0.135862 0.382393
0.446480 0.147144 0.408632
0.552487 0.159125 0.432793
0.668115 0.167582 0.456226
0.798970 0.156811 0.479643
0.155907 0.170241 0.351543
0.174700 0.172381 0.356610
0.217760 0.177435 0.368155
0.283412 0.185307 0.384979
0.366021 0.195255 0.404373
0.460802 0.206593 0.424487
0.565384 0.218139 0.444962
0.680790 0.225994 0.466148
0.813007 0.217395 0.487609
0.165637 0.258008 0.400935
0.187530 0.259646 0.403486
0.235067 0.263611 0.409585
0.303551 0.270072 0.419310
0.386678 0.278698 0.431905
0.480715 0.288927 0.446668
0.584805 0.299284 0.463452
0.701114 0.305891 0.481806
0.836322 0.298828 0.499176
0.178681 0.361133 0.440764
0.202376 0.362358 0.442284
0.252891 0.365394 0.446041
0.324026 0.370538 0.452390
0.408676 0.377738 0.461259
0.503246 0.386625 0.472653
0.608261 0.395519 0.486606
0.727532 0.401099 0.500636
0.864585 0.396001 0.509187
0.194105 0.473952 0.476634
0.218772 0.474927 0.477748
0.271191 0.477366 0.480553
0.344508 0.481579 0.485464
0.431024 0.487655 0.492615
0.527331 0.495745 0.501342
0.634176 0.503774 0.510123
0.754900 0.507845 0.515275
0.887109 0.504429 0.514372
0.221748 0.594141 0.511317
0.245859 0.594922 0.512101
0.297814 0.596874 0.514061
0.371231 0.600225 0.517437
0.457882 0.604966 0.522238
0.551978 0.611066 0.527562
0.654556 0.617214 0.529122
0.769389 0.619949 0.526197
0.892949 0.617790 0.519253
0.254161 0.713341 0.541235
0.276128 0.713774 0.541806
0.324548 0.714843 0.543240
0.394438 0.716634 0.545727
0.477839 0.719074 0.549306
0.568322 0.722625 0.552764
0.663863 0.727946 0.548098
0.773496 0.731702 0.537802
0.896394 0.732820 0.521612
0.277254 0.826179 0.569339
0.297952 0.826524 0.569792
0.344322 0.827408 0.570912
0.412559 0.829011 0.572799
0.495424 0.831487 0.575378
0.586452 0.835361 0.576979
0.677861 0.843095 0.561234
0.786150 0.850436 0.533063
0.909719 0.855328 0.503565
0.160288 0.109826 0.640688
0.199436 0.110884 0.632015
0.204388 0.098786 0.393468
0.267493 0.103915 0.422569
0.350753 0.111714 0.453772
0.447220 0.121982 0.482634
0.552792 0.133933 0.509048
0.667435 0.142885 0.534975
0.796141 0.131652 0.562719
0.152897 0.118910 0.389532
0.169879 0.120485 0.396586
0.210361 0.124497 0.413466
0.274744 0.131172 0.437752
0.357589 0.140105 0.464229
0.453138 0.150885 0.489926
0.557938 0.162776 0.514469
0.672303 0.171508 0.539416
0.801379 0.162218 0.566609
0.158356 0.177073 0.435489
0.178214 0.178935 0.440117
0.222767 0.183371 0.450782
0.289249 0.190420 0.466710
0.371866 0.199571 0.485694
0.466172 0.210332 0.505950
0.569785 0.221842 0.527015
0.683944 0.230008 0.550071
0.814157 0.222817 0.576045
0.167927 0.263322 0.482283
0.190252 0.264815 0.484812
0.238462 0.268451 0.490903
0.307480 0.274448 0.500728
0.390844 0.282568 0.513627
0.484690 0.292459 0.528775
0.587633 0.303100 0.546245
0.702438 0.310204 0.567235
0.835578 0.304680 0.590335
0.180637 0.365170 0.522789
0.204507 0.366334 0.524366
0.255339 0.369226 0.528271
0.326806 0.374147 0.534882
0.411699 0.381074 0.544131
0.506063 0.389838 0.555776
0.609125 0.399403 0.570620
0.726533 0.405813 0.588595
0.862217 0.400601 0.605559
0.195907 0.477185 0.560123
0.220629 0.478130 0.561276
0.273180 0.480496 0.564175
0.346675 0.484589 0.569232
0.433662 0.490605 0.576364
0.529901 0.498589 0.585110
0.633716 0.507218 0.596163
0.751184 0.511894 0.608388
0.883121 0.507619 0.616973
0.224723 0.596729 0.595064
0.248659 0.597483 0.595842
0.300351 0.599366 0.597784
0.373539 0.602598 0.601114
0.459962 0.607154 0.605844
0.554329 0.612765 0.611967
0.654296 0.618815 0.619082
0.765187 0.622060 0.624252
0.888972 0.619524 0.624840
0.255813 0.714764 0.624000
0.277668 0.715173 0.624525
0.325895 0.716180 0.625837
0.395581 0.717866 0.628094
0.478830 0.720223 0.631362
0.570446 0.723395 0.635838
0.666729 0.727794 0.640201
0.772126 0.732298 0.639114
0.894198 0.733812 0.630308
0.279068 0.827341 0.649695
0.299707 0.827691 0.650099
0.345988 0.828589 0.651101
0.414167 0.830217 0.652796
0.497031 0.832732 0.655133
0.589472 0.836317 0.657933
0.685965 0.842054 0.657493
0.789043 0.850038 0.643178
0.910345 0.855940 0.617096
0.153624 0.099338 0.460305
0.171112 0.100453 0.467991
0.212338 0.103353 0.485727
0.277071 0.108559 0.511074
0.359823 0.116224 0.538995
0.455119 0.126233 0.566418
0.559364 0.138350 0.592524
0.672042 0.149137 0.618791
0.798345 0.141660 0.648939
0.155762 0.125271 0.482075
0.174482 0.126784 0.488523
0.217441 0.130483 0.503189
0.283040 0.136604 0.524452
0.365652 0.144932 0.548751
0.460392 0.155177 0.573581
0.564047 0.167125 0.597978
0.676398 0.177589 0.623295
0.802976 0.171566 0.653085
0.161292 0.184203 0.522435
0.182127 0.185815 0.526570
0.228081 0.189703 0.536244
0.295439 0.196014 0.551096
0.378198 0.204423 0.569413
0.472218 0.214549 0.589596
0.574894 0.226145 0.610672
0.686757 0.236092 0.634113
0.814247 0.231791 0.663150
0.170614 0.269146 0.566075
0.193367 0.270501 0.568549
0.242266 0.273827 0.574546
0.311867 0.279373 0.584339
0.395533 0.286991 0.597382
0.489425 0.296405 0.612904
0.591356 0.307376 0.630230
0.703017 0.316624 0.651575
0.833145 0.313834 0.678611
0.182943 0.369786 0.606749
0.206997 0.370888 0.608369
0.258174 0.373629 0.612384
0.330012 0.378315 0.619203
0.415190 0.384954 0.628767
0.509700 0.393414 0.640814
0.611508 0.403605 0.654972
0.724433 0.412615 0.673285
0.855971 0.409485 0.696474
0.198104 0.480958 0.645303
0.222879 0.481869 0.646493
0.275564 0.484154 0.649480
0.349426 0.488159 0.654605
0.436991 0.494136 0.661682
0.533127 0.501835 0.670499
0.635150 0.510855 0.680597
0.746315 0.517705 0.694952
0.873550 0.514992 0.711727
0.228262 0.599732 0.680449
0.251988 0.600454 0.681221
0.303356 0.602257 0.683146
0.376252 0.605346 0.686437
0.462321 0.609668 0.691136
0.556344 0.614971 0.697128
0.655299 0.620849 0.704097
0.760504 0.625277 0.713326
0.880403 0.623982 0.722857
0.257712 0.716374 0.708510
0.279439 0.716754 0.708993
0.327441 0.717691 0.710195
0.396896 0.719270 0.712263
0.480008 0.721599 0.715354
0.571560 0.724753 0.719585
0.668682 0.728803 0.725016
0.771140 0.733683 0.731007
0.888952 0.736370 0.732794
0.281488 0.828768 0.732452
0.302040 0.829125 0.732821
0.348181 0.830040 0.733738
0.416254 0.831698 0.735297
0.499090 0.834262 0.737465
0.591575 0.837916 0.740103
0.690782 0.842887 0.743000
0.793118 0.850111 0.742283
0.908932 0.856939 0.731821
