SonyA1_SLog3_CinematicTeal_v1.cube
TITLE "Sony Alpha 1 S-Log3 - Cinematic Teal v1"
# INPUT:  S-Gamut3.Cine / S-Log3  (Sony Alpha 1 RAW/internal)
# OUTPUT: Rec.709 Gamma 2.4 with cinematic teal-shadow grade
# Bakes in: S-Log3 decode + S-Gamut3.Cine>Rec.709 + v1 creative grade
# In DaVinci: apply directly on clip, NO CST node needed
LUT_3D_SIZE 33
LUT_3D_INPUT_RANGE 0.0 1.0
0.000000 0.036577 0.093140
0.000000 0.036577 0.093140
0.000000 0.036577 0.093140
0.000000 0.036577 0.093140
0.000000 0.036577 0.093140
0.000000 0.036577 0.093140
0.016107 0.038872 0.094347
0.059281 0.040157 0.095012
0.099379 0.041937 0.095943
0.138936 0.044356 0.097224
0.180622 0.047598 0.098964
0.226055 0.051867 0.101291
0.276599 0.057388 0.104344
0.333643 0.064394 0.108270
0.398751 0.073132 0.113209
0.473778 0.083908 0.119340
0.560930 0.097259 0.127136
0.662715 0.114528 0.138355
0.781601 0.138929 0.158278
0.919916 0.169272 0.185360
1.000000 0.204177 0.217499
1.000000 0.242065 0.249915
1.000000 0.282081 0.273420
1.000000 0.327292 0.310773
1.000000 0.379950 0.366276
1.000000 0.384144 0.370660
1.000000 0.384178 0.370695
1.000000 0.384203 0.370722
1.000000 0.384223 0.370742
1.000000 0.384237 0.370757
1.000000 0.384248 0.370768
1.000000 0.384256 0.370777
1.000000 0.384263 0.370784
0.000000 0.036577 0.093140
0.000000 0.036577 0.093140
0.000000 0.036577 0.093140
0.000000 0.036577 0.093140
0.000000 0.036577 0.093140
0.000000 0.036577 0.093140
0.000000 0.036577 0.093140
0.051665 0.039893 0.094877
0.094129 0.041665 0.095800
0.134896 0.044079 0.097077
0.177359 0.047319 0.098814
0.223346 0.051593 0.101140
0.274310 0.057122 0.104197
0.331684 0.064142 0.108128
0.397057 0.072897 0.113075
0.472299 0.083689 0.119215
0.559630 0.097053 0.127012
0.661568 0.114318 0.138206
0.780591 0.138709 0.158085
0.919035 0.169078 0.185184
1.000000 0.204012 0.217345
1.000000 0.241933 0.249824
1.000000 0.281973 0.273356
1.000000 0.327202 0.310677
1.000000 0.379856 0.366178
1.000000 0.384144 0.370660
1.000000 0.384178 0.370695
1.000000 0.384203 0.370722
1.000000 0.384223 0.370742
1.000000 0.384237 0.370757
1.000000 0.384248 0.370768
1.000000 0.384256 0.370777
1.000000 0.384263 0.370784
0.000000 0.036577 0.093140
0.000000 0.036577 0.093140
0.000000 0.036577 0.093140
0.000000 0.036577 0.093140
0.000000 0.036577 0.093140
0.000000 0.036577 0.093140
0.000000 0.036577 0.093140
0.043324 0.039633 0.094742
0.088659 0.041395 0.095658
0.130759 0.043802 0.096929
0.174045 0.047041 0.098664
0.220609 0.051318 0.100990
0.272005 0.056856 0.104049
0.329716 0.063889 0.107986
0.395357 0.072661 0.112941
0.470817 0.083470 0.119090
0.558327 0.096846 0.126887
0.660419 0.114108 0.138057
0.779581 0.138489 0.157892
0.918153 0.168884 0.185007
1.000000 0.203846 0.217190
1.000000 0.241801 0.249733
1.000000 0.281865 0.273292
1.000000 0.327111 0.310581
1.000000 0.379763 0.366081
1.000000 0.384144 0.370660
1.000000 0.384178 0.370695
1.000000 0.384203 0.370722
1.000000 0.384223 0.370742
1.000000 0.384237 0.370757
1.000000 0.384248 0.370768
1.000000 0.384256 0.370777
1.000000 0.384263 0.370784
0.000000 0.036577 0.093140
0.000000 0.036577 0.093140
0.000000 0.036577 0.093140
0.000000 0.036577 0.093140
0.000000 0.036577 0.093140
0.000000 0.036577 0.093140
0.000000 0.036577 0.093140
0.034199 0.039376 0.094609
0.082938 0.041126 0.095517
0.126518 0.043526 0.096783
0.170680 0.046763 0.098514
0.217845 0.051043 0.100839
0.269685 0.056590 0.103901
0.327738 0.063637 0.107844
0.393651 0.072425 0.112808
0.469331 0.083251 0.118964
0.557022 0.096639 0.126763
0.659269 0.113899 0.137909
0.778569 0.138268 0.157700
0.917271 0.168689 0.184831
1.000000 0.203681 0.217036
1.000000 0.241669 0.249642
1.000000 0.281756 0.273228
1.000000 0.327021 0.310485
1.000000 0.379669 0.365983
1.000000 0.384144 0.370660
1.000000 0.384178 0.370695
1.000000 0.384203 0.370722
1.000000 0.384223 0.370742
1.000000 0.384237 0.370757
1.000000 0.384248 0.370768
1.000000 0.384256 0.370777
1.000000 0.384263 0.370784
0.000000 0.066615 0.094795
0.000000 0.062700 0.094547
0.000000 0.036577 0.093140
0.000000 0.036577 0.093140
0.000000 0.036577 0.093140
0.000000 0.036577 0.093140
0.000000 0.047664 0.094441
0.028882 0.042717 0.094690
0.076929 0.040859 0.095377
0.122165 0.043250 0.096636
0.167261 0.046484 0.098364
0.215050 0.050768 0.100689
0.267347 0.056323 0.103753
0.325750 0.063383 0.107701
0.391940 0.072188 0.112674
0.467841 0.083032 0.118839
0.555716 0.096432 0.126639
0.658118 0.113689 0.137761
0.777556 0.138047 0.157506
0.916387 0.168495 0.184654
1.000000 0.203515 0.216881
1.000000 0.241537 0.249550
1.000000 0.281648 0.273164
1.000000 0.326931 0.310389
1.000000 0.379576 0.365885
1.000000 0.384144 0.370660
1.000000 0.384178 0.370695
1.000000 0.384203 0.370722
1.000000 0.384222 0.370742
1.000000 0.384237 0.370757
1.000000 0.384248 0.370768
1.000000 0.384256 0.370777
1.000000 0.384263 0.370784
0.000000 0.083892 0.096009
0.000000 0.080312 0.095742
0.000000 0.076660 0.095478
0.000000 0.072935 0.095217
0.000000 0.070064 0.095173
0.000000 0.067923 0.095331
0.000000 0.065687 0.095486
0.035407 0.061454 0.095754
0.079135 0.055035 0.096114
0.118455 0.044851 0.096598
0.163784 0.046206 0.098214
0.212226 0.050492 0.100538
0.264992 0.056056 0.103604
0.323752 0.063129 0.107559
0.390222 0.071951 0.112539
0.466348 0.082812 0.118713
0.554406 0.096225 0.126515
0.656965 0.113480 0.137614
0.776542 0.137826 0.157313
0.915503 0.168300 0.184477
1.000000 0.203349 0.216727
1.000000 0.241405 0.249458
1.000000 0.281540 0.273100
1.000000 0.326841 0.310293
1.000000 0.379483 0.365788
1.000000 0.384144 0.370659
1.000000 0.384178 0.370695
1.000000 0.384203 0.370722
1.000000 0.384222 0.370742
1.000000 0.384237 0.370757
1.000000 0.384248 0.370768
1.000000 0.384256 0.370777
1.000000 0.384263 0.370784
0.000000 0.099172 0.097236
0.000000 0.095887 0.096961
0.000000 0.092542 0.096686
0.000000 0.089133 0.096414
0.000000 0.085961 0.096227
0.000000 0.083971 0.096393
0.000000 0.081936 0.096553
0.037226 0.078180 0.096831
0.081977 0.072672 0.097202
0.121767 0.064324 0.097696
0.161838 0.050929 0.098357
0.209465 0.050225 0.100392
0.262699 0.055797 0.103460
0.321810 0.062883 0.107420
0.388555 0.071721 0.112409
0.464900 0.082599 0.118592
0.553138 0.096024 0.126395
0.655848 0.113278 0.137472
0.775561 0.137612 0.157126
0.914647 0.168111 0.184306
1.000000 0.203188 0.216577
1.000000 0.241277 0.249369
1.000000 0.281436 0.273038
1.000000 0.326753 0.310200
1.000000 0.379393 0.365694
1.000000 0.384144 0.370659
1.000000 0.384178 0.370695
1.000000 0.384203 0.370722
1.000000 0.384222 0.370742
1.000000 0.384237 0.370757
1.000000 0.384248 0.370768
1.000000 0.384256 0.370777
1.000000 0.384263 0.370784
0.000000 0.122787 0.099400
0.000000 0.119895 0.099119
0.000000 0.116960 0.098838
0.000000 0.113979 0.098557
0.000000 0.110950 0.098277
0.000000 0.108710 0.098286
0.000000 0.106937 0.098451
0.035124 0.103738 0.098736
0.083137 0.099189 0.099115
0.124495 0.092575 0.099617
0.165502 0.082625 0.100283
0.208668 0.066745 0.101166
0.258716 0.055351 0.103213
0.318449 0.062459 0.107182
0.385675 0.071326 0.112185
0.462403 0.082233 0.118382
0.550952 0.095679 0.126190
0.653925 0.112931 0.137229
0.773871 0.137244 0.156805
0.913174 0.167786 0.184012
1.000000 0.202912 0.216319
1.000000 0.241057 0.249216
1.000000 0.281256 0.272931
1.000000 0.326603 0.310040
1.000000 0.379238 0.365532
1.000000 0.384144 0.370659
1.000000 0.384178 0.370695
1.000000 0.384203 0.370722
1.000000 0.384222 0.370742
1.000000 0.384237 0.370757
1.000000 0.384248 0.370768
1.000000 0.384256 0.370777
1.000000 0.384263 0.370784
0.000000 0.150288 0.102286
0.000000 0.147757 0.102005
0.000000 0.145197 0.101725
0.000000 0.142606 0.101444
0.000000 0.139983 0.101162
0.000000 0.137328 0.100881
0.000000 0.135693 0.101006
0.026800 0.132962 0.101292
0.080719 0.129159 0.101670
0.124916 0.123777 0.102171
0.167641 0.115990 0.102832
0.211968 0.104325 0.103704
0.259724 0.085774 0.104851
0.313950 0.061895 0.106865
0.381832 0.070799 0.111887
0.459077 0.081745 0.118104
0.548045 0.095222 0.125917
0.651370 0.112471 0.136909
0.771628 0.136755 0.156378
0.911218 0.167355 0.183622
1.000000 0.202545 0.215978
1.000000 0.240764 0.249011
1.000000 0.281017 0.272791
1.000000 0.326404 0.309828
1.000000 0.379034 0.365319
1.000000 0.384143 0.370659
1.000000 0.384177 0.370695
1.000000 0.384203 0.370722
1.000000 0.384222 0.370742
1.000000 0.384237 0.370757
1.000000 0.384248 0.370768
1.000000 0.384256 0.370777
1.000000 0.384263 0.370784
0.000000 0.182199 0.106039
0.000000 0.179987 0.105767
0.000000 0.177756 0.105494
0.000000 0.175505 0.105220
0.000000 0.173233 0.104946
0.000000 0.170940 0.104671
0.000000 0.168702 0.104405
0.010370 0.166280 0.104644
0.073252 0.163073 0.105014
0.122299 0.158618 0.105502
0.167760 0.152330 0.106145
0.213956 0.143252 0.106991
0.263078 0.129690 0.108100
0.316760 0.108168 0.109548
0.376691 0.070098 0.111490
0.454642 0.081098 0.117735
0.544176 0.094615 0.125557
0.647973 0.111864 0.136488
0.768647 0.136106 0.155812
0.908621 0.166783 0.183103
1.000000 0.202057 0.215524
1.000000 0.240376 0.248738
1.000000 0.280700 0.272605
1.000000 0.326140 0.309547
1.000000 0.378765 0.365037
1.000000 0.384143 0.370659
1.000000 0.384177 0.370695
1.000000 0.384203 0.370722
1.000000 0.384222 0.370742
1.000000 0.384237 0.370757
1.000000 0.384248 0.370768
1.000000 0.384256 0.370777
1.000000 0.384263 0.370784
0.000000 0.219229 0.110797
0.000000 0.217292 0.110540
0.000000 0.215343 0.110282
0.000000 0.213381 0.110023
0.000000 0.211406 0.109763
0.000000 0.209418 0.109503
0.000000 0.207483 0.109250
0.000000 0.204357 0.108934
0.057116 0.201638 0.109287
0.115249 0.197907 0.109753
0.165047 0.192730 0.110366
0.214070 0.185432 0.111171
0.265268 0.174910 0.112225
0.320549 0.159206 0.113601
0.381557 0.134306 0.115390
0.449943 0.088906 0.117707
0.539016 0.093808 0.125080
0.643451 0.111060 0.135936
0.764684 0.135243 0.155060
0.905169 0.166023 0.182415
1.000000 0.201410 0.214921
1.000000 0.239861 0.248374
1.000000 0.280281 0.272359
1.000000 0.325790 0.309174
1.000000 0.378409 0.364665
1.000000 0.384143 0.370659
1.000000 0.384177 0.370695
1.000000 0.384203 0.370721
1.000000 0.384222 0.370742
1.000000 0.384237 0.370757
1.000000 0.384248 0.370768
1.000000 0.384256 0.370777
1.000000 0.384263 0.370784
0.001096 0.262310 0.116706
0.000136 0.260608 0.116467
0.000000 0.258898 0.116226
0.000000 0.257179 0.115985
0.000000 0.255453 0.115744
0.000000 0.253718 0.115502
0.000000 0.252033 0.115267
0.000000 0.249115 0.114861
0.021859 0.245779 0.114632
0.100887 0.242632 0.115068
0.158079 0.238318 0.115643
0.211423 0.232333 0.116398
0.265674 0.223899 0.117390
0.323309 0.211742 0.118691
0.386200 0.193600 0.120393
0.456112 0.164831 0.122624
0.534917 0.112392 0.125569
0.637421 0.109997 0.135215
0.759408 0.134094 0.154061
0.900576 0.165011 0.181501
1.000000 0.200548 0.214120
1.000000 0.239175 0.247884
1.000000 0.279724 0.272035
1.000000 0.325325 0.308680
1.000000 0.377940 0.364174
1.000000 0.384143 0.370659
1.000000 0.384177 0.370694
1.000000 0.384203 0.370721
1.000000 0.384222 0.370742
1.000000 0.384237 0.370757
1.000000 0.384248 0.370768
1.000000 0.384256 0.370777
1.000000 0.384263 0.370784
0.033237 0.312670 0.124073
0.032172 0.311165 0.123843
0.031111 0.309655 0.123613
0.030052 0.308140 0.123383
0.028996 0.306620 0.123153
0.027943 0.305094 0.122923
0.026927 0.303614 0.122701
0.025188 0.301057 0.122318
0.022895 0.297646 0.121810
0.071598 0.294027 0.121676
0.144088 0.290406 0.122221
0.204473 0.285439 0.122942
0.263293 0.278549 0.123896
0.324328 0.268839 0.125162
0.389927 0.254840 0.126847
0.462057 0.233943 0.129110
0.542685 0.200811 0.132201
0.633956 0.140555 0.136563
0.752373 0.132564 0.152733
0.894458 0.163665 0.180284
1.000000 0.199401 0.213053
1.000000 0.238263 0.247224
1.000000 0.278985 0.271606
1.000000 0.324709 0.308024
1.000000 0.377322 0.363527
1.000000 0.384143 0.370658
1.000000 0.384177 0.370694
1.000000 0.384203 0.370721
1.000000 0.384222 0.370742
1.000000 0.384237 0.370757
1.000000 0.384248 0.370768
1.000000 0.384256 0.370777
1.000000 0.384263 0.370784
0.071670 0.371935 0.134063
0.070911 0.370594 0.133808
0.070146 0.369250 0.133555
0.069376 0.367902 0.133302
0.068599 0.366552 0.133051
0.067816 0.365198 0.132801
0.067052 0.363886 0.132560
0.065726 0.361622 0.132148
0.063940 0.358608 0.131606
0.061521 0.354590 0.130895
0.116389 0.350618 0.130868
0.190168 0.346475 0.131631
0.256268 0.340792 0.132656
0.322327 0.332908 0.134042
0.391785 0.321796 0.135938
0.467038 0.305781 0.138572
0.550231 0.281903 0.142323
0.643573 0.244172 0.147858
0.749507 0.176127 0.156021
0.886294 0.161868 0.178664
1.000000 0.197871 0.211631
1.000000 0.237048 0.246330
1.000000 0.278003 0.271041
1.000000 0.323890 0.307158
1.000000 0.376508 0.362676
1.000000 0.384142 0.370658
1.000000 0.384177 0.370694
1.000000 0.384203 0.370721
1.000000 0.384222 0.370742
1.000000 0.384237 0.370757
1.000000 0.384248 0.370768
1.000000 0.384256 0.370777
1.000000 0.384263 0.370784
0.106431 0.442313 0.151056
0.105912 0.441106 0.150688
0.105392 0.439896 0.150320
0.104868 0.438684 0.149954
0.104340 0.437470 0.149591
0.103809 0.436255 0.149231
0.103292 0.435077 0.148885
0.102395 0.433049 0.148297
0.101190 0.430352 0.147529
0.099565 0.426764 0.146532
0.097361 0.421982 0.145245
0.160994 0.417599 0.145413
0.240592 0.412911 0.146801
0.314635 0.406486 0.148710
0.389781 0.397577 0.151361
0.469473 0.385002 0.154895
0.556284 0.366826 0.159520
0.652602 0.339631 0.165552
0.760903 0.296490 0.173370
0.883856 0.218678 0.183426
1.000000 0.195825 0.209734
1.000000 0.235426 0.245110
1.000000 0.276698 0.270297
1.000000 0.322798 0.306021
1.000000 0.375438 0.361556
1.000000 0.384142 0.370657
1.000000 0.384177 0.370694
1.000000 0.384203 0.370721
1.000000 0.384222 0.370741
1.000000 0.384237 0.370757
1.000000 0.384248 0.370768
1.000000 0.384256 0.370777
1.000000 0.384263 0.370784
0.141005 0.525333 0.177071
0.140574 0.524274 0.176731
0.140143 0.523213 0.176392
0.139711 0.522151 0.176051
0.139278 0.521086 0.175711
0.138844 0.520020 0.175370
0.138423 0.518988 0.175040
0.137698 0.517208 0.174471
0.136732 0.514842 0.173716
0.135446 0.511694 0.172712
0.133728 0.507498 0.171378
0.131427 0.501895 0.169600
0.207371 0.497029 0.170064
0.296358 0.491644 0.171968
0.380751 0.484238 0.174473
0.467133 0.473931 0.177760
0.559130 0.459348 0.182060
0.659537 0.438243 0.187658
0.770942 0.406644 0.194901
0.895937 0.356575 0.204191
1.000000 0.266844 0.215959
1.000000 0.233256 0.243427
1.000000 0.274962 0.269316
1.000000 0.321339 0.304531
1.000000 0.374032 0.360083
1.000000 0.384141 0.370657
1.000000 0.384176 0.370693
1.000000 0.384202 0.370721
1.000000 0.384222 0.370741
1.000000 0.384237 0.370757
1.000000 0.384248 0.370768
1.000000 0.384256 0.370777
1.000000 0.384263 0.370784
0.179014 0.620730 0.208265
0.178659 0.619825 0.207964
0.178304 0.618919 0.207663
0.177948 0.618011 0.207361
0.177591 0.617101 0.207059
0.177233 0.616191 0.206757
0.176887 0.615308 0.206464
0.176289 0.613788 0.205959
0.175495 0.611768 0.205289
0.174438 0.609080 0.204398
0.173028 0.605498 0.203212
0.171144 0.600718 0.201631
0.168619 0.594323 0.199520
0.258862 0.588828 0.200277
0.359544 0.582463 0.202534
0.456125 0.573705 0.205492
0.555402 0.561508 0.209354
0.661231 0.544247 0.214373
0.776557 0.519277 0.220846
0.903983 0.481969 0.229030
1.000000 0.423106 0.238659
1.000000 0.318857 0.249121
1.000000 0.272649 0.268023
1.000000 0.319387 0.302587
1.000000 0.372184 0.358147
1.000000 0.384140 0.370656
1.000000 0.384176 0.370693
1.000000 0.384202 0.370720
1.000000 0.384222 0.370741
1.000000 0.384237 0.370757
1.000000 0.384248 0.370768
1.000000 0.384256 0.370777
1.000000 0.384262 0.370784
0.220912 0.726037 0.242362
0.220598 0.725306 0.242152
0.220285 0.724574 0.241940
0.219972 0.723841 0.241728
0.219660 0.723106 0.241514
0.219348 0.722370 0.241298
0.219047 0.721657 0.241089
0.218530 0.720429 0.240727
0.217847 0.718796 0.240241
0.216946 0.716623 0.239588
0.215750 0.713727 0.238713
0.214158 0.709860 0.237536
0.212038 0.704683 0.235945
0.209212 0.697730 0.233778
0.315322 0.691355 0.234719
0.429370 0.683544 0.237010
0.539421 0.672803 0.239934
0.652615 0.657873 0.243548
0.772984 0.636823 0.247846
0.903399 0.606549 0.252828
1.000000 0.561733 0.258486
1.000000 0.492129 0.264918
1.000000 0.372576 0.272976
1.000000 0.316766 0.300058
1.000000 0.369755 0.355600
1.000000 0.384139 0.370654
1.000000 0.384175 0.370692
1.000000 0.384202 0.370720
1.000000 0.384222 0.370741
1.000000 0.384237 0.370756
1.000000 0.384248 0.370768
1.000000 0.384256 0.370777
1.000000 0.384262 0.370784
0.274164 0.834379 0.267391
0.273877 0.833823 0.267276
0.273590 0.833267 0.267161
0.273302 0.832710 0.267046
0.273014 0.832153 0.266930
0.272726 0.831595 0.266815
0.272447 0.831055 0.266704
0.271967 0.830126 0.266512
0.271330 0.828894 0.266258
0.270484 0.827257 0.265920
0.269359 0.825083 0.265473
0.267863 0.822193 0.264878
0.265872 0.818345 0.264086
0.263204 0.813185 0.263022
0.259608 0.806217 0.261577
0.379335 0.798592 0.262284
0.505852 0.788675 0.263812
0.628681 0.775164 0.265785
0.755039 0.756740 0.268377
0.889123 0.731336 0.271842
1.000000 0.695691 0.276646
1.000000 0.644247 0.283736
1.000000 0.566063 0.294551
1.000000 0.432345 0.310326
1.000000 0.366559 0.352248
1.000000 0.384137 0.370653
1.000000 0.384174 0.370691
1.000000 0.384201 0.370719
1.000000 0.384221 0.370741
1.000000 0.384236 0.370756
1.000000 0.384248 0.370768
1.000000 0.384256 0.370777
1.000000 0.384262 0.370784
0.328310 0.951656 0.299063
0.328122 0.951172 0.298896
0.327933 0.950687 0.298729
0.327745 0.950203 0.298562
0.327556 0.949718 0.298396
0.327366 0.949233 0.298229
0.327182 0.948764 0.298068
0.326865 0.947957 0.297793
0.326443 0.946886 0.297428
0.325881 0.945465 0.296946
0.325130 0.943578 0.296311
0.324125 0.941072 0.295473
0.322776 0.937741 0.294371
0.320958 0.933308 0.292922
0.318498 0.927399 0.291023
0.315153 0.919507 0.288537
0.447625 0.910958 0.289843
0.586858 0.899865 0.292531
0.723565 0.884850 0.296165
0.865020 0.864357 0.301132
1.000000 0.836050 0.308045
1.000000 0.796274 0.317384
1.000000 0.738822 0.329467
1.000000 0.651478 0.345137
1.000000 0.502593 0.366117
1.000000 0.384135 0.370650
1.000000 0.384173 0.370690
1.000000 0.384200 0.370719
1.000000 0.384221 0.370740
1.000000 0.384236 0.370756
1.000000 0.384248 0.370768
1.000000 0.384256 0.370777
1.000000 0.384262 0.370783
0.376521 1.000000 0.351143
0.376365 1.000000 0.350973
0.376209 1.000000 0.350803
0.376053 1.000000 0.350633
0.375897 1.000000 0.350463
0.375741 1.000000 0.350294
0.375590 1.000000 0.350130
0.375331 1.000000 0.349847
0.374988 1.000000 0.349474
0.374533 1.000000 0.348978
0.373931 1.000000 0.348322
0.373134 1.000000 0.347453
0.372078 1.000000 0.346301
0.370680 1.000000 0.344775
0.368827 1.000000 0.342751
0.366372 1.000000 0.340066
0.363115 1.000000 0.336498
0.515926 1.000000 0.338493
0.673635 1.000000 0.342313
0.829076 1.000000 0.347364
0.990754 0.991065 0.354067
1.000000 0.961103 0.363105
1.000000 0.909476 0.370620
1.000000 0.818433 0.370632
1.000000 0.694361 0.370645
1.000000 0.509741 0.370660
1.000000 0.384171 0.370688
1.000000 0.384199 0.370718
1.000000 0.384220 0.370740
1.000000 0.384236 0.370756
1.000000 0.384247 0.370768
1.000000 0.384256 0.370777
1.000000 0.384262 0.370783
0.394519 1.000000 0.370650
0.394518 1.000000 0.370649
0.394518 1.000000 0.370649
0.394518 1.000000 0.370649
0.394518 1.000000 0.370649
0.394518 1.000000 0.370649
0.394518 1.000000 0.370649
0.394518 1.000000 0.370649
0.394518 1.000000 0.370649
0.394517 1.000000 0.370648
0.394517 1.000000 0.370648
0.394517 1.000000 0.370647
0.394516 1.000000 0.370647
0.394515 1.000000 0.370646
0.394514 1.000000 0.370645
0.394513 1.000000 0.370643
0.394510 1.000000 0.370641
0.394508 1.000000 0.370638
0.559377 1.000000 0.370640
0.722053 1.000000 0.370643
0.876767 1.000000 0.370647
1.000000 1.000000 0.370652
1.000000 0.978463 0.370658
1.000000 0.909791 0.370665
1.000000 0.818900 0.370674
1.000000 0.695061 0.370684
1.000000 0.510932 0.370695
1.000000 0.384198 0.370716
1.000000 0.384220 0.370739
1.000000 0.384235 0.370755
1.000000 0.384247 0.370768
1.000000 0.384256 0.370777
1.000000 0.384262 0.370783
0.394554 1.000000 0.370687
0.394554 1.000000 0.370687
0.394554 1.000000 0.370687
0.394553 1.000000 0.370687
0.394553 1.000000 0.370687
0.394553 1.000000 0.370687
0.394553 1.000000 0.370687
0.394553 1.000000 0.370687
0.394553 1.000000 0.370687
0.394553 1.000000 0.370687
0.394553 1.000000 0.370687
0.394553 1.000000 0.370686
0.394552 1.000000 0.370686
0.394552 1.000000 0.370685
0.394551 1.000000 0.370685
0.394550 1.000000 0.370684
0.394549 1.000000 0.370683
0.394548 1.000000 0.370681
0.394546 1.000000 0.370679
0.560498 1.000000 0.370680
0.722675 1.000000 0.370682
0.877074 1.000000 0.370685
1.000000 1.000000 0.370689
1.000000 0.978618 0.370694
1.000000 0.910029 0.370699
1.000000 0.819251 0.370706
1.000000 0.695588 0.370714
1.000000 0.511827 0.370722
1.000000 0.384219 0.370738
1.000000 0.384235 0.370755
1.000000 0.384247 0.370767
1.000000 0.384256 0.370776
1.000000 0.384262 0.370783
0.394580 1.000000 0.370716
0.394580 1.000000 0.370716
0.394580 1.000000 0.370716
0.394580 1.000000 0.370716
0.394580 1.000000 0.370716
0.394580 1.000000 0.370716
0.394580 1.000000 0.370716
0.394580 1.000000 0.370716
0.394580 1.000000 0.370716
0.394580 1.000000 0.370716
0.394580 1.000000 0.370716
0.394579 1.000000 0.370715
0.394579 1.000000 0.370715
0.394579 1.000000 0.370715
0.394579 1.000000 0.370714
0.394578 1.000000 0.370714
0.394578 1.000000 0.370713
0.394577 1.000000 0.370712
0.394576 1.000000 0.370711
0.394574 1.000000 0.370709
0.561340 1.000000 0.370710
0.723143 1.000000 0.370712
0.877306 1.000000 0.370715
1.000000 1.000000 0.370717
1.000000 0.978735 0.370721
1.000000 0.910207 0.370725
1.000000 0.819515 0.370730
1.000000 0.695984 0.370736
1.000000 0.512500 0.370742
1.000000 0.384234 0.370754
1.000000 0.384246 0.370767
1.000000 0.384255 0.370776
1.000000 0.384262 0.370783
0.394600 1.000000 0.370738
0.394600 1.000000 0.370738
0.394600 1.000000 0.370738
0.394600 1.000000 0.370738
0.394600 1.000000 0.370738
0.394600 1.000000 0.370737
0.394600 1.000000 0.370737
0.394600 1.000000 0.370737
0.394600 1.000000 0.370737
0.394600 1.000000 0.370737
0.394600 1.000000 0.370737
0.394600 1.000000 0.370737
0.394600 1.000000 0.370737
0.394599 1.000000 0.370737
0.394599 1.000000 0.370737
0.394599 1.000000 0.370736
0.394599 1.000000 0.370736
0.394598 1.000000 0.370736
0.394598 1.000000 0.370735
0.394597 1.000000 0.370734
0.394595 1.000000 0.370733
0.561974 1.000000 0.370733
0.723496 1.000000 0.370735
0.877481 1.000000 0.370736
1.000000 1.000000 0.370739
1.000000 0.978822 0.370741
1.000000 0.910342 0.370744
1.000000 0.819714 0.370748
1.000000 0.696282 0.370752
1.000000 0.513006 0.370757
1.000000 0.384246 0.370766
1.000000 0.384255 0.370776
1.000000 0.384262 0.370783
0.394615 1.000000 0.370754
0.394615 1.000000 0.370754
0.394615 1.000000 0.370754
0.394615 1.000000 0.370754
0.394615 1.000000 0.370754
0.394615 1.000000 0.370754
0.394615 1.000000 0.370754
0.394615 1.000000 0.370754
0.394615 1.000000 0.370754
0.394615 1.000000 0.370754
0.394615 1.000000 0.370754
0.394615 1.000000 0.370754
0.394615 1.000000 0.370754
0.394615 1.000000 0.370753
0.394615 1.000000 0.370753
0.394615 1.000000 0.370753
0.394614 1.000000 0.370753
0.394614 1.000000 0.370753
0.394614 1.000000 0.370752
0.394613 1.000000 0.370752
0.394613 1.000000 0.370751
0.394612 1.000000 0.370750
0.562451 1.000000 0.370751
0.723761 1.000000 0.370752
0.877612 1.000000 0.370753
1.000000 1.000000 0.370755
1.000000 0.978889 0.370757
1.000000 0.910443 0.370759
1.000000 0.819864 0.370762
1.000000 0.696507 0.370765
1.000000 0.513388 0.370769
1.000000 0.384255 0.370775
1.000000 0.384262 0.370783
0.394626 1.000000 0.370766
0.394626 1.000000 0.370766
0.394626 1.000000 0.370766
0.394626 1.000000 0.370766
0.394626 1.000000 0.370766
0.394626 1.000000 0.370766
0.394626 1.000000 0.370766
0.394626 1.000000 0.370766
0.394626 1.000000 0.370766
0.394626 1.000000 0.370766
0.394626 1.000000 0.370766
0.394626 1.000000 0.370766
0.394626 1.000000 0.370766
0.394626 1.000000 0.370766
0.394626 1.000000 0.370766
0.394626 1.000000 0.370766
0.394626 1.000000 0.370766
0.394626 1.000000 0.370765
