SonyA1_SLog3_CinematicTeal_v1.cube
TITLE "Sony Alpha 1 S-Log3 - Cinematic Teal v1"
# INPUT:  S-Gamut3.Cine / S-Log3  (Sony Alpha 1 RAW/internal)
# OUTPUT: Rec.709 Gamma 2.4 with cinematic teal-shadow grade
# Bakes in: S-Log3 decode + S-Gamut3.Cine>Rec.709 + v1 creative grade
# In DaVinci: apply directly on clip, NO CST node needed
LUT_3D_SIZE 9
LUT_3D_INPUT_RANGE 0.0 1.0
0.000000 0.036577 0.093140
0.000000 0.036577 0.093140
0.099379 0.041937 0.095943
0.276599 0.057388 0.104344
0.560930 0.097259 0.127136
1.000000 0.204177 0.217499
1.000000 0.379950 0.366276
1.000000 0.384223 0.370742
1.000000 0.384263 0.370784
0.000000 0.066615 0.094795
0.000000 0.036577 0.093140
0.076929 0.040859 0.095377
0.267347 0.056323 0.103753
0.555716 0.096432 0.126639
1.000000 0.203515 0.216881
1.000000 0.379576 0.365885
1.000000 0.384222 0.370742
1.000000 0.384263 0.370784
0.000000 0.150288 0.102286
0.000000 0.139983 0.101162
0.080719 0.129159 0.101670
0.259724 0.085774 0.104851
0.548045 0.095222 0.125917
1.000000 0.202545 0.215978
1.000000 0.379034 0.365319
1.000000 0.384222 0.370742
1.000000 0.384263 0.370784
0.033237 0.312670 0.124073
0.028996 0.306620 0.123153
0.022895 0.297646 0.121810
0.263293 0.278549 0.123896
0.542685 0.200811 0.132201
1.000000 0.199401 0.213053
1.000000 0.377322 0.363527
1.000000 0.384222 0.370742
1.000000 0.384263 0.370784
0.179014 0.620730 0.208265
0.177591 0.617101 0.207059
0.175495 0.611768 0.205289
0.168619 0.594323 0.199520
0.555402 0.561508 0.209354
1.000000 0.423106 0.238659
1.000000 0.372184 0.358147
1.000000 0.384222 0.370741
1.000000 0.384262 0.370784
0.376521 1.000000 0.351143
0.375897 1.000000 0.350463
0.374988 1.000000 0.349474
0.372078 1.000000 0.346301
0.363115 1.000000 0.336498
0.990754 0.991065 0.354067
1.000000 0.694361 0.370645
1.000000 0.384220 0.370740
1.000000 0.384262 0.370783
0.394600 1.000000 0.370738
0.394600 1.000000 0.370738
0.394600 1.000000 0.370737
0.394600 1.000000 0.370737
0.394599 1.000000 0.370736
0.394595 1.000000 0.370733
1.000000 1.000000 0.370739
1.000000 0.696282 0.370752
1.000000 0.384262 0.370783
0.394642 1.000000 0.370782
0.394642 1.000000 0.370782
0.394641 1.000000 0.370782
0.394641 1.000000 0.370782
0.394641 1.000000 0.370782
0.394641 1.000000 0.370782
0.394640 1.000000 0.370781
1.000000 1.000000 0.370783
1.000000 0.696901 0.370787
0.394655 1.000000 0.370797
0.394655 1.000000 0.370797
0.394655 1.000000 0.370797
0.394655 1.000000 0.370797
0.394655 1.000000 0.370797
0.394655 1.000000 0.370797
0.394655 1.000000 0.370797
0.394654 1.000000 0.370796
1.000000 1.000000 0.370797
0.000000 0.036577 0.093140
0.000000 0.036577 0.093140
0.097137 0.042006 0.106198
0.275438 0.057389 0.113589
0.560093 0.097126 0.127056
1.000000 0.204071 0.217400
1.000000 0.379890 0.366213
1.000000 0.384223 0.370742
1.000000 0.384263 0.370784
0.000000 0.063212 0.101976
0.000000 0.036577 0.093140
0.073826 0.040847 0.101971
0.266007 0.056245 0.108768
0.554873 0.096298 0.126559
1.000000 0.203408 0.216782
1.000000 0.379516 0.365822
1.000000 0.384222 0.370742
1.000000 0.384263 0.370784
0.000000 0.147883 0.106207
0.000000 0.137442 0.104278
0.075528 0.126226 0.103632
0.257330 0.081744 0.104483
0.547194 0.095088 0.125838
1.000000 0.202437 0.215878
1.000000 0.378975 0.365256
1.000000 0.384222 0.370742
1.000000 0.384263 0.370784
0.032182 0.311179 0.123845
0.027953 0.305109 0.122925
0.021870 0.296104 0.121581
0.261103 0.276787 0.123590
0.541314 0.198419 0.131872
1.000000 0.199292 0.212952
1.000000 0.377264 0.363466
1.000000 0.384222 0.370742
1.000000 0.384263 0.370784
0.178663 0.619834 0.207967
0.177236 0.616199 0.206760
0.175137 0.610857 0.204987
0.168249 0.593385 0.199211
0.554202 0.560448 0.208955
1.000000 0.421750 0.238355
1.000000 0.372127 0.358087
1.000000 0.384222 0.370741
1.000000 0.384262 0.370784
0.376366 1.000000 0.350974
0.375742 1.000000 0.350295
0.374834 1.000000 0.349306
0.371924 1.000000 0.346133
0.362961 1.000000 0.336329
0.990158 0.990536 0.353840
1.000000 0.694003 0.370645
1.000000 0.384220 0.370740
1.000000 0.384262 0.370783
0.394600 1.000000 0.370738
0.394600 1.000000 0.370738
0.394600 1.000000 0.370737
0.394600 1.000000 0.370737
0.394599 1.000000 0.370736
0.394595 1.000000 0.370733
1.000000 1.000000 0.370739
1.000000 0.696167 0.370752
1.000000 0.384262 0.370783
0.394642 1.000000 0.370782
0.394642 1.000000 0.370782
0.394641 1.000000 0.370782
0.394641 1.000000 0.370782
0.394641 1.000000 0.370782
0.394641 1.000000 0.370782
0.394640 1.000000 0.370781
1.000000 1.000000 0.370783
1.000000 0.696864 0.370787
0.394655 1.000000 0.370797
0.394655 1.000000 0.370797
0.394655 1.000000 0.370797
0.394655 1.000000 0.370797
0.394655 1.000000 0.370797
0.394655 1.000000 0.370797
0.394655 1.000000 0.370797
0.394654 1.000000 0.370796
1.000000 1.000000 0.370797
0.000000 0.036577 0.093140
0.000000 0.036577 0.093140
0.097146 0.042937 0.148139
0.275325 0.058289 0.163450
0.560151 0.097807 0.183355
1.000000 0.204227 0.239966
1.000000 0.379802 0.366121
1.000000 0.384223 0.370742
1.000000 0.384263 0.370784
0.000000 0.060084 0.139644
0.000000 0.036577 0.093140
0.074017 0.041763 0.143418
0.265894 0.057152 0.159595
0.554838 0.096919 0.179440
1.000000 0.203515 0.235950
1.000000 0.379429 0.365731
1.000000 0.384222 0.370742
1.000000 0.384263 0.370784
0.000000 0.145669 0.155963
0.000000 0.135127 0.153498
0.069895 0.123265 0.153223
0.255760 0.076755 0.155840
0.547021 0.095620 0.173618
1.000000 0.202473 0.229967
1.000000 0.378888 0.365166
1.000000 0.384222 0.370742
1.000000 0.384263 0.370784
0.032491 0.309679 0.168211
0.028229 0.303574 0.166581
0.022099 0.294517 0.164190
0.258595 0.274782 0.163248
0.539883 0.195255 0.162127
1.000000 0.199133 0.212804
1.000000 0.377178 0.363377
1.000000 0.384222 0.370742
1.000000 0.384263 0.370784
0.178149 0.618524 0.207532
0.176719 0.614881 0.206322
0.174614 0.609527 0.204546
0.167707 0.592014 0.198759
0.552447 0.558898 0.208370
1.000000 0.419762 0.237908
1.000000 0.372045 0.358001
1.000000 0.384222 0.370741
1.000000 0.384262 0.370784
0.376141 1.000000 0.350729
0.375517 1.000000 0.350050
0.374609 1.000000 0.349060
0.371700 1.000000 0.345888
0.362736 1.000000 0.336082
0.989289 0.989766 0.353508
1.000000 0.693478 0.370645
1.000000 0.384220 0.370740
1.000000 0.384262 0.370783
0.394600 1.000000 0.370738
0.394600 1.000000 0.370737
0.394600 1.000000 0.370737
0.394600 1.000000 0.370737
0.394599 1.000000 0.370736
0.394595 1.000000 0.370733
1.000000 1.000000 0.370739
1.000000 0.695999 0.370752
1.000000 0.384262 0.370783
0.394642 1.000000 0.370782
0.394641 1.000000 0.370782
0.394641 1.000000 0.370782
0.394641 1.000000 0.370782
0.394641 1.000000 0.370782
0.394641 1.000000 0.370782
0.394640 1.000000 0.370781
1.000000 1.000000 0.370783
1.000000 0.696810 0.370787
0.394655 1.000000 0.370797
0.394655 1.000000 0.370797
0.394655 1.000000 0.370797
0.394655 1.000000 0.370797
0.394655 1.000000 0.370797
0.394655 1.000000 0.370797
0.394655 1.000000 0.370797
0.394654 1.000000 0.370796
1.000000 1.000000 0.370797
0.000000 0.040642 0.225374
0.000000 0.041150 0.227733
0.093513 0.045965 0.243573
0.274503 0.061137 0.267091
0.560364 0.100059 0.299377
1.000000 0.206025 0.362012
1.000000 0.380325 0.426881
1.000000 0.384222 0.370742
1.000000 0.384263 0.370784
0.000000 0.046883 0.227154
0.000000 0.040549 0.223211
0.069250 0.044769 0.238903
0.265029 0.060024 0.264005
0.555044 0.099174 0.296735
1.000000 0.205319 0.359419
1.000000 0.379921 0.424583
1.000000 0.384222 0.370742
1.000000 0.384263 0.370784
0.000000 0.138060 0.257126
0.000000 0.127100 0.253771
0.048521 0.113136 0.252788
0.250716 0.058531 0.259437
0.547216 0.097881 0.292858
1.000000 0.204286 0.355604
1.000000 0.379336 0.421214
1.000000 0.384222 0.370742
1.000000 0.384263 0.370784
0.035502 0.305524 0.287136
0.031207 0.299347 0.285476
0.025028 0.290178 0.283021
0.251552 0.269198 0.283551
0.537222 0.186021 0.289161
1.000000 0.200936 0.343086
1.000000 0.377490 0.410246
1.000000 0.384222 0.370742
1.000000 0.384263 0.370784
0.178951 0.616040 0.332071
0.177517 0.612381 0.330701
0.175406 0.607002 0.328689
0.168477 0.589406 0.322126
0.548324 0.555427 0.323461
1.000000 0.414244 0.328257
1.000000 0.371969 0.374441
1.000000 0.384222 0.370741
1.000000 0.384262 0.370784
0.375419 1.000000 0.349943
0.374796 1.000000 0.349264
0.373888 1.000000 0.348275
0.370980 1.000000 0.345103
0.362014 1.000000 0.335291
0.986504 0.987298 0.352446
1.000000 0.691781 0.370644
1.000000 0.384220 0.370740
1.000000 0.384262 0.370783
0.394600 1.000000 0.370737
0.394600 1.000000 0.370737
0.394600 1.000000 0.370737
0.394599 1.000000 0.370737
0.394599 1.000000 0.370736
0.394595 1.000000 0.370732
1.000000 1.000000 0.370738
1.000000 0.695460 0.370752
1.000000 0.384262 0.370783
0.394641 1.000000 0.370782
0.394641 1.000000 0.370782
0.394641 1.000000 0.370782
0.394641 1.000000 0.370782
0.394641 1.000000 0.370782
0.394641 1.000000 0.370782
0.394640 1.000000 0.370781
1.000000 1.000000 0.370783
1.000000 0.696636 0.370787
0.394655 1.000000 0.370797
0.394655 1.000000 0.370797
0.394655 1.000000 0.370797
0.394655 1.000000 0.370797
0.394655 1.000000 0.370797
0.394655 1.000000 0.370797
0.394655 1.000000 0.370797
0.394654 1.000000 0.370796
1.000000 1.000000 0.370797
0.000000 0.052484 0.424382
0.000000 0.052469 0.424186
0.058545 0.055226 0.430756
0.268549 0.069548 0.456977
0.560306 0.106982 0.503050
1.000000 0.211464 0.581798
1.000000 0.383693 0.638567
1.000000 0.384223 0.437155
1.000000 0.384263 0.370784
0.000000 0.052402 0.423276
0.000000 0.052388 0.423080
0.017875 0.054066 0.427096
0.258663 0.068504 0.454339
0.554948 0.106098 0.501035
1.000000 0.210778 0.580166
1.000000 0.383223 0.636988
1.000000 0.384223 0.436573
1.000000 0.384263 0.370784
0.000000 0.108654 0.437937
0.000000 0.095126 0.433689
0.000000 0.072838 0.427114
0.243636 0.066968 0.450416
0.547063 0.104809 0.498084
1.000000 0.209774 0.577775
1.000000 0.382574 0.634739
1.000000 0.384223 0.435723
1.000000 0.384263 0.370784
0.044703 0.291821 0.487462
0.040526 0.285377 0.485411
0.034207 0.275793 0.482363
0.227979 0.250852 0.482229
0.528813 0.153516 0.494956
1.000000 0.206517 0.570020
1.000000 0.380610 0.627680
1.000000 0.384222 0.432970
1.000000 0.384263 0.370784
0.182010 0.608643 0.559983
0.180598 0.604958 0.558826
0.178521 0.599540 0.557120
0.171704 0.581805 0.551496
0.536224 0.545408 0.554400
1.000000 0.398056 0.566256
1.000000 0.374946 0.606143
1.000000 0.384222 0.424248
1.000000 0.384262 0.370784
0.376743 1.000000 0.589173
0.376115 1.000000 0.588504
0.375199 1.000000 0.587532
0.372268 1.000000 0.584433
0.363242 1.000000 0.575018
0.979841 0.981632 0.575123
1.000000 0.684012 0.533419
1.000000 0.384220 0.394807
1.000000 0.384262 0.370783
0.394600 1.000000 0.375412
0.394600 1.000000 0.375276
0.394600 1.000000 0.375075
0.394599 1.000000 0.374428
0.394598 1.000000 0.372382
0.394595 1.000000 0.370732
1.000000 1.000000 0.370738
1.000000 0.693784 0.370752
1.000000 0.384262 0.370783
0.394641 1.000000 0.370782
0.394641 1.000000 0.370782
0.394641 1.000000 0.370782
0.394641 1.000000 0.370782
0.394641 1.000000 0.370782
0.394641 1.000000 0.370782
0.394640 1.000000 0.370781
1.000000 1.000000 0.370783
1.000000 0.696098 0.370787
0.394655 1.000000 0.370797
0.394655 1.000000 0.370797
0.394655 1.000000 0.370797
0.394655 1.000000 0.370797
0.394655 1.000000 0.370797
0.394655 1.000000 0.370797
0.394655 1.000000 0.370797
0.394654 1.000000 0.370796
1.000000 1.000000 0.370797
0.013966 0.084689 0.788697
0.013938 0.084677 0.788580
0.013896 0.084661 0.788410
0.227368 0.092704 0.803927
0.554105 0.129208 0.860186
1.000000 0.227124 0.955417
1.000000 0.384109 0.991367
1.000000 0.384223 0.642665
1.000000 0.384263 0.439026
0.013805 0.084624 0.788037
0.013777 0.084613 0.787920
0.013735 0.084596 0.787750
0.214357 0.091803 0.801665
0.548550 0.128234 0.858377
1.000000 0.226509 0.954358
1.000000 0.384109 0.991383
1.000000 0.384223 0.642406
1.000000 0.384263 0.438839
0.013571 0.084529 0.787074
0.013543 0.084518 0.786957
0.013501 0.084501 0.786786
0.193867 0.090482 0.798331
0.540361 0.126826 0.855728
1.000000 0.225607 0.952802
1.000000 0.384108 0.991407
1.000000 0.384223 0.642028
1.000000 0.384263 0.438566
0.068382 0.238998 0.825489
0.065181 0.231070 0.822812
0.060316 0.219108 0.818835
0.122244 0.178212 0.809010
0.513339 0.122389 0.847139
1.000000 0.222675 0.947733
1.000000 0.384107 0.991484
1.000000 0.384223 0.640808
1.000000 0.384263 0.437687
0.191141 0.584088 0.931991
0.189797 0.580297 0.930790
0.187819 0.574719 0.929009
0.181331 0.556425 0.923049
0.496043 0.512526 0.924126
1.000000 0.341749 0.944071
1.000000 0.384103 0.991730
1.000000 0.384223 0.636985
1.000000 0.384263 0.434956
0.380944 1.000000 0.977018
0.380310 1.000000 0.976504
0.379387 1.000000 0.975762
0.376440 1.000000 0.973440
0.367409 1.000000 0.966693
0.959506 0.964484 0.968622
1.000000 0.656767 0.903584
1.000000 0.384221 0.624593
1.000000 0.384262 0.426304
0.394600 1.000000 0.621962
0.394600 1.000000 0.622089
0.394600 1.000000 0.622275
0.394600 1.000000 0.622876
0.394599 1.000000 0.624763
0.394596 1.000000 0.630921
1.000000 1.000000 0.605129
1.000000 0.686003 0.536872
1.000000 0.384262 0.397119
0.394641 1.000000 0.377939
0.394641 1.000000 0.377896
0.394641 1.000000 0.377834
0.394641 1.000000 0.377631
0.394641 1.000000 0.377003
0.394641 1.000000 0.375018
0.394640 1.000000 0.370781
1.000000 1.000000 0.370782
1.000000 0.694428 0.370787
0.394655 1.000000 0.370797
0.394655 1.000000 0.370797
0.394655 1.000000 0.370797
0.394655 1.000000 0.370797
0.394655 1.000000 0.370797
0.394655 1.000000 0.370797
0.394655 1.000000 0.370797
0.394654 1.000000 0.370796
1.000000 1.000000 0.370797
0.153049 0.170759 1.000000
0.153038 0.170748 1.000000
0.153021 0.170733 1.000000
0.152967 0.170686 1.000000
0.488447 0.193224 1.000000
1.000000 0.267719 1.000000
1.000000 0.384128 1.000000
1.000000 0.384226 0.993087
1.000000 0.384263 0.643771
0.152985 0.170701 1.000000
0.152973 0.170691 1.000000
0.152956 0.170676 1.000000
0.152903 0.170628 1.000000
0.481465 0.192472 1.000000
1.000000 0.267237 1.000000
1.000000 0.384128 1.000000
1.000000 0.384226 0.993093
1.000000 0.384263 0.643688
0.152890 0.170617 1.000000
0.152879 0.170607 1.000000
0.152862 0.170592 1.000000
0.152809 0.170544 1.000000
0.471083 0.191372 1.000000
1.000000 0.266532 1.000000
1.000000 0.384128 1.000000
1.000000 0.384226 0.993102
1.000000 0.384263 0.643566
0.152588 0.170348 1.000000
0.152577 0.170338 1.000000
0.152560 0.170323 1.000000
0.152507 0.170275 1.000000
0.435970 0.187805 1.000000
1.000000 0.264257 1.000000
1.000000 0.384126 1.000000
1.000000 0.384226 0.993132
1.000000 0.384263 0.643174
0.217422 0.488597 1.000000
0.216178 0.484125 1.000000
0.214356 0.477515 1.000000
0.208453 0.455570 1.000000
0.326635 0.383561 1.000000
0.977036 0.256998 1.000000
1.000000 0.384123 1.000000
1.000000 0.384225 0.993222
1.000000 0.384263 0.641960
0.394488 1.000000 1.000000
0.394003 1.000000 1.000000
0.392888 1.000000 1.000000
0.389627 1.000000 1.000000
0.380283 0.982235 1.000000
0.892690 0.908761 1.000000
1.000000 0.564862 1.000000
1.000000 0.384224 0.993510
1.000000 0.384263 0.638157
0.394601 1.000000 1.000000
0.394601 1.000000 1.000000
0.394601 1.000000 1.000000
0.394601 1.000000 1.000000
0.394600 1.000000 1.000000
0.394597 1.000000 1.000000
0.996530 1.000000 1.000000
1.000000 0.658954 0.904291
1.000000 0.384262 0.625830
0.394642 1.000000 0.623104
0.394642 1.000000 0.623146
0.394642 1.000000 0.623206
0.394641 1.000000 0.623401
0.394641 1.000000 0.624006
0.394641 1.000000 0.625903
0.394640 1.000000 0.632096
1.000000 1.000000 0.606237
1.000000 0.686643 0.537980
0.394655 1.000000 0.378754
0.394655 1.000000 0.378740
0.394655 1.000000 0.378720
0.394655 1.000000 0.378655
0.394655 1.000000 0.378455
0.394655 1.000000 0.377833
0.394655 1.000000 0.375866
0.394654 1.000000 0.370796
1.000000 1.000000 0.370797
0.341569 0.329120 1.000000
0.341564 0.329115 1.000000
0.341558 0.329108 1.000000
0.341536 0.329086 1.000000
0.341471 0.329018 1.000000
0.878776 0.362670 1.000000
1.000000 0.384167 1.000000
1.000000 0.384232 1.000000
1.000000 0.384264 0.993644
0.341543 0.329093 1.000000
0.341539 0.329088 1.000000
0.341532 0.329081 1.000000
0.341511 0.329059 1.000000
0.341445 0.328991 1.000000
0.875163 0.362299 1.000000
1.000000 0.384167 1.000000
1.000000 0.384232 1.000000
1.000000 0.384264 0.993646
0.341506 0.329054 1.000000
0.341501 0.329049 1.000000
0.341495 0.329042 1.000000
0.341473 0.329020 1.000000
0.341408 0.328952 1.000000
0.869864 0.361758 1.000000
1.000000 0.384167 1.000000
1.000000 0.384232 1.000000
1.000000 0.384264 0.993649
0.341386 0.328929 1.000000
0.341381 0.328924 1.000000
0.341375 0.328917 1.000000
0.341354 0.328895 1.000000
0.341288 0.328826 1.000000
0.852613 0.360024 1.000000
1.000000 0.384166 1.000000
1.000000 0.384232 1.000000
1.000000 0.384264 0.993659
0.341016 0.328542 1.000000
0.341012 0.328538 1.000000
0.341005 0.328531 1.000000
0.340984 0.328508 1.000000
0.340918 0.328440 1.000000
0.796648 0.354677 1.000000
1.000000 0.384164 1.000000
1.000000 0.384231 1.000000
1.000000 0.384264 0.993689
0.394516 0.789852 1.000000
0.394515 0.788694 1.000000
0.394515 0.786991 1.000000
0.394513 0.781407 1.000000
0.394507 0.762940 1.000000
0.606195 0.679516 1.000000
1.000000 0.384158 1.000000
1.000000 0.384230 1.000000
1.000000 0.384263 0.993784
0.394605 1.000000 1.000000
0.394605 1.000000 1.000000
0.394605 1.000000 1.000000
0.394605 1.000000 1.000000
0.394604 1.000000 1.000000
0.394601 1.000000 1.000000
0.914274 0.930834 1.000000
1.000000 0.567825 1.000000
1.000000 0.384263 0.994086
0.394642 1.000000 1.000000
0.394642 1.000000 1.000000
0.394642 1.000000 1.000000
0.394642 1.000000 1.000000
0.394642 1.000000 1.000000
0.394642 1.000000 1.000000
0.394641 1.000000 1.000000
0.996631 1.000000 1.000000
1.000000 0.659658 0.904519
0.394655 1.000000 0.623473
0.394655 1.000000 0.623487
0.394655 1.000000 0.623507
0.394655 1.000000 0.623570
0.394655 1.000000 0.623765
0.394655 1.000000 0.624371
0.394655 1.000000 0.626272
0.394654 1.000000 0.632476
1.000000 1.000000 0.606595
0.394586 0.384204 1.000000
0.394586 0.384204 1.000000
0.394586 0.384204 1.000000
0.394586 0.384204 1.000000
0.394586 0.384204 1.000000
0.394586 0.384204 1.000000
0.928690 0.384217 1.000000
1.000000 0.384245 1.000000
1.000000 0.384266 1.000000
0.394586 0.384204 1.000000
0.394586 0.384204 1.000000
0.394586 0.384204 1.000000
0.394586 0.384204 1.000000
0.394586 0.384204 1.000000
0.394586 0.384204 1.000000
0.927747 0.384217 1.000000
1.000000 0.384245 1.000000
1.000000 0.384266 1.000000
0.394586 0.384204 1.000000
0.394586 0.384204 1.000000
0.394586 0.384204 1.000000
0.394586 0.384204 1.000000
0.394586 0.384204 1.000000
0.394586 0.384204 1.000000
0.926367 0.384217 1.000000
1.000000 0.384245 1.000000
1.000000 0.384266 1.000000
0.394586 0.384204 1.000000
0.394586 0.384204 1.000000
0.394586 0.384204 1.000000
0.394586 0.384204 1.000000
0.394586 0.384204 1.000000
0.394586 0.384204 1.000000
0.921906 0.384217 1.000000
1.000000 0.384244 1.000000
1.000000 0.384266 1.000000
0.394586 0.384204 1.000000
0.394586 0.384204 1.000000
0.394586 0.384204 1.000000
0.394586 0.384204 1.000000
0.394586 0.384204 1.000000
0.394586 0.384204 1.000000
0.907799 0.384217 1.000000
1.000000 0.384244 1.000000
1.000000 0.384266 1.000000
0.394586 0.384204 1.000000
0.394586 0.384204 1.000000
0.394586 0.384204 1.000000
0.394586 0.384204 1.000000
0.394586 0.384204 1.000000
0.394586 0.384204 1.000000
0.860575 0.384215 1.000000
1.000000 0.384244 1.000000
1.000000 0.384265 1.000000
0.394614 0.791204 1.000000
0.394614 0.790832 1.000000
0.394614 0.790288 1.000000
0.394614 0.788532 1.000000
0.394613 0.782998 1.000000
0.394611 0.764700 1.000000
0.609112 0.681794 1.000000
1.000000 0.384242 1.000000
1.000000 0.384265 1.000000
0.394643 1.000000 1.000000
0.394643 1.000000 1.000000
0.394643 1.000000 1.000000
0.394643 1.000000 1.000000
0.394643 1.000000 1.000000
0.394643 1.000000 1.000000
0.394642 1.000000 1.000000
0.914515 0.931056 1.000000
1.000000 0.568777 1.000000
0.394655 1.000000 1.000000
0.394655 1.000000 1.000000
0.394655 1.000000 1.000000
0.394655 1.000000 1.000000
0.394655 1.000000 1.000000
0.394655 1.000000 1.000000
0.394655 1.000000 1.000000
0.394655 1.000000 1.000000
0.996664 1.000000 1.000000
