SonyA1_SLog3_CinematicTeal_v1.cube
TITLE "Sony Alpha 1 S-Log3 - Cinematic Teal v1"
# INPUT:  S-Gamut3.Cine / S-Log3  (Sony Alpha 1 RAW/internal)
# OUTPUT: Rec.709 Gamma 2.4 with cinematic teal-shadow grade
# Bakes in: S-Log3 decode + S-Gamut3.Cine>Rec.709 + v1 creative grade
# In DaVinci: apply directly on clip, NO CST node needed
LUT_3D_SIZE 5
LUT_3D_INPUT_RANGE 0.0 1.0
0.000000 0.036577 0.093140
0.099379 0.041937 0.095943
0.560930 0.097259 0.127136
1.000000 0.379950 0.366276
1.000000 0.384263 0.370784
0.000000 0.150288 0.102286
0.080719 0.129159 0.101670
0.548045 0.095222 0.125917
1.000000 0.379034 0.365319
1.000000 0.384263 0.370784
0.179014 0.620730 0.208265
0.175495 0.611768 0.205289
0.555402 0.561508 0.209354
1.000000 0.372184 0.358147
1.000000 0.384262 0.370784
0.394600 1.000000 0.370738
0.394600 1.000000 0.370737
0.394599 1.000000 0.370736
1.000000 1.000000 0.370739
1.000000 0.384262 0.370783
0.394655 1.000000 0.370797
0.394655 1.000000 0.370797
0.394655 1.000000 0.370797
0.394655 1.000000 0.370797
1.000000 1.000000 0.370797
0.000000 0.036577 0.093140
0.097146 0.042937 0.148139
0.560151 0.097807 0.183355
1.000000 0.379802 0.366121
1.000000 0.384263 0.370784
0.000000 0.145669 0.155963
0.069895 0.123265 0.153223
0.547021 0.095620 0.173618
1.000000 0.378888 0.365166
1.000000 0.384263 0.370784
0.178149 0.618524 0.207532
0.174614 0.609527 0.204546
0.552447 0.558898 0.208370
1.000000 0.372045 0.358001
1.000000 0.384262 0.370784
0.394600 1.000000 0.370738
0.394600 1.000000 0.370737
0.394599 1.000000 0.370736
1.000000 1.000000 0.370739
1.000000 0.384262 0.370783
0.394655 1.000000 0.370797
0.394655 1.000000 0.370797
0.394655 1.000000 0.370797
0.394655 1.000000 0.370797
1.000000 1.000000 0.370797
0.000000 0.052484 0.424382
0.058545 0.055226 0.430756
0.560306 0.106982 0.503050
1.000000 0.383693 0.638567
1.000000 0.384263 0.370784
0.000000 0.108654 0.437937
0.000000 0.072838 0.427114
0.547063 0.104809 0.498084
1.000000 0.382574 0.634739
1.000000 0.384263 0.370784
0.182010 0.608643 0.559983
0.178521 0.599540 0.557120
0.536224 0.545408 0.554400
1.000000 0.374946 0.606143
1.000000 0.384262 0.370784
0.394600 1.000000 0.375412
0.394600 1.000000 0.375075
0.394598 1.000000 0.372382
1.000000 1.000000 0.370738
1.000000 0.384262 0.370783
0.394655 1.000000 0.370797
0.394655 1.000000 0.370797
0.394655 1.000000 0.370797
0.394655 1.000000 0.370797
1.000000 1.000000 0.370797
0.153049 0.170759 1.000000
0.153021 0.170733 1.000000
0.488447 0.193224 1.000000
1.000000 0.384128 1.000000
1.000000 0.384263 0.643771
0.152890 0.170617 1.000000
0.152862 0.170592 1.000000
0.471083 0.191372 1.000000
1.000000 0.384128 1.000000
1.000000 0.384263 0.643566
0.217422 0.488597 1.000000
0.214356 0.477515 1.000000
0.326635 0.383561 1.000000
1.000000 0.384123 1.000000
1.000000 0.384263 0.641960
0.394601 1.000000 1.000000
0.394601 1.000000 1.000000
0.394600 1.000000 1.000000
0.996530 1.000000 1.000000
1.000000 0.384262 0.625830
0.394655 1.000000 0.378754
0.394655 1.000000 0.378720
0.394655 1.000000 0.378455
0.394655 1.000000 0.375866
1.000000 1.000000 0.370797
0.394586 0.384204 1.000000
0.394586 0.384204 1.000000
0.394586 0.384204 1.000000
0.928690 0.384217 1.000000
1.000000 0.384266 1.000000
0.394586 0.384204 1.000000
0.394586 0.384204 1.000000
0.394586 0.384204 1.000000
0.926367 0.384217 1.000000
1.000000 0.384266 1.000000
0.394586 0.384204 1.000000
0.394586 0.384204 1.000000
0.394586 0.384204 1.000000
0.907799 0.384217 1.000000
1.000000 0.384266 1.000000
0.394614 0.791204 1.000000
0.394614 0.790288 1.000000
0.394613 0.782998 1.000000
0.609112 0.681794 1.000000
1.000000 0.384265 1.000000
0.394655 1.000000 1.000000
0.394655 1.000000 1.000000
0.394655 1.000000 1.000000
0.394655 1.000000 1.000000
0.996664 1.000000 1.000000
